P3
400 200
255
180 210 255
180 210 255
180 210 255
180 210 255
180 210 255
180 210 255
180 210 255
180 210 255
180 210 255
180 210 255
180 210 255
180 210 255
180 210 255
180 210 255
180 210 255
180 210 255
180 210 255
180 210 255
180 210 255
180 210 255
180 210 255
180 210 255
180 210 255
180 210 255
180 210 255
180 210 255
180 210 255
180 210 255
180 210 255
180 210 255
180 210 255
180 210 255
180 210 255
180 210 255
180 210 255
179 210 255
179 210 255
179 210 255
179 210 255
179 210 255
179 210 255
179 210 255
179 210 255
179 210 255
179 210 255
179 210 255
179 210 255
179 210 255
179 210 255
179 210 255
179 210 255
179 210 255
179 210 255
179 210 255
179 210 255
179 210 255
179 210 255
179 209 255
179 209 255
179 209 255
179 209 255
179 209 255
179 209 255
179 209 255
179 209 255
179 209 255
179 209 255
179 209 255
179 209 255
178 209 255
178 209 255
178 209 255
178 209 255
178 209 255
178 209 255
178 209 255
178 209 255
178 209 255
178 209 255
178 209 255
178 209 255
178 209 255
178 209 255
178 209 255
178 209 255
178 209 255
178 209 255
178 209 255
178 209 255
178 209 255
178 209 255
178 209 255
178 209 255
178 209 255
178 209 255
178 209 255
178 209 255
178 209 255
178 209 255
178 209 255
178 209 255
178 209 255
178 209 255
178 209 255
178 209 255
177 209 255
178 209 255
177 209 255
177 209 255
177 209 255
177 209 255
177 209 255
177 209 255
177 209 255
177 209 255
177 209 255
177 209 255
177 209 255
177 209 255
177 209 255
177 208 255
177 208 255
177 208 255
177 208 255
177 208 255
177 208 255
177 208 255
177 208 255
177 208 255
177 208 255
177 208 255
177 208 255
177 208 255
177 208 255
177 208 255
177 208 255
177 208 255
177 208 255
177 208 255
177 208 255
177 208 255
177 208 255
177 208 255
177 208 255
177 208 255
177 208 255
177 208 255
177 208 255
177 208 255
177 208 255
177 208 255
177 208 255
177 208 255
177 208 255
177 208 255
177 208 255
176 208 255
176 208 255
176 208 255
176 208 255
176 208 255
176 208 255
176 208 255
176 208 255
176 208 255
176 208 255
176 208 255
176 208 255
176 208 255
176 208 255
176 208 255
176 208 255
176 208 255
176 208 255
176 208 255
176 208 255
176 208 255
176 208 255
176 208 255
176 208 255
176 208 255
176 208 255
176 208 255
176 208 255
170 202 249
158 191 239
146 179 230
143 178 230
142 177 230
138 175 230
138 174 230
135 173 230
136 174 230
134 172 230
133 172 230
132 171 230
133 172 230
131 170 230
131 171 230
131 170 230
132 171 230
131 171 230
131 170 230
132 171 230
132 171 230
132 171 230
133 172 230
134 173 230
136 174 230
136 174 230
138 174 230
142 177 230
145 179 230
147 180 230
157 189 236
173 205 252
176 208 255
176 208 255
176 208 255
176 208 255
176 208 255
176 208 255
176 208 255
176 208 255
176 208 255
176 208 255
176 208 255
176 208 255
176 208 255
176 208 255
176 208 255
176 208 255
176 208 255
176 208 255
176 208 255
176 208 255
176 208 255
176 208 255
176 208 255
176 208 255
176 208 255
176 208 255
176 208 255
176 208 255
176 208 255
176 208 255
176 208 255
177 208 255
177 208 255
177 208 255
177 208 255
177 208 255
177 208 255
177 208 255
177 208 255
177 208 255
177 208 255
177 208 255
177 208 255
177 208 255
177 208 255
177 208 255
177 208 255
177 208 255
177 208 255
177 208 255
177 208 255
177 208 255
177 208 255
177 208 255
177 208 255
177 208 255
177 208 255
177 208 255
177 208 255
177 208 255
177 208 255
177 208 255
177 208 255
177 208 255
177 209 255
177 209 255
177 209 255
177 209 255
177 209 255
177 209 255
177 209 255
177 209 255
177 209 255
177 209 255
177 209 255
177 209 255
177 209 255
177 209 255
178 209 255
178 209 255
178 209 255
178 209 255
178 209 255
178 209 255
178 209 255
178 209 255
178 209 255
178 209 255
178 209 255
178 209 255
178 209 255
178 209 255
178 209 255
178 209 255
178 209 255
178 209 255
178 209 255
178 209 255
178 209 255
178 209 255
178 209 255
178 209 255
178 209 255
178 209 255
178 209 255
178 209 255
178 209 255
178 209 255
178 209 255
178 209 255
178 209 255
178 209 255
178 209 255
178 209 255
178 209 255
179 209 255
179 209 255
179 209 255
179 209 255
179 209 255
179 209 255
179 209 255
179 209 255
179 209 255
179 209 255
179 210 255
179 210 255
179 210 255
179 210 255
179 210 255
179 210 255
179 210 255
179 210 255
179 210 255
179 210 255
179 210 255
179 210 255
179 210 255
179 210 255
179 210 255
179 210 255
179 210 255
179 210 255
179 210 255
179 210 255
179 210 255
179 210 255
180 210 255
179 210 255
179 210 255
180 210 255
180 210 255
180 210 255
180 210 255
180 210 255
180 210 255
180 210 255
180 210 255
180 210 255
180 210 255
180 210 255
180 210 255
180 210 255
180 210 255
180 210 255
180 210 255
180 210 255
180 210 255
180 210 255
180 210 255
180 210 255
180 210 255
180 210 255
180 210 255
180 210 255
180 210 255
180 210 255
180 210 255
180 210 255
180 210 255
180 210 255
180 210 255
180 210 255
180 210 255
181 211 255
181 211 255
181 211 255
181 211 255
181 211 255
181 211 255
180 210 255
180 210 255
180 210 255
180 210 255
180 210 255
180 210 255
180 210 255
180 210 255
180 210 255
180 210 255
180 210 255
180 210 255
180 210 255
180 210 255
180 210 255
180 210 255
180 210 255
180 210 255
180 210 255
180 210 255
180 210 255
180 210 255
180 210 255
180 210 255
180 210 255
180 210 255
180 210 255
180 210 255
180 210 255
180 210 255
180 210 255
180 210 255
180 210 255
180 210 255
180 210 255
180 210 255
179 210 255
179 210 255
179 210 255
179 210 255
179 210 255
179 210 255
179 210 255
179 210 255
179 210 255
179 210 255
179 210 255
179 210 255
179 210 255
179 210 255
179 210 255
179 210 255
179 210 255
179 210 255
179 210 255
179 210 255
179 210 255
179 210 255
179 210 255
179 210 255
179 210 255
179 209 255
179 209 255
179 209 255
179 209 255
179 209 255
179 209 255
179 209 255
179 209 255
179 209 255
179 209 255
179 209 255
178 209 255
178 209 255
178 209 255
178 209 255
178 209 255
178 209 255
178 209 255
178 209 255
178 209 255
178 209 255
178 209 255
178 209 255
178 209 255
178 209 255
178 209 255
178 209 255
178 209 255
178 209 255
178 209 255
178 209 255
178 209 255
178 209 255
178 209 255
178 209 255
178 209 255
178 209 255
178 209 255
178 209 255
178 209 255
178 209 255
178 209 255
178 209 255
178 209 255
178 209 255
178 209 255
178 209 255
178 209 255
178 209 255
178 209 255
178 209 255
177 209 255
177 209 255
177 209 255
177 209 255
177 209 255
177 209 255
177 209 255
177 209 255
177 209 255
177 209 255
177 209 255
177 209 255
177 209 255
177 209 255
177 208 255
177 208 255
177 208 255
177 208 255
177 208 255
177 208 255
177 208 255
177 208 255
177 208 255
177 208 255
177 208 255
177 208 255
177 208 255
177 208 255
177 208 255
177 208 255
177 208 255
177 208 255
177 208 255
177 208 255
177 208 255
177 208 255
177 208 255
177 208 255
177 208 255
177 208 255
177 208 255
177 208 255
177 208 255
177 208 255
177 208 255
177 208 255
177 208 255
177 208 255
177 208 255
177 208 255
177 208 255
177 208 255
177 208 255
177 208 255
177 208 255
177 208 255
177 208 255
177 208 255
176 208 255
176 208 255
177 208 255
176 208 255
176 208 255
174 205 252
156 188 236
144 178 230
143 178 230
140 176 230
138 175 230
135 173 230
134 172 230
132 171 230
131 171 230
130 170 230
129 169 230
129 169 230
127 168 230
128 169 230
127 168 230
126 168 230
127 168 230
127 168 230
126 168 230
127 168 230
127 168 230
127 168 230
128 169 230
128 169 230
129 169 230
129 169 230
130 170 230
131 171 230
132 171 230
135 173 230
136 173 230
137 174 230
139 176 230
142 177 230
146 180 230
163 195 243
174 205 252
176 208 255
177 208 255
176 208 255
176 208 255
177 208 255
176 208 255
177 208 255
177 208 255
177 208 255
177 208 255
177 208 255
177 208 255
177 208 255
177 208 255
177 208 255
177 208 255
177 208 255
177 208 255
177 208 255
177 208 255
177 208 255
177 208 255
177 208 255
177 208 255
177 208 255
177 208 255
177 208 255
177 208 255
177 208 255
177 208 255
177 208 255
177 208 255
177 208 255
177 208 255
177 208 255
177 208 255
177 208 255
177 208 255
177 208 255
177 208 255
177 208 255
177 208 255
177 208 255
177 208 255
177 208 255
177 208 255
177 208 255
177 208 255
177 208 255
177 209 255
177 209 255
177 209 255
177 209 255
177 209 255
177 209 255
177 209 255
177 209 255
177 209 255
177 209 255
177 209 255
177 209 255
177 209 255
177 209 255
177 209 255
178 209 255
178 209 255
178 209 255
178 209 255
178 209 255
178 209 255
178 209 255
178 209 255
178 209 255
178 209 255
178 209 255
178 209 255
178 209 255
178 209 255
178 209 255
178 209 255
178 209 255
178 209 255
178 209 255
178 209 255
178 209 255
178 209 255
178 209 255
178 209 255
178 209 255
178 209 255
178 209 255
178 209 255
178 209 255
178 209 255
178 209 255
178 209 255
178 209 255
178 209 255
178 209 255
178 209 255
178 209 255
178 209 255
179 209 255
179 209 255
179 209 255
179 209 255
179 209 255
179 209 255
179 209 255
179 209 255
179 209 255
179 209 255
179 209 255
179 210 255
179 209 255
179 210 255
179 210 255
179 210 255
179 210 255
179 210 255
179 210 255
179 210 255
179 210 255
179 210 255
179 210 255
179 210 255
179 210 255
179 210 255
179 210 255
179 210 255
179 210 255
179 210 255
179 210 255
179 210 255
179 210 255
179 210 255
179 210 255
179 210 255
180 210 255
180 210 255
180 210 255
180 210 255
180 210 255
180 210 255
180 210 255
180 210 255
180 210 255
180 210 255
180 210 255
180 210 255
180 210 255
180 210 255
180 210 255
180 210 255
180 210 255
180 210 255
180 210 255
180 210 255
180 210 255
180 210 255
180 210 255
180 210 255
180 210 255
180 210 255
180 210 255
180 210 255
180 210 255
180 210 255
180 210 255
180 210 255
180 210 255
180 210 255
180 210 255
180 210 255
180 210 255
181 211 255
181 211 255
181 211 255
181 211 255
181 211 255
181 211 255
181 211 255
181 211 255
181 211 255
181 211 255
181 211 255
181 211 255
181 211 255
181 211 255
181 211 255
181 211 255
181 211 255
181 211 255
181 211 255
181 211 255
181 211 255
180 210 255
180 210 255
180 210 255
180 210 255
180 210 255
180 210 255
180 210 255
180 210 255
180 210 255
180 210 255
180 210 255
180 210 255
180 210 255
180 210 255
180 210 255
180 210 255
180 210 255
180 210 255
180 210 255
180 210 255
180 210 255
180 210 255
180 210 255
180 210 255
180 210 255
180 210 255
180 210 255
180 210 255
180 210 255
180 210 255
180 210 255
180 210 255
180 210 255
180 210 255
180 210 255
180 210 255
179 210 255
179 210 255
179 210 255
179 210 255
179 210 255
179 210 255
179 210 255
179 210 255
179 210 255
179 210 255
179 210 255
179 210 255
179 210 255
179 210 255
179 210 255
179 210 255
179 210 255
179 210 255
179 210 255
179 210 255
179 210 255
179 210 255
179 210 255
179 210 255
179 210 255
179 209 255
179 209 255
179 209 255
179 209 255
179 209 255
179 209 255
179 209 255
179 209 255
179 209 255
179 209 255
179 209 255
178 209 255
178 209 255
178 209 255
178 209 255
178 209 255
178 209 255
178 209 255
178 209 255
178 209 255
178 209 255
178 209 255
178 209 255
178 209 255
178 209 255
178 209 255
178 209 255
178 209 255
178 209 255
178 209 255
178 209 255
178 209 255
178 209 255
178 209 255
178 209 255
178 209 255
178 209 255
178 209 255
178 209 255
178 209 255
178 209 255
178 209 255
178 209 255
178 209 255
178 209 255
178 209 255
178 209 255
178 209 255
178 209 255
178 209 255
178 209 255
178 209 255
178 209 255
177 209 255
177 209 255
177 209 255
177 209 255
177 209 255
177 209 255
177 209 255
177 209 255
177 209 255
177 209 255
177 209 255
177 209 255
177 209 255
177 209 255
177 209 255
177 209 255
177 209 255
177 209 255
177 208 255
177 209 255
177 208 255
177 208 255
177 208 255
177 208 255
177 208 255
177 208 255
177 208 255
177 208 255
177 208 255
177 208 255
177 208 255
177 208 255
177 208 255
177 208 255
177 208 255
177 208 255
177 208 255
177 208 255
177 208 255
177 208 255
177 208 255
177 208 255
177 208 255
177 208 255
177 208 255
177 208 255
177 208 255
177 208 255
177 208 255
174 206 252
167 199 246
146 179 230
144 179 230
141 176 230
137 174 230
134 172 230
133 172 230
131 170 230
131 171 230
129 170 230
128 169 230
127 168 230
126 168 230
126 168 230
125 167 230
124 167 230
124 167 230
124 166 230
124 166 230
123 166 230
123 166 230
124 166 230
124 166 230
124 166 230
124 166 230
124 167 230
125 167 230
125 167 230
126 168 230
127 168 230
128 169 230
128 169 230
130 170 230
131 170 230
132 171 230
135 173 230
136 174 230
138 175 230
141 177 230
144 179 230
160 192 239
167 199 246
174 205 252
177 208 255
177 208 255
177 208 255
177 208 255
177 208 255
177 208 255
177 208 255
177 208 255
177 208 255
177 208 255
177 208 255
177 208 255
177 208 255
177 208 255
177 208 255
177 208 255
177 208 255
177 208 255
177 208 255
177 208 255
177 208 255
177 208 255
177 208 255
177 208 255
177 208 255
177 208 255
177 208 255
177 208 255
177 208 255
177 208 255
177 209 255
177 209 255
177 208 255
177 209 255
177 209 255
177 209 255
177 209 255
177 209 255
177 209 255
177 209 255
177 209 255
177 209 255
177 209 255
177 209 255
177 209 255
177 209 255
178 209 255
178 209 255
177 209 255
178 209 255
178 209 255
178 209 255
178 209 255
178 209 255
178 209 255
178 209 255
178 209 255
178 209 255
178 209 255
178 209 255
178 209 255
178 209 255
178 209 255
178 209 255
178 209 255
178 209 255
178 209 255
178 209 255
178 209 255
178 209 255
178 209 255
178 209 255
178 209 255
178 209 255
178 209 255
178 209 255
178 209 255
178 209 255
178 209 255
178 209 255
178 209 255
178 209 255
178 209 255
178 209 255
178 209 255
178 209 255
178 209 255
178 209 255
178 209 255
178 209 255
179 209 255
179 209 255
179 209 255
179 209 255
179 209 255
179 209 255
179 209 255
179 209 255
179 209 255
179 209 255
179 209 255
179 209 255
179 210 255
179 210 255
179 210 255
179 210 255
179 210 255
179 210 255
179 210 255
179 210 255
179 210 255
179 210 255
179 210 255
179 210 255
179 210 255
179 210 255
179 210 255
179 210 255
179 210 255
179 210 255
179 210 255
179 210 255
179 210 255
179 210 255
179 210 255
179 210 255
180 210 255
180 210 255
180 210 255
180 210 255
180 210 255
180 210 255
180 210 255
180 210 255
180 210 255
180 210 255
180 210 255
180 210 255
180 210 255
180 210 255
180 210 255
180 210 255
180 210 255
180 210 255
180 210 255
180 210 255
180 210 255
180 210 255
180 210 255
180 210 255
180 210 255
180 210 255
180 210 255
180 210 255
180 210 255
180 210 255
180 210 255
180 210 255
180 210 255
180 210 255
180 210 255
180 210 255
180 210 255
181 211 255
181 211 255
181 211 255
181 211 255
181 211 255
181 211 255
181 211 255
181 211 255
181 211 255
181 211 255
181 211 255
181 211 255
181 211 255
181 211 255
181 211 255
181 211 255
181 211 255
181 211 255
181 211 255
181 211 255
181 211 255
181 211 255
181 211 255
181 211 255
181 211 255
181 211 255
181 211 255
181 211 255
181 211 255
181 211 255
181 211 255
181 211 255
181 211 255
181 211 255
181 211 255
181 211 255
181 211 255
181 211 255
181 211 255
180 210 255
180 210 255
180 210 255
180 210 255
180 210 255
180 210 255
180 210 255
180 210 255
180 210 255
180 210 255
180 210 255
180 210 255
180 210 255
180 210 255
180 210 255
180 210 255
180 210 255
180 210 255
180 210 255
180 210 255
180 210 255
180 210 255
180 210 255
180 210 255
180 210 255
180 210 255
180 210 255
180 210 255
180 210 255
180 210 255
180 210 255
180 210 255
180 210 255
180 210 255
180 210 255
180 210 255
180 210 255
179 210 255
179 210 255
179 210 255
179 210 255
179 210 255
179 210 255
179 210 255
179 210 255
179 210 255
179 210 255
179 210 255
179 210 255
179 210 255
179 210 255
179 210 255
179 210 255
179 210 255
179 210 255
179 210 255
179 210 255
179 210 255
179 210 255
179 210 255
179 210 255
179 210 255
179 209 255
179 209 255
179 209 255
179 209 255
179 209 255
179 209 255
179 209 255
179 209 255
179 209 255
179 209 255
179 209 255
179 209 255
178 209 255
178 209 255
178 209 255
178 209 255
178 209 255
178 209 255
178 209 255
178 209 255
178 209 255
178 209 255
178 209 255
178 209 255
178 209 255
178 209 255
178 209 255
178 209 255
178 209 255
178 209 255
178 209 255
178 209 255
178 209 255
178 209 255
178 209 255
178 209 255
178 209 255
178 209 255
178 209 255
178 209 255
178 209 255
178 209 255
178 209 255
178 209 255
178 209 255
178 209 255
178 209 255
178 209 255
178 209 255
178 209 255
178 209 255
178 209 255
178 209 255
178 209 255
178 209 255
178 209 255
178 209 255
178 209 255
177 209 255
177 209 255
177 209 255
177 209 255
177 209 255
177 209 255
177 209 255
177 209 255
177 209 255
177 209 255
177 209 255
177 209 255
177 209 255
177 209 255
177 209 255
177 209 255
177 209 255
177 209 255
177 209 255
177 209 255
177 209 255
177 208 255
177 209 255
177 209 255
177 208 255
177 209 255
177 208 255
177 208 255
177 208 255
177 208 255
177 208 255
177 208 255
177 208 255
158 189 236
153 185 233
143 178 230
138 175 230
137 174 230
134 172 230
133 172 230
131 170 230
129 170 230
129 169 230
127 168 230
126 168 230
125 167 230
124 167 230
123 166 230
123 166 230
122 165 230
122 165 230
122 165 230
121 165 230
121 165 230
121 165 230
121 165 230
121 164 230
121 164 230
121 165 230
121 165 230
122 165 230
122 165 230
122 165 230
123 166 230
123 166 230
125 167 230
125 167 230
126 168 230
127 168 230
128 169 230
129 170 230
131 170 230
132 171 230
134 172 230
136 174 230
140 176 230
143 178 230
150 182 230
157 188 236
172 203 249
177 208 255
177 208 255
177 208 255
177 208 255
177 208 255
177 209 255
177 208 255
177 209 255
177 209 255
177 209 255
177 209 255
177 209 255
177 209 255
177 209 255
177 209 255
177 209 255
177 209 255
177 209 255
177 209 255
177 209 255
177 209 255
177 209 255
177 209 255
177 209 255
177 209 255
177 209 255
177 209 255
177 209 255
177 209 255
177 209 255
177 209 255
178 209 255
177 209 255
178 209 255
178 209 255
178 209 255
178 209 255
178 209 255
178 209 255
178 209 255
178 209 255
178 209 255
178 209 255
178 209 255
178 209 255
178 209 255
178 209 255
178 209 255
178 209 255
178 209 255
178 209 255
178 209 255
178 209 255
178 209 255
178 209 255
178 209 255
178 209 255
178 209 255
178 209 255
178 209 255
178 209 255
178 209 255
178 209 255
178 209 255
178 209 255
178 209 255
178 209 255
178 209 255
178 209 255
178 209 255
178 209 255
178 209 255
178 209 255
178 209 255
178 209 255
178 209 255
178 209 255
178 209 255
179 209 255
179 209 255
179 209 255
179 209 255
179 209 255
179 209 255
179 209 255
179 209 255
179 209 255
179 209 255
179 209 255
179 209 255
179 209 255
179 210 255
179 210 255
179 210 255
179 210 255
179 210 255
179 210 255
179 210 255
179 210 255
179 210 255
179 210 255
179 210 255
179 210 255
179 210 255
179 210 255
179 210 255
179 210 255
179 210 255
179 210 255
179 210 255
179 210 255
179 210 255
179 210 255
179 210 255
179 210 255
179 210 255
180 210 255
180 210 255
180 210 255
180 210 255
180 210 255
180 210 255
180 210 255
180 210 255
180 210 255
180 210 255
180 210 255
180 210 255
180 210 255
180 210 255
180 210 255
180 210 255
180 210 255
180 210 255
180 210 255
180 210 255
180 210 255
180 210 255
180 210 255
180 210 255
180 210 255
180 210 255
180 210 255
180 210 255
180 210 255
180 210 255
180 210 255
180 210 255
180 210 255
180 210 255
180 210 255
180 210 255
180 210 255
181 211 255
180 210 255
181 211 255
181 211 255
181 211 255
181 211 255
181 211 255
181 211 255
181 211 255
181 211 255
181 211 255
181 211 255
181 211 255
181 211 255
181 211 255
181 211 255
181 211 255
181 211 255
181 211 255
181 211 255
181 211 255
181 211 255
181 211 255
181 211 255
181 211 255
181 211 255
181 211 255
181 211 255
181 211 255
181 211 255
181 211 255
181 211 255
181 211 255
181 211 255
181 211 255
181 211 255
181 211 255
181 211 255
181 211 255
181 211 255
181 211 255
181 211 255
181 211 255
181 211 255
181 211 255
181 211 255
181 211 255
181 211 255
181 211 255
181 211 255
181 211 255
181 211 255
181 211 255
181 211 255
181 211 255
180 210 255
180 210 255
180 210 255
180 210 255
180 210 255
180 210 255
180 210 255
180 210 255
180 210 255
180 210 255
180 210 255
180 210 255
180 210 255
180 210 255
180 210 255
180 210 255
180 210 255
180 210 255
180 210 255
180 210 255
180 210 255
180 210 255
180 210 255
180 210 255
180 210 255
180 210 255
180 210 255
180 210 255
180 210 255
180 210 255
180 210 255
180 210 255
180 210 255
180 210 255
180 210 255
180 210 255
180 210 255
180 210 255
179 210 255
179 210 255
179 210 255
179 210 255
179 210 255
179 210 255
179 210 255
179 210 255
179 210 255
179 210 255
179 210 255
179 210 255
179 210 255
179 210 255
179 210 255
179 210 255
179 210 255
179 210 255
179 210 255
179 210 255
179 210 255
179 210 255
179 210 255
179 210 255
179 210 255
179 209 255
179 209 255
179 209 255
179 209 255
179 209 255
179 209 255
179 209 255
179 209 255
179 209 255
179 209 255
179 209 255
179 209 255
179 209 255
179 209 255
179 209 255
179 209 255
178 209 255
178 209 255
178 209 255
178 209 255
178 209 255
178 209 255
178 209 255
178 209 255
178 209 255
178 209 255
178 209 255
178 209 255
178 209 255
178 209 255
178 209 255
178 209 255
178 209 255
178 209 255
178 209 255
178 209 255
178 209 255
178 209 255
178 209 255
178 209 255
178 209 255
178 209 255
178 209 255
178 209 255
178 209 255
178 209 255
178 209 255
178 209 255
178 209 255
178 209 255
178 209 255
178 209 255
178 209 255
178 209 255
178 209 255
178 209 255
178 209 255
178 209 255
178 209 255
178 209 255
178 209 255
178 209 255
178 209 255
178 209 255
178 209 255
178 209 255
177 209 255
178 209 255
178 209 255
177 209 255
177 209 255
177 209 255
178 209 255
177 209 255
177 209 255
177 209 255
177 209 255
177 209 255
177 209 255
177 209 255
159 190 236
152 185 233
143 178 230
140 176 230
137 174 230
134 172 230
132 171 230
130 170 230
129 169 230
127 168 230
126 168 230
126 167 230
124 167 230
124 166 230
123 166 230
122 165 230
122 165 230
121 164 230
120 164 230
120 164 230
119 164 230
119 164 230
119 163 230
119 163 230
119 163 230
119 163 230
119 163 230
119 163 230
119 164 230
120 164 230
120 164 230
120 164 230
121 164 230
122 165 230
122 165 230
123 166 230
123 166 230
124 166 230
125 167 230
126 168 230
127 168 230
129 170 230
131 170 230
132 171 230
134 173 230
137 174 230
140 176 230
144 178 230
156 188 236
171 202 249
177 209 255
177 209 255
177 209 255
177 209 255
177 209 255
177 209 255
178 209 255
177 209 255
177 209 255
177 209 255
177 209 255
178 209 255
177 209 255
178 209 255
178 209 255
178 209 255
178 209 255
178 209 255
178 209 255
178 209 255
178 209 255
178 209 255
178 209 255
178 209 255
178 209 255
178 209 255
178 209 255
178 209 255
178 209 255
178 209 255
178 209 255
178 209 255
178 209 255
178 209 255
178 209 255
178 209 255
178 209 255
178 209 255
178 209 255
178 209 255
178 209 255
178 209 255
178 209 255
178 209 255
178 209 255
178 209 255
178 209 255
178 209 255
178 209 255
178 209 255
178 209 255
178 209 255
178 209 255
178 209 255
178 209 255
178 209 255
178 209 255
178 209 255
178 209 255
178 209 255
178 209 255
178 209 255
178 209 255
178 209 255
178 209 255
179 209 255
179 209 255
179 209 255
179 209 255
179 209 255
179 209 255
179 209 255
179 209 255
179 209 255
179 209 255
179 209 255
179 209 255
179 209 255
179 209 255
179 209 255
179 209 255
179 210 255
179 210 255
179 210 255
179 210 255
179 210 255
179 210 255
179 210 255
179 210 255
179 210 255
179 210 255
179 210 255
179 210 255
179 210 255
179 210 255
179 210 255
179 210 255
179 210 255
179 210 255
179 210 255
179 210 255
179 210 255
179 210 255
179 210 255
179 210 255
180 210 255
180 210 255
180 210 255
180 210 255
180 210 255
180 210 255
180 210 255
180 210 255
180 210 255
180 210 255
180 210 255
180 210 255
180 210 255
180 210 255
180 210 255
180 210 255
180 210 255
180 210 255
180 210 255
180 210 255
180 210 255
180 210 255
180 210 255
180 210 255
180 210 255
180 210 255
180 210 255
180 210 255
180 210 255
180 210 255
180 210 255
180 210 255
180 210 255
180 210 255
180 210 255
180 210 255
180 210 255
181 210 255
181 211 255
181 210 255
181 211 255
181 211 255
181 211 255
181 211 255
181 211 255
181 211 255
181 211 255
181 211 255
181 211 255
181 211 255
181 211 255
181 211 255
181 211 255
181 211 255
181 211 255
181 211 255
181 211 255
181 211 255
181 211 255
181 211 255
181 211 255
181 211 255
181 211 255
181 211 255
181 211 255
181 211 255
181 211 255
181 211 255
181 211 255
181 211 255
181 211 255
182 211 255
181 211 255
181 211 255
181 211 255
181 211 255
181 211 255
181 211 255
181 211 255
181 211 255
181 211 255
181 211 255
181 211 255
181 211 255
181 211 255
181 211 255
181 211 255
181 211 255
181 211 255
181 211 255
181 211 255
181 211 255
181 211 255
181 211 255
181 211 255
181 211 255
181 211 255
181 211 255
181 211 255
181 211 255
181 211 255
181 211 255
181 211 255
181 211 255
181 211 255
181 211 255
181 211 255
181 211 255
181 211 255
180 210 255
181 211 255
180 210 255
180 210 255
180 210 255
180 210 255
180 210 255
180 210 255
180 210 255
180 210 255
180 210 255
180 210 255
180 210 255
180 210 255
180 210 255
180 210 255
180 210 255
180 210 255
180 210 255
180 210 255
180 210 255
180 210 255
180 210 255
180 210 255
180 210 255
180 210 255
180 210 255
180 210 255
180 210 255
180 210 255
180 210 255
180 210 255
180 210 255
180 210 255
180 210 255
180 210 255
180 210 255
180 210 255
180 210 255
180 210 255
179 210 255
179 210 255
179 210 255
179 210 255
179 210 255
179 210 255
179 210 255
179 210 255
179 210 255
179 210 255
179 210 255
179 210 255
179 210 255
179 210 255
179 210 255
179 210 255
179 210 255
179 210 255
179 210 255
179 210 255
179 210 255
179 210 255
179 210 255
179 210 255
179 210 255
179 210 255
179 210 255
179 210 255
179 210 255
179 209 255
179 209 255
179 209 255
179 209 255
179 209 255
179 209 255
179 209 255
179 209 255
179 209 255
179 209 255
179 209 255
179 209 255
179 209 255
179 209 255
178 209 255
179 209 255
178 209 255
178 209 255
178 209 255
178 209 255
178 209 255
178 209 255
178 209 255
178 209 255
178 209 255
178 209 255
178 209 255
178 209 255
178 209 255
178 209 255
178 209 255
178 209 255
178 209 255
178 209 255
178 209 255
178 209 255
178 209 255
178 209 255
178 209 255
178 209 255
178 209 255
178 209 255
178 209 255
178 209 255
178 209 255
178 209 255
178 209 255
178 209 255
178 209 255
178 209 255
178 209 255
178 209 255
178 209 255
178 209 255
178 209 255
178 209 255
178 209 255
178 209 255
178 209 255
178 209 255
178 209 255
178 209 255
178 209 255
178 209 255
178 209 255
174 205 252
158 189 236
145 179 230
140 176 230
138 175 230
135 173 230
133 172 230
130 170 230
129 170 230
128 169 230
126 167 230
125 167 230
124 167 230
123 166 230
122 165 230
122 165 230
121 165 230
120 164 230
119 164 230
119 163 230
119 163 230
118 163 230
118 163 230
118 163 230
118 163 230
118 163 230
117 162 230
117 162 230
118 163 230
118 163 230
118 163 230
118 163 230
118 163 230
119 163 230
119 163 230
120 164 230
120 164 230
121 164 230
122 165 230
123 166 230
123 166 230
124 166 230
125 167 230
126 168 230
128 169 230
129 169 230
131 170 230
132 171 230
135 173 230
137 174 230
141 177 230
144 178 230
161 192 239
168 199 246
178 209 255
178 209 255
178 209 255
178 209 255
178 209 255
178 209 255
178 209 255
178 209 255
178 209 255
178 209 255
178 209 255
178 209 255
178 209 255
178 209 255
178 209 255
178 209 255
178 209 255
178 209 255
178 209 255
178 209 255
178 209 255
178 209 255
178 209 255
178 209 255
178 209 255
178 209 255
178 209 255
178 209 255
178 209 255
178 209 255
178 209 255
178 209 255
178 209 255
178 209 255
178 209 255
178 209 255
178 209 255
178 209 255
178 209 255
178 209 255
178 209 255
178 209 255
178 209 255
178 209 255
178 209 255
178 209 255
178 209 255
178 209 255
178 209 255
178 209 255
179 209 255
179 209 255
179 209 255
179 209 255
179 209 255
179 209 255
179 209 255
179 209 255
179 209 255
179 209 255
179 209 255
179 209 255
179 209 255
179 209 255
179 210 255
179 209 255
179 209 255
179 210 255
179 210 255
179 210 255
179 210 255
179 210 255
179 210 255
179 210 255
179 210 255
179 210 255
179 210 255
179 210 255
179 210 255
179 210 255
179 210 255
179 210 255
179 210 255
179 210 255
179 210 255
179 210 255
179 210 255
179 210 255
179 210 255
179 210 255
179 210 255
179 210 255
179 210 255
179 210 255
180 210 255
180 210 255
180 210 255
180 210 255
180 210 255
180 210 255
180 210 255
180 210 255
180 210 255
180 210 255
180 210 255
180 210 255
180 210 255
180 210 255
180 210 255
180 210 255
180 210 255
180 210 255
180 210 255
180 210 255
180 210 255
180 210 255
180 210 255
180 210 255
180 210 255
180 210 255
180 210 255
180 210 255
180 210 255
180 210 255
180 210 255
180 210 255
180 210 255
180 210 255
180 210 255
180 210 255
180 210 255
180 210 255
181 210 255
181 211 255
181 211 255
181 211 255
181 211 255
181 211 255
181 211 255
181 211 255
181 211 255
181 211 255
181 211 255
181 211 255
181 211 255
181 211 255
181 211 255
181 211 255
181 211 255
181 211 255
181 211 255
181 211 255
181 211 255
181 211 255
181 211 255
181 211 255
181 211 255
181 211 255
181 211 255
181 211 255
181 211 255
181 211 255
181 211 255
181 211 255
181 211 255
181 211 255
181 211 255
181 211 255
181 211 255
181 211 255
181 211 255
181 211 255
182 211 255
182 211 255
182 211 255
182 211 255
182 211 255
182 211 255
182 211 255
182 211 255
182 211 255
182 211 255
182 211 255
181 211 255
181 211 255
181 211 255
181 211 255
181 211 255
181 211 255
181 211 255
181 211 255
181 211 255
181 211 255
181 211 255
181 211 255
181 211 255
181 211 255
181 211 255
181 211 255
181 211 255
181 211 255
181 211 255
181 211 255
181 211 255
181 211 255
181 211 255
181 211 255
181 211 255
181 211 255
181 211 255
181 211 255
181 211 255
181 211 255
181 211 255
181 211 255
181 211 255
181 211 255
181 211 255
181 211 255
181 211 255
181 211 255
181 211 255
181 211 255
181 211 255
180 210 255
180 210 255
180 210 255
180 210 255
180 210 255
180 210 255
180 210 255
180 210 255
180 210 255
180 210 255
180 210 255
180 210 255
180 210 255
180 210 255
180 210 255
180 210 255
180 210 255
180 210 255
180 210 255
180 210 255
180 210 255
180 210 255
180 210 255
180 210 255
180 210 255
180 210 255
180 210 255
180 210 255
180 210 255
180 210 255
180 210 255
180 210 255
180 210 255
180 210 255
180 210 255
180 210 255
180 210 255
180 210 255
179 210 255
180 210 255
180 210 255
179 210 255
179 210 255
179 210 255
179 210 255
179 210 255
179 210 255
179 210 255
179 210 255
179 210 255
179 210 255
179 210 255
179 210 255
179 210 255
179 210 255
179 210 255
179 210 255
179 210 255
179 210 255
179 210 255
179 210 255
179 210 255
179 210 255
179 210 255
179 210 255
179 210 255
179 210 255
179 209 255
179 210 255
179 209 255
179 209 255
179 209 255
179 209 255
179 209 255
179 209 255
179 209 255
179 209 255
179 209 255
179 209 255
179 209 255
179 209 255
179 209 255
179 209 255
178 209 255
179 209 255
179 209 255
178 209 255
178 209 255
179 209 255
178 209 255
178 209 255
178 209 255
178 209 255
178 209 255
178 209 255
178 209 255
178 209 255
178 209 255
178 209 255
178 209 255
178 209 255
178 209 255
178 209 255
178 209 255
178 209 255
178 209 255
178 209 255
178 209 255
178 209 255
178 209 255
178 209 255
178 209 255
178 209 255
178 209 255
178 209 255
178 209 255
178 209 255
178 209 255
178 209 255
178 209 255
175 206 252
152 183 230
145 179 230
141 176 230
138 175 230
136 173 230
133 172 230
132 171 230
130 170 230
128 169 230
127 168 230
125 167 230
125 167 230
123 166 230
122 165 230
122 165 230
121 164 230
120 164 230
119 164 230
119 163 230
118 163 230
118 163 230
118 162 230
117 162 230
117 162 230
117 162 230
117 162 230
117 162 230
117 162 230
117 162 230
117 162 230
117 162 230
117 162 230
117 162 230
117 162 230
118 162 230
118 163 230
118 163 230
119 163 230
119 163 230
120 164 230
121 164 230
121 165 230
122 165 230
123 166 230
124 167 230
126 167 230
127 168 230
128 169 230
130 170 230
132 171 230
134 172 230
135 173 230
138 175 230
141 177 230
145 179 230
155 186 233
175 206 252
178 209 255
178 209 255
178 209 255
178 209 255
178 209 255
178 209 255
178 209 255
178 209 255
178 209 255
178 209 255
178 209 255
178 209 255
178 209 255
178 209 255
178 209 255
178 209 255
178 209 255
178 209 255
178 209 255
178 209 255
178 209 255
178 209 255
178 209 255
178 209 255
178 209 255
178 209 255
178 209 255
178 209 255
178 209 255
178 209 255
178 209 255
178 209 255
178 209 255
178 209 255
178 209 255
179 209 255
179 209 255
179 209 255
179 209 255
179 209 255
179 209 255
179 209 255
179 209 255
179 209 255
179 209 255
179 209 255
179 209 255
179 209 255
179 209 255
179 210 255
179 209 255
179 210 255
179 210 255
179 210 255
179 210 255
179 210 255
179 210 255
179 210 255
179 210 255
179 210 255
179 210 255
179 210 255
179 210 255
179 210 255
179 210 255
179 210 255
179 210 255
179 210 255
179 210 255
179 210 255
179 210 255
179 210 255
179 210 255
179 210 255
179 210 255
179 210 255
179 210 255
179 210 255
179 210 255
179 210 255
180 210 255
179 210 255
180 210 255
180 210 255
180 210 255
180 210 255
180 210 255
180 210 255
180 210 255
180 210 255
180 210 255
180 210 255
180 210 255
180 210 255
180 210 255
180 210 255
180 210 255
180 210 255
180 210 255
180 210 255
180 210 255
180 210 255
180 210 255
180 210 255
180 210 255
180 210 255
180 210 255
180 210 255
180 210 255
180 210 255
180 210 255
180 210 255
180 210 255
180 210 255
180 210 255
180 210 255
180 210 255
180 210 255
180 210 255
180 210 255
180 210 255
181 211 255
181 211 255
181 211 255
181 211 255
181 211 255
181 211 255
181 211 255
181 211 255
181 211 255
181 211 255
181 211 255
181 211 255
181 211 255
181 211 255
181 211 255
181 211 255
181 211 255
181 211 255
181 211 255
181 211 255
181 211 255
181 211 255
181 211 255
181 211 255
181 211 255
181 211 255
181 211 255
181 211 255
181 211 255
181 211 255
181 211 255
181 211 255
181 211 255
181 211 255
181 211 255
181 211 255
181 211 255
181 211 255
182 211 255
181 211 255
182 211 255
182 211 255
182 211 255
182 211 255
182 211 255
182 211 255
182 211 255
182 211 255
182 211 255
182 211 255
182 211 255
182 211 255
182 211 255
182 211 255
182 211 255
182 211 255
182 211 255
182 211 255
182 211 255
182 211 255
182 211 255
182 211 255
182 211 255
182 211 255
182 211 255
182 211 255
182 211 255
182 211 255
182 211 255
182 211 255
182 211 255
181 211 255
181 211 255
181 211 255
181 211 255
181 211 255
181 211 255
181 211 255
181 211 255
181 211 255
181 211 255
181 211 255
181 211 255
181 211 255
181 211 255
181 211 255
181 211 255
181 211 255
181 211 255
181 211 255
181 211 255
181 211 255
181 211 255
181 211 255
181 211 255
181 211 255
181 211 255
181 211 255
181 211 255
181 211 255
181 211 255
181 211 255
181 211 255
181 211 255
181 211 255
181 211 255
181 211 255
181 211 255
181 211 255
181 211 255
181 211 255
180 210 255
180 210 255
180 210 255
180 210 255
180 210 255
180 210 255
180 210 255
180 210 255
180 210 255
180 210 255
180 210 255
180 210 255
180 210 255
180 210 255
180 210 255
180 210 255
180 210 255
180 210 255
180 210 255
180 210 255
180 210 255
180 210 255
180 210 255
180 210 255
180 210 255
180 210 255
180 210 255
180 210 255
180 210 255
180 210 255
180 210 255
180 210 255
180 210 255
180 210 255
180 210 255
180 210 255
180 210 255
180 210 255
180 210 255
180 210 255
179 210 255
179 210 255
179 210 255
179 210 255
179 210 255
179 210 255
179 210 255
179 210 255
179 210 255
179 210 255
179 210 255
179 210 255
179 210 255
179 210 255
179 210 255
179 210 255
179 210 255
179 210 255
179 210 255
179 210 255
179 210 255
179 210 255
179 210 255
179 210 255
179 210 255
179 210 255
179 210 255
179 210 255
179 210 255
179 210 255
179 210 255
179 210 255
179 209 255
179 209 255
179 209 255
179 209 255
179 209 255
179 209 255
179 209 255
179 209 255
179 209 255
179 209 255
179 209 255
179 209 255
179 209 255
179 209 255
179 209 255
179 209 255
179 209 255
179 209 255
179 209 255
179 209 255
179 209 255
179 209 255
179 209 255
178 209 255
178 209 255
178 209 255
178 209 255
178 209 255
178 209 255
178 209 255
178 209 255
178 209 255
178 209 255
178 209 255
178 209 255
178 209 255
178 209 255
166 197 243
152 184 233
143 178 230
139 176 230
138 175 230
134 173 230
132 171 230
131 170 230
129 169 230
127 168 230
126 168 230
125 167 230
124 166 230
123 166 230
122 165 230
121 165 230
120 164 230
120 164 230
119 163 230
118 163 230
118 163 230
117 162 230
117 162 230
117 162 230
117 162 230
116 162 230
116 162 230
116 161 230
116 161 230
116 161 230
116 161 230
116 161 230
116 161 230
116 162 230
116 162 230
116 162 230
117 162 230
117 162 230
118 162 230
118 163 230
119 163 230
119 163 230
120 164 230
120 164 230
121 165 230
122 165 230
123 166 230
124 166 230
125 167 230
127 168 230
127 168 230
129 169 230
130 170 230
132 171 230
134 173 230
137 174 230
139 176 230
144 178 230
149 181 230
171 201 246
178 209 255
178 209 255
178 209 255
178 209 255
178 209 255
178 209 255
178 209 255
178 209 255
178 209 255
178 209 255
178 209 255
178 209 255
179 209 255
178 209 255
179 209 255
178 209 255
179 209 255
179 209 255
179 209 255
179 209 255
179 209 255
179 209 255
179 209 255
179 209 255
179 209 255
179 209 255
179 209 255
179 209 255
179 209 255
179 209 255
179 209 255
179 209 255
179 209 255
179 209 255
179 209 255
179 209 255
179 210 255
179 210 255
179 209 255
179 210 255
179 210 255
179 210 255
179 210 255
179 210 255
179 210 255
179 210 255
179 210 255
179 210 255
179 210 255
179 210 255
179 210 255
179 210 255
179 210 255
179 210 255
179 210 255
179 210 255
179 210 255
179 210 255
179 210 255
179 210 255
179 210 255
179 210 255
179 210 255
179 210 255
179 210 255
179 210 255
179 210 255
179 210 255
180 210 255
180 210 255
180 210 255
180 210 255
180 210 255
180 210 255
180 210 255
180 210 255
180 210 255
180 210 255
180 210 255
180 210 255
180 210 255
180 210 255
180 210 255
180 210 255
180 210 255
180 210 255
180 210 255
180 210 255
180 210 255
180 210 255
180 210 255
180 210 255
180 210 255
180 210 255
180 210 255
180 210 255
180 210 255
180 210 255
180 210 255
180 210 255
180 210 255
180 210 255
180 210 255
180 210 255
180 210 255
180 210 255
180 210 255
180 210 255
180 210 255
181 211 255
181 211 255
181 211 255
181 211 255
181 211 255
181 211 255
181 211 255
181 211 255
181 211 255
181 211 255
181 211 255
181 211 255
181 211 255
181 211 255
181 211 255
181 211 255
181 211 255
181 211 255
181 211 255
181 211 255
181 211 255
181 211 255
181 211 255
181 211 255
181 211 255
181 211 255
181 211 255
181 211 255
181 211 255
181 211 255
181 211 255
181 211 255
181 211 255
181 211 255
181 211 255
181 211 255
181 211 255
181 211 255
181 211 255
181 211 255
181 211 255
182 211 255
182 211 255
182 211 255
182 211 255
182 211 255
182 211 255
182 211 255
182 211 255
182 211 255
182 211 255
182 211 255
182 211 255
182 211 255
182 211 255
182 211 255
182 211 255
182 211 255
182 211 255
182 211 255
182 211 255
182 212 255
182 211 255
182 211 255
182 211 255
182 211 255
182 211 255
182 211 255
182 211 255
182 211 255
182 211 255
182 211 255
182 211 255
182 211 255
182 211 255
182 211 255
182 211 255
182 211 255
182 211 255
182 211 255
182 211 255
182 211 255
182 211 255
182 211 255
182 211 255
182 211 255
182 211 255
182 211 255
182 211 255
182 211 255
182 211 255
182 211 255
181 211 255
181 211 255
181 211 255
181 211 255
181 211 255
181 211 255
181 211 255
181 211 255
181 211 255
181 211 255
181 211 255
181 211 255
181 211 255
181 211 255
181 211 255
181 211 255
181 211 255
181 211 255
181 211 255
181 211 255
181 211 255
181 211 255
181 211 255
181 211 255
181 211 255
181 211 255
181 211 255
181 211 255
181 211 255
181 211 255
181 211 255
181 211 255
181 211 255
181 211 255
181 211 255
181 211 255
181 211 255
181 211 255
181 211 255
181 211 255
181 211 255
180 210 255
180 210 255
180 210 255
180 210 255
180 210 255
180 210 255
180 210 255
180 210 255
180 210 255
180 210 255
180 210 255
180 210 255
180 210 255
180 210 255
180 210 255
180 210 255
180 210 255
180 210 255
180 210 255
180 210 255
180 210 255
180 210 255
180 210 255
180 210 255
180 210 255
180 210 255
180 210 255
180 210 255
180 210 255
180 210 255
180 210 255
180 210 255
180 210 255
180 210 255
180 210 255
180 210 255
180 210 255
180 210 255
180 210 255
180 210 255
180 210 255
180 210 255
179 210 255
179 210 255
179 210 255
179 210 255
179 210 255
179 210 255
179 210 255
179 210 255
179 210 255
179 210 255
179 210 255
179 210 255
179 210 255
179 210 255
179 210 255
179 210 255
179 210 255
179 210 255
179 210 255
179 210 255
179 210 255
179 210 255
179 210 255
179 210 255
179 210 255
179 210 255
179 210 255
179 210 255
179 210 255
179 210 255
179 210 255
179 210 255
179 210 255
179 210 255
179 210 255
179 209 255
179 210 255
179 209 255
179 209 255
179 209 255
179 209 255
179 209 255
179 209 255
179 209 255
179 209 255
179 209 255
179 209 255
179 209 255
179 209 255
179 209 255
179 209 255
179 209 255
179 209 255
179 209 255
179 209 255
158 189 236
147 180 230
144 178 230
139 176 230
137 174 230
134 172 230
131 171 230
130 170 230
128 169 230
127 168 230
126 168 230
125 167 230
123 166 230
123 165 230
122 165 230
121 164 230
120 164 230
119 164 230
119 163 230
118 163 230
118 162 230
117 162 230
117 162 230
116 162 230
116 162 230
116 161 230
116 161 230
115 161 230
115 161 230
115 161 230
115 161 230
115 161 230
115 161 230
115 161 230
115 161 230
116 161 230
116 161 230
116 162 230
116 162 230
117 162 230
117 162 230
118 162 230
118 163 230
119 163 230
119 163 230
120 164 230
121 164 230
122 165 230
122 165 230
123 166 230
125 167 230
126 167 230
127 168 230
128 169 230
130 170 230
132 171 230
134 172 230
136 174 230
139 175 230
142 177 230
146 180 230
154 186 233
176 206 252
179 209 255
179 209 255
179 209 255
179 209 255
179 209 255
179 209 255
179 209 255
179 209 255
179 209 255
179 209 255
179 209 255
179 209 255
179 209 255
179 209 255
179 209 255
179 209 255
179 210 255
179 209 255
179 210 255
179 210 255
179 210 255
179 210 255
179 210 255
179 210 255
179 210 255
179 210 255
179 210 255
179 210 255
179 210 255
179 210 255
179 210 255
179 210 255
179 210 255
179 210 255
179 210 255
179 210 255
179 210 255
179 210 255
179 210 255
179 210 255
179 210 255
179 210 255
179 210 255
179 210 255
179 210 255
179 210 255
179 210 255
179 210 255
179 210 255
179 210 255
179 210 255
179 210 255
179 210 255
179 210 255
180 210 255
180 210 255
180 210 255
180 210 255
180 210 255
180 210 255
180 210 255
180 210 255
180 210 255
180 210 255
180 210 255
180 210 255
180 210 255
180 210 255
180 210 255
180 210 255
180 210 255
180 210 255
180 210 255
180 210 255
180 210 255
180 210 255
180 210 255
180 210 255
180 210 255
180 210 255
180 210 255
180 210 255
180 210 255
180 210 255
180 210 255
180 210 255
180 210 255
180 210 255
180 210 255
180 210 255
180 210 255
180 210 255
180 210 255
180 210 255
180 210 255
180 210 255
180 210 255
181 211 255
180 210 255
181 211 255
181 211 255
181 211 255
181 211 255
181 211 255
181 211 255
181 211 255
181 211 255
181 211 255
181 211 255
181 211 255
181 211 255
181 211 255
181 211 255
181 211 255
181 211 255
181 211 255
181 211 255
181 211 255
181 211 255
181 211 255
181 211 255
181 211 255
181 211 255
181 211 255
181 211 255
181 211 255
181 211 255
181 211 255
181 211 255
181 211 255
181 211 255
181 211 255
181 211 255
181 211 255
181 211 255
181 211 255
181 211 255
182 211 255
181 211 255
182 211 255
182 211 255
182 211 255
182 211 255
182 211 255
182 211 255
182 211 255
182 211 255
182 211 255
182 211 255
182 211 255
182 211 255
182 211 255
182 211 255
182 211 255
182 211 255
182 211 255
182 211 255
182 211 255
182 211 255
182 211 255
182 211 255
182 211 255
182 211 255
182 211 255
182 211 255
182 211 255
182 212 255
182 211 255
182 212 255
182 212 255
182 212 255
182 212 255
182 212 255
182 212 255
182 212 255
182 212 255
182 212 255
182 212 255
182 212 255
182 212 255
182 211 255
182 211 255
182 211 255
182 211 255
182 211 255
182 211 255
182 211 255
182 211 255
182 211 255
182 211 255
182 211 255
182 211 255
182 211 255
182 211 255
182 211 255
182 211 255
182 211 255
182 211 255
182 211 255
182 211 255
182 211 255
182 211 255
182 211 255
182 211 255
182 211 255
182 211 255
182 211 255
182 211 255
182 211 255
181 211 255
181 211 255
181 211 255
181 211 255
181 211 255
181 211 255
181 211 255
181 211 255
181 211 255
181 211 255
181 211 255
181 211 255
181 211 255
181 211 255
181 211 255
181 211 255
181 211 255
181 211 255
181 211 255
181 211 255
181 211 255
181 211 255
181 211 255
181 211 255
181 211 255
181 211 255
181 211 255
181 211 255
181 211 255
181 211 255
181 211 255
181 211 255
181 211 255
181 211 255
181 211 255
181 211 255
181 211 255
181 211 255
181 211 255
181 211 255
181 211 255
180 210 255
180 210 255
180 210 255
180 210 255
180 210 255
180 210 255
180 210 255
180 210 255
180 210 255
180 210 255
180 210 255
180 210 255
180 210 255
180 210 255
180 210 255
180 210 255
180 210 255
180 210 255
180 210 255
180 210 255
180 210 255
180 210 255
180 210 255
180 210 255
180 210 255
180 210 255
180 210 255
180 210 255
180 210 255
180 210 255
180 210 255
180 210 255
180 210 255
180 210 255
180 210 255
180 210 255
180 210 255
180 210 255
180 210 255
180 210 255
180 210 255
180 210 255
180 210 255
180 210 255
180 210 255
180 210 255
180 210 255
179 210 255
179 210 255
179 210 255
179 210 255
179 210 255
179 210 255
179 210 255
179 210 255
179 210 255
179 210 255
179 210 255
179 210 255
179 210 255
179 210 255
179 210 255
179 210 255
179 210 255
179 210 255
179 210 255
179 210 255
179 210 255
179 210 255
179 210 255
179 210 255
179 210 255
179 210 255
179 210 255
179 210 255
179 210 255
179 210 255
179 210 255
179 210 255
179 210 255
179 210 255
179 210 255
179 210 255
179 210 255
179 210 255
173 204 249
158 189 236
146 179 230
141 177 230
139 175 230
136 174 230
134 172 230
132 171 230
130 170 230
128 169 230
127 168 230
126 168 230
125 167 230
124 166 230
123 166 230
122 165 230
121 164 230
120 164 230
119 163 230
119 163 230
118 163 230
118 163 230
117 162 230
117 162 230
116 162 230
116 161 230
116 161 230
115 161 230
115 161 230
115 161 230
115 161 230
115 161 230
115 161 230
115 161 230
115 161 230
115 161 230
115 161 230
115 161 230
115 161 230
116 161 230
116 162 230
116 162 230
117 162 230
117 162 230
118 163 230
118 163 230
119 163 230
119 164 230
120 164 230
121 164 230
121 165 230
123 165 230
123 166 230
125 167 230
126 168 230
127 168 230
128 169 230
130 170 230
131 171 230
134 172 230
136 173 230
139 175 230
141 177 230
147 180 230
152 183 230
176 207 252
179 210 255
179 210 255
179 210 255
179 210 255
179 210 255
179 210 255
179 210 255
179 210 255
179 210 255
179 210 255
179 210 255
179 210 255
179 210 255
179 210 255
179 210 255
179 210 255
179 210 255
179 210 255
179 210 255
179 210 255
179 210 255
179 210 255
179 210 255
179 210 255
179 210 255
179 210 255
179 210 255
179 210 255
179 210 255
179 210 255
179 210 255
179 210 255
179 210 255
179 210 255
179 210 255
179 210 255
179 210 255
179 210 255
180 210 255
180 210 255
180 210 255
180 210 255
180 210 255
180 210 255
180 210 255
180 210 255
180 210 255
180 210 255
180 210 255
180 210 255
180 210 255
180 210 255
180 210 255
180 210 255
180 210 255
180 210 255
180 210 255
180 210 255
180 210 255
180 210 255
180 210 255
180 210 255
180 210 255
180 210 255
180 210 255
180 210 255
180 210 255
180 210 255
180 210 255
180 210 255
180 210 255
180 210 255
180 210 255
180 210 255
180 210 255
180 210 255
180 210 255
180 210 255
180 210 255
180 210 255
180 210 255
180 210 255
180 210 255
180 210 255
180 210 255
181 211 255
181 211 255
181 211 255
181 211 255
181 211 255
181 211 255
181 211 255
181 211 255
181 211 255
181 211 255
181 211 255
181 211 255
181 211 255
181 211 255
181 211 255
181 211 255
181 211 255
181 211 255
181 211 255
181 211 255
181 211 255
181 211 255
181 211 255
181 211 255
181 211 255
181 211 255
181 211 255
181 211 255
181 211 255
181 211 255
181 211 255
181 211 255
181 211 255
181 211 255
181 211 255
181 211 255
181 211 255
181 211 255
181 211 255
181 211 255
181 211 255
181 211 255
182 211 255
182 211 255
182 211 255
182 211 255
182 211 255
182 211 255
182 211 255
182 211 255
182 211 255
182 211 255
182 211 255
182 211 255
182 211 255
182 211 255
182 211 255
182 211 255
182 211 255
182 211 255
182 211 255
182 211 255
182 211 255
182 211 255
182 211 255
182 211 255
182 211 255
182 211 255
182 211 255
182 211 255
182 212 255
182 212 255
182 212 255
182 212 255
182 212 255
182 212 255
182 212 255
182 212 255
182 212 255
182 212 255
182 212 255
182 212 255
183 212 255
183 212 255
183 212 255
183 212 255
183 212 255
183 212 255
183 212 255
182 212 255
182 212 255
182 212 255
182 212 255
182 212 255
182 212 255
182 212 255
182 212 255
182 212 255
182 212 255
182 212 255
182 212 255
182 212 255
182 212 255
182 211 255
182 211 255
182 211 255
182 211 255
182 211 255
182 211 255
182 211 255
182 211 255
182 211 255
182 211 255
182 211 255
182 211 255
182 211 255
182 211 255
182 211 255
182 211 255
182 211 255
182 211 255
182 211 255
182 211 255
182 211 255
182 211 255
182 211 255
182 211 255
182 211 255
182 211 255
182 211 255
182 211 255
181 211 255
181 211 255
181 211 255
181 211 255
181 211 255
181 211 255
181 211 255
181 211 255
181 211 255
181 211 255
181 211 255
181 211 255
181 211 255
181 211 255
181 211 255
181 211 255
181 211 255
181 211 255
181 211 255
181 211 255
181 211 255
181 211 255
181 211 255
181 211 255
181 211 255
181 211 255
181 211 255
181 211 255
181 211 255
181 211 255
181 211 255
181 211 255
181 211 255
181 211 255
181 211 255
181 211 255
181 211 255
181 211 255
181 211 255
181 211 255
181 211 255
181 211 255
181 211 255
181 210 255
181 211 255
180 210 255
180 210 255
181 210 255
180 210 255
180 210 255
180 210 255
180 210 255
180 210 255
180 210 255
180 210 255
180 210 255
180 210 255
180 210 255
180 210 255
180 210 255
180 210 255
180 210 255
180 210 255
180 210 255
180 210 255
180 210 255
180 210 255
180 210 255
180 210 255
180 210 255
180 210 255
180 210 255
180 210 255
180 210 255
180 210 255
180 210 255
180 210 255
180 210 255
180 210 255
180 210 255
180 210 255
180 210 255
180 210 255
180 210 255
180 210 255
180 210 255
180 210 255
180 210 255
180 210 255
180 210 255
180 210 255
180 210 255
180 210 255
180 210 255
180 210 255
180 210 255
179 210 255
180 210 255
179 210 255
180 210 255
179 210 255
179 210 255
179 210 255
179 210 255
179 210 255
179 210 255
179 210 255
179 210 255
179 210 255
179 210 255
179 210 255
179 210 255
179 210 255
179 210 255
179 210 255
179 210 255
179 210 255
176 206 252
151 182 230
145 179 230
142 177 230
138 175 230
136 173 230
134 172 230
132 171 230
130 170 230
128 169 230
127 168 230
126 168 230
125 167 230
124 166 230
123 166 230
122 165 230
121 165 230
120 164 230
119 164 230
119 163 230
118 163 230
118 163 230
117 162 230
117 162 230
116 162 230
116 162 230
116 161 230
115 161 230
115 161 230
115 161 230
115 161 230
115 161 230
115 161 230
115 161 230
115 161 230
115 161 230
115 161 230
115 161 230
115 161 230
115 161 230
116 161 230
116 161 230
116 162 230
116 162 230
117 162 230
117 162 230
118 163 230
118 163 230
119 163 230
120 164 230
120 164 230
121 165 230
122 165 230
123 166 230
124 166 230
124 167 230
126 168 230
127 168 230
129 169 230
130 170 230
132 171 230
134 172 230
135 173 230
138 175 230
141 177 230
146 179 230
153 184 230
173 203 249
179 210 255
179 210 255
179 210 255
179 210 255
179 210 255
179 210 255
179 210 255
179 210 255
179 210 255
179 210 255
179 210 255
179 210 255
179 210 255
179 210 255
179 210 255
179 210 255
179 210 255
179 210 255
179 210 255
179 210 255
180 210 255
179 210 255
180 210 255
180 210 255
180 210 255
180 210 255
180 210 255
180 210 255
180 210 255
180 210 255
180 210 255
180 210 255
180 210 255
180 210 255
180 210 255
180 210 255
180 210 255
180 210 255
180 210 255
180 210 255
180 210 255
180 210 255
180 210 255
180 210 255
180 210 255
180 210 255
180 210 255
180 210 255
180 210 255
180 210 255
180 210 255
180 210 255
180 210 255
180 210 255
180 210 255
180 210 255
180 210 255
180 210 255
180 210 255
180 210 255
180 210 255
180 210 255
180 210 255
180 210 255
180 210 255
180 210 255
180 210 255
180 210 255
180 210 255
180 210 255
180 210 255
180 210 255
180 210 255
181 211 255
181 210 255
181 211 255
181 211 255
181 211 255
181 211 255
181 211 255
181 211 255
181 211 255
181 211 255
181 211 255
181 211 255
181 211 255
181 211 255
181 211 255
181 211 255
181 211 255
181 211 255
181 211 255
181 211 255
181 211 255
181 211 255
181 211 255
181 211 255
181 211 255
181 211 255
181 211 255
181 211 255
181 211 255
181 211 255
181 211 255
181 211 255
181 211 255
181 211 255
181 211 255
181 211 255
181 211 255
181 211 255
181 211 255
181 211 255
181 211 255
181 211 255
181 211 255
182 211 255
182 211 255
182 211 255
182 211 255
182 211 255
182 211 255
182 211 255
182 211 255
182 211 255
182 211 255
182 211 255
182 211 255
182 211 255
182 211 255
182 211 255
182 211 255
182 211 255
182 211 255
182 211 255
182 211 255
182 211 255
182 211 255
182 211 255
182 211 255
182 211 255
182 211 255
182 211 255
182 211 255
182 212 255
182 212 255
182 212 255
182 212 255
182 212 255
182 212 255
182 212 255
182 212 255
182 212 255
182 212 255
182 212 255
182 212 255
182 212 255
182 212 255
182 212 255
183 212 255
183 212 255
183 212 255
183 212 255
183 212 255
183 212 255
183 212 255
183 212 255
183 212 255
183 212 255
183 212 255
183 212 255
183 212 255
183 212 255
183 212 255
183 212 255
183 212 255
183 212 255
183 212 255
183 212 255
183 212 255
183 212 255
183 212 255
183 212 255
183 212 255
182 212 255
182 212 255
182 212 255
182 212 255
182 212 255
182 212 255
182 212 255
182 212 255
182 212 255
182 212 255
182 212 255
182 212 255
182 212 255
182 212 255
182 211 255
182 211 255
182 211 255
182 211 255
182 211 255
182 211 255
182 211 255
182 211 255
182 211 255
182 211 255
182 211 255
182 211 255
182 211 255
182 211 255
182 211 255
182 211 255
182 211 255
182 211 255
182 211 255
182 211 255
182 211 255
182 211 255
182 211 255
182 211 255
182 211 255
182 211 255
182 211 255
182 211 255
182 211 255
182 211 255
181 211 255
181 211 255
181 211 255
181 211 255
181 211 255
181 211 255
181 211 255
181 211 255
181 211 255
181 211 255
181 211 255
181 211 255
181 211 255
181 211 255
181 211 255
181 211 255
181 211 255
181 211 255
181 211 255
181 211 255
181 211 255
181 211 255
181 211 255
181 211 255
181 211 255
181 211 255
181 211 255
181 211 255
181 211 255
181 211 255
181 211 255
181 211 255
181 211 255
181 211 255
181 211 255
181 211 255
181 211 255
181 211 255
181 211 255
181 211 255
181 211 255
181 211 255
181 211 255
180 210 255
180 210 255
180 210 255
180 210 255
180 210 255
180 210 255
180 210 255
180 210 255
180 210 255
180 210 255
180 210 255
180 210 255
180 210 255
180 210 255
180 210 255
180 210 255
180 210 255
180 210 255
180 210 255
180 210 255
180 210 255
180 210 255
180 210 255
180 210 255
180 210 255
180 210 255
180 210 255
180 210 255
180 210 255
180 210 255
180 210 255
180 210 255
180 210 255
180 210 255
180 210 255
180 210 255
180 210 255
180 210 255
180 210 255
180 210 255
180 210 255
180 210 255
180 210 255
180 210 255
180 210 255
180 210 255
180 210 255
180 210 255
180 210 255
180 210 255
180 210 255
180 210 255
180 210 255
180 210 255
180 210 255
180 210 255
180 210 255
180 210 255
180 210 255
180 210 255
173 204 249
150 182 230
145 179 230
141 177 230
139 175 230
136 173 230
134 172 230
132 171 230
130 170 230
129 169 230
128 169 230
126 168 230
125 167 230
124 166 230
123 166 230
122 165 230
121 165 230
121 164 230
120 164 230
119 164 230
119 163 230
118 163 230
118 163 230
117 162 230
117 162 230
116 162 230
116 162 230
116 161 230
116 161 230
115 161 230
115 161 230
115 161 230
115 161 230
115 161 230
115 161 230
115 161 230
115 161 230
115 161 230
115 161 230
115 161 230
115 161 230
116 161 230
116 161 230
116 162 230
116 162 230
117 162 230
117 162 230
118 162 230
118 163 230
119 163 230
119 164 230
120 164 230
121 164 230
122 165 230
122 165 230
123 166 230
124 166 230
125 167 230
126 168 230
127 168 230
129 169 230
130 170 230
132 171 230
134 172 230
136 174 230
139 175 230
141 176 230
144 178 230
151 182 230
170 201 246
180 210 255
180 210 255
180 210 255
180 210 255
180 210 255
180 210 255
180 210 255
180 210 255
180 210 255
180 210 255
180 210 255
180 210 255
180 210 255
180 210 255
180 210 255
180 210 255
180 210 255
180 210 255
180 210 255
180 210 255
180 210 255
180 210 255
180 210 255
180 210 255
180 210 255
180 210 255
180 210 255
180 210 255
180 210 255
180 210 255
180 210 255
180 210 255
180 210 255
180 210 255
180 210 255
180 210 255
180 210 255
180 210 255
180 210 255
180 210 255
180 210 255
180 210 255
180 210 255
180 210 255
180 210 255
180 210 255
180 210 255
180 210 255
180 210 255
180 210 255
180 210 255
180 210 255
180 210 255
180 210 255
180 210 255
180 210 255
180 210 255
180 210 255
180 210 255
181 211 255
181 211 255
181 211 255
181 211 255
181 211 255
181 211 255
181 211 255
181 211 255
181 211 255
181 211 255
181 211 255
181 211 255
181 211 255
181 211 255
181 211 255
181 211 255
181 211 255
181 211 255
181 211 255
181 211 255
181 211 255
181 211 255
181 211 255
181 211 255
181 211 255
181 211 255
181 211 255
181 211 255
181 211 255
181 211 255
181 211 255
181 211 255
181 211 255
181 211 255
181 211 255
181 211 255
181 211 255
181 211 255
181 211 255
181 211 255
181 211 255
181 211 255
181 211 255
181 211 255
181 211 255
182 211 255
182 211 255
182 211 255
182 211 255
182 211 255
182 211 255
182 211 255
182 211 255
182 211 255
182 211 255
182 211 255
182 211 255
182 211 255
182 211 255
182 211 255
182 211 255
182 211 255
182 211 255
182 211 255
182 211 255
182 211 255
182 211 255
182 211 255
182 211 255
182 211 255
182 211 255
182 211 255
182 211 255
182 212 255
182 212 255
182 212 255
182 212 255
182 212 255
182 212 255
182 212 255
182 212 255
182 212 255
182 212 255
182 212 255
182 212 255
182 212 255
182 212 255
182 212 255
182 212 255
182 212 255
183 212 255
183 212 255
183 212 255
183 212 255
183 212 255
183 212 255
183 212 255
183 212 255
183 212 255
183 212 255
183 212 255
183 212 255
183 212 255
183 212 255
183 212 255
183 212 255
183 212 255
183 212 255
183 212 255
183 212 255
183 212 255
183 212 255
183 212 255
183 212 255
183 212 255
183 212 255
183 212 255
183 212 255
183 212 255
183 212 255
183 212 255
183 212 255
183 212 255
183 212 255
183 212 255
183 212 255
183 212 255
183 212 255
183 212 255
183 212 255
183 212 255
183 212 255
183 212 255
182 212 255
182 212 255
182 212 255
182 212 255
182 212 255
182 212 255
182 212 255
182 212 255
182 212 255
182 212 255
182 212 255
182 212 255
182 212 255
182 212 255
182 212 255
182 211 255
182 211 255
182 211 255
182 211 255
182 211 255
182 211 255
182 211 255
182 211 255
182 211 255
182 211 255
182 211 255
182 211 255
182 211 255
182 211 255
182 211 255
182 211 255
182 211 255
182 211 255
182 211 255
182 211 255
182 211 255
182 211 255
182 211 255
182 211 255
182 211 255
182 211 255
182 211 255
182 211 255
182 211 255
182 211 255
182 211 255
181 211 255
181 211 255
181 211 255
181 211 255
181 211 255
181 211 255
181 211 255
181 211 255
181 211 255
181 211 255
181 211 255
181 211 255
181 211 255
181 211 255
181 211 255
181 211 255
181 211 255
181 211 255
181 211 255
181 211 255
181 211 255
181 211 255
181 211 255
181 211 255
181 211 255
181 211 255
181 211 255
181 211 255
181 211 255
181 211 255
181 211 255
181 211 255
181 211 255
181 211 255
181 211 255
181 211 255
181 211 255
181 211 255
181 211 255
181 211 255
181 211 255
181 211 255
181 211 255
181 211 255
181 211 255
181 211 255
181 211 255
180 210 255
181 211 255
180 210 255
180 210 255
180 210 255
180 210 255
180 210 255
180 210 255
180 210 255
180 210 255
180 210 255
180 210 255
180 210 255
180 210 255
180 210 255
180 210 255
180 210 255
180 210 255
180 210 255
180 210 255
180 210 255
180 210 255
180 210 255
180 210 255
180 210 255
180 210 255
180 210 255
180 210 255
180 210 255
180 210 255
180 210 255
180 210 255
180 210 255
180 210 255
180 210 255
180 210 255
180 210 255
180 210 255
180 210 255
180 210 255
180 210 255
180 210 255
180 210 255
180 210 255
170 201 246
151 183 230
145 179 230
141 177 230
139 175 230
137 174 230
134 173 230
132 171 230
131 170 230
130 170 230
128 169 230
127 168 230
126 167 230
125 167 230
124 166 230
123 166 230
122 165 230
121 165 230
120 164 230
120 164 230
119 163 230
119 163 230
118 163 230
118 162 230
117 162 230
117 162 230
117 162 230
116 162 230
116 161 230
116 161 230
115 161 230
115 161 230
115 161 230
115 161 230
115 161 230
115 161 230
115 161 230
115 161 230
115 161 230
115 161 230
115 161 230
115 161 230
116 161 230
116 162 230
116 162 230
116 162 230
117 162 230
117 162 230
118 163 230
118 163 230
119 163 230
119 163 230
120 164 230
121 164 230
121 165 230
122 165 230
123 166 230
124 166 230
125 167 230
126 167 230
127 168 230
128 169 230
130 170 230
131 171 230
133 172 230
134 172 230
137 174 230
139 175 230
141 177 230
145 179 230
149 181 230
169 200 246
180 210 255
180 210 255
180 210 255
180 210 255
180 210 255
180 210 255
180 210 255
180 210 255
180 210 255
180 210 255
180 210 255
180 210 255
180 210 255
180 210 255
180 210 255
180 210 255
180 210 255
180 210 255
180 210 255
180 210 255
180 210 255
180 210 255
180 210 255
180 210 255
180 210 255
180 210 255
180 210 255
180 210 255
180 210 255
180 210 255
180 210 255
180 210 255
180 210 255
180 210 255
180 210 255
180 210 255
180 210 255
180 210 255
180 210 255
180 210 255
180 210 255
180 210 255
181 211 255
180 210 255
181 211 255
181 211 255
181 211 255
181 211 255
181 211 255
181 211 255
181 211 255
181 211 255
181 211 255
181 211 255
181 211 255
181 211 255
181 211 255
181 211 255
181 211 255
181 211 255
181 211 255
181 211 255
181 211 255
181 211 255
181 211 255
181 211 255
181 211 255
181 211 255
181 211 255
181 211 255
181 211 255
181 211 255
181 211 255
181 211 255
181 211 255
181 211 255
181 211 255
181 211 255
181 211 255
181 211 255
181 211 255
181 211 255
181 211 255
181 211 255
181 211 255
181 211 255
181 211 255
181 211 255
181 211 255
181 211 255
181 211 255
182 211 255
181 211 255
182 211 255
182 211 255
182 211 255
182 211 255
182 211 255
182 211 255
182 211 255
182 211 255
182 211 255
182 211 255
182 211 255
182 211 255
182 211 255
182 211 255
182 211 255
182 211 255
182 211 255
182 211 255
182 211 255
182 211 255
182 211 255
182 211 255
182 211 255
182 211 255
182 211 255
182 211 255
182 211 255
182 211 255
182 211 255
182 212 255
182 212 255
182 212 255
182 212 255
182 212 255
182 212 255
182 212 255
182 212 255
182 212 255
182 212 255
182 212 255
182 212 255
182 212 255
182 212 255
183 212 255
183 212 255
183 212 255
183 212 255
183 212 255
183 212 255
183 212 255
183 212 255
183 212 255
183 212 255
183 212 255
183 212 255
183 212 255
183 212 255
183 212 255
183 212 255
183 212 255
183 212 255
183 212 255
183 212 255
183 212 255
183 212 255
183 212 255
183 212 255
183 212 255
183 212 255
183 212 255
183 212 255
183 212 255
183 212 255
183 212 255
183 212 255
183 212 255
183 212 255
183 212 255
183 212 255
183 212 255
183 212 255
183 212 255
183 212 255
183 212 255
183 212 255
183 212 255
183 212 255
183 212 255
183 212 255
183 212 255
183 212 255
183 212 255
183 212 255
183 212 255
183 212 255
183 212 255
183 212 255
183 212 255
183 212 255
183 212 255
183 212 255
183 212 255
183 212 255
183 212 255
183 212 255
183 212 255
183 212 255
183 212 255
182 212 255
182 212 255
182 212 255
182 212 255
182 212 255
182 212 255
182 212 255
182 212 255
182 212 255
182 212 255
182 212 255
182 212 255
182 212 255
182 212 255
182 212 255
182 212 255
182 211 255
182 211 255
182 211 255
182 211 255
182 211 255
182 211 255
182 211 255
182 211 255
182 211 255
182 211 255
182 211 255
182 211 255
182 211 255
182 211 255
182 211 255
182 211 255
182 211 255
182 211 255
182 211 255
182 211 255
182 211 255
182 211 255
182 211 255
182 211 255
182 211 255
182 211 255
182 211 255
182 211 255
182 211 255
182 211 255
182 211 255
182 211 255
182 211 255
181 211 255
181 211 255
181 211 255
181 211 255
181 211 255
181 211 255
181 211 255
181 211 255
181 211 255
181 211 255
181 211 255
181 211 255
181 211 255
181 211 255
181 211 255
181 211 255
181 211 255
181 211 255
181 211 255
181 211 255
181 211 255
181 211 255
181 211 255
181 211 255
181 211 255
181 211 255
181 211 255
181 211 255
181 211 255
181 211 255
181 211 255
181 211 255
181 211 255
181 211 255
181 211 255
181 211 255
181 211 255
181 211 255
181 211 255
181 211 255
181 211 255
181 211 255
181 211 255
181 211 255
181 211 255
181 211 255
181 211 255
181 211 255
181 211 255
180 210 255
181 211 255
181 211 255
180 210 255
181 211 255
180 210 255
180 210 255
180 210 255
180 210 255
180 210 255
180 210 255
180 210 255
180 210 255
180 210 255
180 210 255
180 210 255
180 210 255
180 210 255
180 210 255
180 210 255
180 210 255
180 210 255
180 210 255
180 210 255
180 210 255
180 210 255
180 210 255
180 210 255
169 199 243
150 182 230
145 179 230
142 177 230
140 176 230
137 174 230
135 173 230
133 172 230
131 171 230
130 170 230
129 169 230
128 169 230
126 168 230
125 167 230
124 167 230
123 166 230
123 166 230
122 165 230
121 165 230
120 164 230
120 164 230
119 164 230
119 163 230
118 163 230
118 163 230
117 162 230
117 162 230
117 162 230
116 162 230
116 162 230
116 162 230
116 161 230
116 161 230
116 161 230
115 161 230
115 161 230
115 161 230
115 161 230
115 161 230
115 161 230
116 161 230
116 161 230
116 161 230
116 162 230
116 162 230
116 162 230
117 162 230
117 162 230
118 162 230
118 163 230
118 163 230
119 163 230
119 164 230
120 164 230
121 164 230
121 165 230
122 165 230
123 166 230
123 166 230
124 166 230
125 167 230
126 168 230
127 168 230
129 169 230
130 170 230
131 171 230
133 172 230
135 173 230
137 174 230
138 175 230
142 177 230
145 179 230
150 182 230
174 204 249
180 210 255
180 210 255
180 210 255
180 210 255
180 210 255
180 210 255
180 210 255
180 210 255
180 210 255
180 210 255
180 210 255
180 210 255
180 210 255
180 210 255
180 210 255
180 210 255
180 210 255
180 210 255
180 210 255
180 210 255
180 210 255
180 210 255
180 210 255
180 210 255
180 210 255
181 211 255
181 211 255
181 211 255
181 211 255
181 211 255
181 211 255
181 211 255
181 211 255
181 211 255
181 211 255
181 211 255
181 211 255
181 211 255
181 211 255
181 211 255
181 211 255
181 211 255
181 211 255
181 211 255
181 211 255
181 211 255
181 211 255
181 211 255
181 211 255
181 211 255
181 211 255
181 211 255
181 211 255
181 211 255
181 211 255
181 211 255
181 211 255
181 211 255
181 211 255
181 211 255
181 211 255
181 211 255
181 211 255
181 211 255
181 211 255
181 211 255
181 211 255
181 211 255
181 211 255
181 211 255
181 211 255
181 211 255
181 211 255
181 211 255
181 211 255
181 211 255
181 211 255
181 211 255
181 211 255
182 211 255
182 211 255
182 211 255
182 211 255
182 211 255
182 211 255
182 211 255
182 211 255
182 211 255
182 211 255
182 211 255
182 211 255
182 211 255
182 211 255
182 211 255
182 211 255
182 211 255
182 211 255
182 211 255
182 211 255
182 211 255
182 211 255
182 211 255
182 211 255
182 211 255
182 211 255
182 211 255
182 211 255
182 211 255
182 211 255
182 211 255
182 212 255
182 212 255
182 212 255
182 212 255
182 212 255
182 212 255
182 212 255
182 212 255
182 212 255
182 212 255
182 212 255
182 212 255
182 212 255
182 212 255
182 212 255
183 212 255
183 212 255
183 212 255
183 212 255
183 212 255
183 212 255
183 212 255
183 212 255
183 212 255
183 212 255
183 212 255
183 212 255
183 212 255
183 212 255
183 212 255
183 212 255
183 212 255
183 212 255
183 212 255
183 212 255
183 212 255
183 212 255
183 212 255
183 212 255
183 212 255
183 212 255
183 212 255
183 212 255
183 212 255
183 212 255
183 212 255
183 212 255
183 212 255
183 212 255
183 212 255
183 212 255
183 212 255
183 212 255
184 212 255
183 212 255
183 212 255
183 212 255
183 212 255
183 212 255
183 212 255
183 212 255
183 212 255
183 212 255
183 212 255
183 212 255
183 212 255
183 212 255
183 212 255
183 212 255
183 212 255
183 212 255
183 212 255
183 212 255
183 212 255
183 212 255
183 212 255
183 212 255
183 212 255
183 212 255
183 212 255
183 212 255
183 212 255
183 212 255
183 212 255
183 212 255
183 212 255
183 212 255
183 212 255
183 212 255
183 212 255
183 212 255
183 212 255
183 212 255
183 212 255
183 212 255
183 212 255
183 212 255
183 212 255
183 212 255
183 212 255
183 212 255
183 212 255
183 212 255
182 212 255
182 212 255
182 212 255
182 212 255
182 212 255
182 212 255
182 212 255
182 212 255
182 212 255
182 212 255
182 212 255
182 212 255
182 212 255
182 212 255
182 211 255
182 211 255
182 211 255
182 211 255
182 211 255
182 211 255
182 211 255
182 211 255
182 211 255
182 211 255
182 211 255
182 211 255
182 211 255
182 211 255
182 211 255
182 211 255
182 211 255
182 211 255
182 211 255
182 211 255
182 211 255
182 211 255
182 211 255
182 211 255
182 211 255
182 211 255
182 211 255
182 211 255
182 211 255
182 211 255
182 211 255
182 211 255
181 211 255
182 211 255
182 211 255
181 211 255
181 211 255
181 211 255
181 211 255
181 211 255
181 211 255
181 211 255
181 211 255
181 211 255
181 211 255
181 211 255
181 211 255
181 211 255
181 211 255
181 211 255
181 211 255
181 211 255
181 211 255
181 211 255
181 211 255
181 211 255
181 211 255
181 211 255
181 211 255
181 211 255
181 211 255
181 211 255
181 211 255
181 211 255
181 211 255
181 211 255
181 211 255
181 211 255
181 211 255
181 211 255
181 211 255
181 211 255
181 211 255
181 211 255
181 211 255
181 211 255
181 211 255
181 211 255
181 211 255
181 211 255
181 211 255
181 211 255
181 211 255
181 211 255
181 211 255
181 211 255
181 211 255
181 211 255
181 211 255
181 211 255
181 211 255
181 211 255
181 211 255
181 211 255
181 211 255
181 210 255
181 211 255
180 210 255
157 186 230
150 182 230
146 179 230
143 178 230
139 176 230
138 175 230
136 174 230
134 172 230
132 171 230
131 171 230
129 170 230
128 169 230
127 168 230
126 168 230
125 167 230
124 167 230
123 166 230
123 166 230
122 165 230
121 165 230
121 164 230
120 164 230
120 164 230
119 163 230
118 163 230
118 163 230
118 163 230
118 162 230
117 162 230
117 162 230
117 162 230
117 162 230
116 162 230
116 162 230
116 162 230
116 162 230
116 161 230
116 161 230
116 161 230
116 161 230
116 162 230
116 162 230
116 162 230
116 162 230
116 162 230
117 162 230
117 162 230
117 162 230
118 162 230
118 163 230
118 163 230
119 163 230
119 163 230
119 164 230
120 164 230
121 164 230
121 165 230
122 165 230
123 165 230
123 166 230
124 167 230
125 167 230
126 168 230
127 168 230
128 169 230
129 170 230
131 170 230
132 171 230
134 172 230
135 173 230
137 174 230
140 176 230
143 178 230
146 180 230
150 182 230
167 197 243
181 210 255
181 211 255
180 210 255
181 210 255
181 211 255
181 211 255
181 211 255
181 211 255
181 211 255
181 211 255
181 211 255
181 211 255
181 211 255
181 211 255
181 211 255
181 211 255
181 211 255
181 211 255
181 211 255
181 211 255
181 211 255
181 211 255
181 211 255
181 211 255
181 211 255
181 211 255
181 211 255
181 211 255
181 211 255
181 211 255
181 211 255
181 211 255
181 211 255
181 211 255
181 211 255
181 211 255
181 211 255
181 211 255
181 211 255
181 211 255
181 211 255
181 211 255
181 211 255
181 211 255
181 211 255
181 211 255
181 211 255
181 211 255
181 211 255
181 211 255
181 211 255
181 211 255
181 211 255
181 211 255
181 211 255
181 211 255
181 211 255
181 211 255
181 211 255
181 211 255
181 211 255
181 211 255
181 211 255
182 211 255
181 211 255
182 211 255
182 211 255
182 211 255
182 211 255
182 211 255
182 211 255
182 211 255
182 211 255
182 211 255
182 211 255
182 211 255
182 211 255
182 211 255
182 211 255
182 211 255
182 211 255
182 211 255
182 211 255
182 211 255
182 211 255
182 211 255
182 211 255
182 211 255
182 211 255
182 211 255
182 211 255
182 211 255
182 211 255
182 211 255
182 211 255
182 211 255
182 211 255
182 211 255
182 212 255
182 212 255
182 212 255
182 212 255
182 212 255
182 212 255
182 212 255
182 212 255
182 212 255
182 212 255
182 212 255
182 212 255
183 212 255
183 212 255
183 212 255
183 212 255
183 212 255
183 212 255
183 212 255
183 212 255
183 212 255
183 212 255
183 212 255
183 212 255
183 212 255
183 212 255
183 212 255
183 212 255
183 212 255
183 212 255
183 212 255
183 212 255
183 212 255
183 212 255
183 212 255
183 212 255
183 212 255
183 212 255
183 212 255
183 212 255
183 212 255
183 212 255
183 212 255
183 212 255
183 212 255
183 212 255
183 212 255
183 212 255
183 212 255
183 212 255
183 212 255
183 212 255
183 212 255
183 212 255
183 212 255
183 212 255
183 212 255
183 212 255
183 212 255
183 212 255
183 212 255
183 212 255
183 212 255
184 212 255
184 212 255
184 212 255
184 212 255
184 212 255
184 212 255
184 212 255
184 212 255
184 212 255
184 212 255
184 212 255
184 212 255
184 212 255
183 212 255
183 212 255
183 212 255
183 212 255
183 212 255
183 212 255
183 212 255
183 212 255
183 212 255
183 212 255
183 212 255
183 212 255
183 212 255
183 212 255
183 212 255
183 212 255
183 212 255
183 212 255
183 212 255
183 212 255
183 212 255
183 212 255
183 212 255
183 212 255
183 212 255
183 212 255
183 212 255
183 212 255
183 212 255
183 212 255
183 212 255
183 212 255
183 212 255
183 212 255
183 212 255
183 212 255
183 212 255
183 212 255
183 212 255
183 212 255
183 212 255
183 212 255
183 212 255
183 212 255
183 212 255
183 212 255
183 212 255
183 212 255
183 212 255
183 212 255
182 212 255
182 212 255
182 212 255
182 212 255
182 212 255
182 212 255
182 212 255
182 212 255
182 212 255
182 212 255
182 212 255
182 212 255
182 212 255
182 212 255
182 212 255
182 212 255
182 211 255
182 211 255
182 211 255
182 211 255
182 211 255
182 211 255
182 211 255
182 211 255
182 211 255
182 211 255
182 211 255
182 211 255
182 211 255
182 211 255
182 211 255
182 211 255
182 211 255
182 211 255
182 211 255
182 211 255
182 211 255
182 211 255
182 211 255
182 211 255
182 211 255
182 211 255
182 211 255
182 211 255
182 211 255
182 211 255
182 211 255
182 211 255
182 211 255
182 211 255
181 211 255
181 211 255
181 211 255
181 211 255
181 211 255
181 211 255
181 211 255
181 211 255
181 211 255
181 211 255
181 211 255
181 211 255
181 211 255
181 211 255
181 211 255
181 211 255
181 211 255
181 211 255
181 211 255
181 211 255
181 211 255
181 211 255
181 211 255
181 211 255
181 211 255
181 211 255
181 211 255
181 211 255
181 211 255
181 211 255
181 211 255
181 211 255
181 211 255
181 211 255
181 211 255
181 211 255
181 211 255
181 211 255
181 211 255
181 211 255
181 211 255
181 211 255
181 211 255
181 211 255
181 211 255
181 211 255
181 211 255
181 211 255
181 211 255
168 198 243
153 184 230
147 180 230
144 178 230
140 176 230
139 175 230
136 174 230
135 173 230
133 172 230
132 171 230
130 170 230
129 169 230
128 169 230
127 168 230
126 168 230
125 167 230
124 167 230
123 166 230
123 166 230
122 165 230
122 165 230
121 165 230
120 164 230
120 164 230
119 164 230
119 163 230
119 163 230
118 163 230
118 163 230
118 163 230
117 162 230
117 162 230
117 162 230
117 162 230
117 162 230
117 162 230
117 162 230
117 162 230
116 162 230
116 162 230
117 162 230
117 162 230
117 162 230
117 162 230
117 162 230
117 162 230
117 162 230
117 162 230
118 163 230
118 163 230
118 163 230
119 163 230
119 163 230
119 164 230
120 164 230
120 164 230
121 165 230
121 165 230
122 165 230
123 166 230
124 166 230
124 167 230
125 167 230
126 168 230
127 168 230
128 169 230
129 169 230
130 170 230
132 171 230
133 172 230
135 173 230
136 174 230
138 175 230
141 177 230
143 178 230
147 180 230
153 184 230
172 201 246
181 211 255
181 211 255
181 211 255
181 211 255
181 211 255
181 211 255
181 211 255
181 211 255
181 211 255
181 211 255
181 211 255
181 211 255
181 211 255
181 211 255
181 211 255
181 211 255
181 211 255
181 211 255
181 211 255
181 211 255
181 211 255
181 211 255
181 211 255
181 211 255
181 211 255
181 211 255
181 211 255
181 211 255
181 211 255
181 211 255
181 211 255
181 211 255
181 211 255
181 211 255
181 211 255
181 211 255
181 211 255
181 211 255
181 211 255
181 211 255
181 211 255
181 211 255
181 211 255
181 211 255
181 211 255
181 211 255
181 211 255
182 211 255
181 211 255
182 211 255
181 211 255
182 211 255
182 211 255
182 211 255
182 211 255
182 211 255
182 211 255
182 211 255
182 211 255
182 211 255
182 211 255
182 211 255
182 211 255
182 211 255
182 211 255
182 211 255
182 211 255
182 211 255
182 211 255
182 211 255
182 211 255
182 211 255
182 211 255
182 211 255
182 211 255
182 211 255
182 211 255
182 211 255
182 211 255
182 211 255
182 211 255
182 211 255
182 212 255
182 212 255
182 212 255
182 212 255
182 212 255
182 212 255
182 212 255
182 212 255
182 212 255
182 212 255
182 212 255
182 212 255
182 212 255
182 212 255
182 212 255
182 212 255
183 212 255
183 212 255
183 212 255
183 212 255
183 212 255
183 212 255
183 212 255
183 212 255
183 212 255
183 212 255
183 212 255
183 212 255
183 212 255
183 212 255
183 212 255
183 212 255
183 212 255
183 212 255
183 212 255
183 212 255
183 212 255
183 212 255
183 212 255
183 212 255
183 212 255
183 212 255
183 212 255
183 212 255
183 212 255
183 212 255
183 212 255
183 212 255
183 212 255
183 212 255
183 212 255
183 212 255
183 212 255
183 212 255
183 212 255
183 212 255
183 212 255
183 212 255
183 212 255
183 212 255
183 212 255
183 212 255
183 212 255
183 212 255
183 212 255
183 212 255
183 212 255
184 212 255
184 212 255
184 212 255
184 212 255
184 212 255
184 212 255
184 212 255
184 212 255
184 212 255
184 212 255
184 212 255
184 212 255
184 213 255
184 213 255
184 213 255
184 213 255
184 213 255
184 213 255
184 212 255
184 212 255
184 212 255
184 212 255
184 212 255
184 212 255
184 212 255
184 212 255
184 212 255
184 212 255
184 212 255
184 212 255
184 212 255
184 212 255
184 212 255
184 212 255
184 212 255
183 212 255
183 212 255
183 212 255
183 212 255
183 212 255
183 212 255
183 212 255
183 212 255
183 212 255
183 212 255
183 212 255
183 212 255
183 212 255
183 212 255
183 212 255
183 212 255
183 212 255
183 212 255
183 212 255
183 212 255
183 212 255
183 212 255
183 212 255
183 212 255
183 212 255
183 212 255
183 212 255
183 212 255
183 212 255
183 212 255
183 212 255
183 212 255
183 212 255
183 212 255
183 212 255
183 212 255
183 212 255
183 212 255
183 212 255
183 212 255
183 212 255
183 212 255
183 212 255
183 212 255
183 212 255
183 212 255
183 212 255
183 212 255
183 212 255
183 212 255
182 212 255
183 212 255
182 212 255
182 212 255
182 212 255
182 212 255
182 212 255
182 212 255
182 212 255
182 212 255
182 212 255
182 212 255
182 212 255
182 212 255
182 212 255
182 212 255
182 212 255
182 211 255
182 212 255
182 212 255
182 211 255
182 211 255
182 211 255
182 211 255
182 211 255
182 211 255
182 211 255
182 211 255
182 211 255
182 211 255
182 211 255
182 211 255
182 211 255
182 211 255
182 211 255
182 211 255
182 211 255
182 211 255
182 211 255
182 211 255
182 211 255
182 211 255
182 211 255
182 211 255
182 211 255
182 211 255
182 211 255
182 211 255
182 211 255
182 211 255
182 211 255
182 211 255
182 211 255
182 211 255
182 211 255
181 211 255
182 211 255
182 211 255
181 211 255
181 211 255
181 211 255
181 211 255
181 211 255
181 211 255
181 211 255
181 211 255
181 211 255
181 211 255
181 211 255
181 211 255
181 211 255
181 211 255
181 211 255
181 211 255
181 211 255
181 211 255
181 211 255
181 211 255
181 211 255
181 211 255
181 211 255
181 211 255
181 211 255
181 211 255
181 211 255
181 211 255
181 211 255
173 202 246
157 187 233
147 180 230
145 179 230
141 177 230
139 176 230
137 174 230
136 173 230
134 172 230
132 171 230
131 171 230
130 170 230
129 170 230
128 169 230
127 168 230
126 168 230
125 167 230
124 167 230
124 166 230
123 166 230
122 165 230
122 165 230
121 165 230
121 164 230
120 164 230
120 164 230
120 164 230
119 163 230
119 163 230
119 163 230
118 163 230
118 163 230
118 163 230
118 163 230
118 163 230
117 162 230
117 162 230
117 162 230
117 162 230
117 162 230
117 162 230
117 162 230
117 162 230
117 162 230
117 162 230
118 163 230
118 163 230
118 163 230
118 163 230
118 163 230
119 163 230
119 163 230
119 163 230
120 164 230
120 164 230
121 164 230
121 165 230
121 165 230
122 165 230
122 165 230
123 166 230
124 166 230
125 167 230
125 167 230
126 168 230
127 168 230
128 169 230
129 169 230
130 170 230
131 171 230
133 172 230
134 172 230
135 173 230
137 174 230
140 176 230
141 177 230
145 179 230
148 181 230
154 184 230
166 195 239
181 211 255
181 211 255
181 211 255
181 211 255
181 211 255
181 211 255
181 211 255
181 211 255
181 211 255
181 211 255
181 211 255
181 211 255
181 211 255
181 211 255
181 211 255
181 211 255
181 211 255
181 211 255
181 211 255
181 211 255
181 211 255
181 211 255
181 211 255
181 211 255
181 211 255
181 211 255
181 211 255
181 211 255
182 211 255
181 211 255
182 211 255
182 211 255
182 211 255
182 211 255
182 211 255
182 211 255
182 211 255
182 211 255
182 211 255
182 211 255
182 211 255
182 211 255
182 211 255
182 211 255
182 211 255
182 211 255
182 211 255
182 211 255
182 211 255
182 211 255
182 211 255
182 211 255
182 211 255
182 211 255
182 211 255
182 211 255
182 211 255
182 211 255
182 211 255
182 211 255
182 211 255
182 211 255
182 211 255
182 211 255
182 211 255
182 211 255
182 211 255
182 212 255
182 211 255
182 211 255
182 212 255
182 212 255
182 212 255
182 212 255
182 212 255
182 212 255
182 212 255
182 212 255
182 212 255
182 212 255
182 212 255
182 212 255
182 212 255
183 212 255
182 212 255
182 212 255
183 212 255
183 212 255
183 212 255
183 212 255
183 212 255
183 212 255
183 212 255
183 212 255
183 212 255
183 212 255
183 212 255
183 212 255
183 212 255
183 212 255
183 212 255
183 212 255
183 212 255
183 212 255
183 212 255
183 212 255
183 212 255
183 212 255
183 212 255
183 212 255
183 212 255
183 212 255
183 212 255
183 212 255
183 212 255
183 212 255
183 212 255
183 212 255
183 212 255
183 212 255
183 212 255
183 212 255
183 212 255
183 212 255
183 212 255
183 212 255
183 212 255
183 212 255
183 212 255
183 212 255
183 212 255
183 212 255
183 212 255
183 212 255
183 212 255
183 212 255
184 212 255
184 212 255
184 212 255
184 212 255
184 212 255
184 212 255
184 212 255
184 212 255
184 212 255
184 212 255
184 212 255
184 212 255
184 212 255
184 212 255
184 212 255
184 212 255
184 212 255
184 212 255
184 212 255
184 213 255
184 213 255
184 213 255
184 213 255
184 213 255
184 213 255
184 213 255
184 213 255
184 213 255
184 213 255
184 213 255
184 213 255
184 213 255
184 213 255
184 213 255
184 213 255
184 213 255
184 213 255
184 213 255
184 213 255
184 213 255
184 213 255
184 213 255
184 213 255
184 212 255
184 212 255
184 212 255
184 212 255
184 212 255
184 212 255
184 212 255
184 212 255
184 212 255
184 212 255
184 212 255
184 212 255
184 212 255
184 212 255
184 212 255
184 212 255
184 212 255
184 212 255
184 212 255
183 212 255
183 212 255
183 212 255
183 212 255
183 212 255
183 212 255
183 212 255
183 212 255
183 212 255
183 212 255
183 212 255
183 212 255
183 212 255
183 212 255
183 212 255
183 212 255
183 212 255
183 212 255
183 212 255
183 212 255
183 212 255
183 212 255
183 212 255
183 212 255
183 212 255
183 212 255
183 212 255
183 212 255
183 212 255
183 212 255
183 212 255
183 212 255
183 212 255
183 212 255
183 212 255
183 212 255
183 212 255
183 212 255
183 212 255
183 212 255
183 212 255
183 212 255
183 212 255
183 212 255
183 212 255
183 212 255
183 212 255
183 212 255
183 212 255
183 212 255
183 212 255
182 212 255
182 212 255
182 212 255
182 212 255
182 212 255
182 212 255
182 212 255
182 212 255
182 212 255
182 212 255
182 212 255
182 212 255
182 212 255
182 212 255
182 212 255
182 212 255
182 212 255
182 211 255
182 212 255
182 211 255
182 211 255
182 211 255
182 211 255
182 211 255
182 211 255
182 211 255
182 211 255
182 211 255
182 211 255
182 211 255
182 211 255
182 211 255
182 211 255
182 211 255
182 211 255
182 211 255
182 211 255
182 211 255
182 211 255
182 211 255
182 211 255
182 211 255
182 211 255
182 211 255
182 211 255
182 211 255
182 211 255
182 211 255
182 211 255
182 211 255
182 211 255
182 211 255
182 211 255
182 211 255
182 211 255
182 211 255
182 211 255
182 211 255
182 211 255
182 211 255
182 211 255
182 211 255
181 211 255
181 211 255
181 211 255
181 211 255
181 211 255
181 211 255
181 211 255
181 211 255
181 211 255
153 184 230
150 182 230
145 179 230
143 178 230
141 176 230
139 175 230
137 174 230
136 173 230
134 172 230
132 171 230
131 171 230
130 170 230
129 169 230
128 169 230
127 168 230
126 168 230
126 167 230
125 167 230
124 167 230
124 166 230
123 166 230
122 165 230
122 165 230
122 165 230
121 165 230
121 164 230
120 164 230
120 164 230
120 164 230
119 164 230
119 163 230
119 163 230
119 163 230
118 163 230
118 163 230
118 163 230
118 163 230
118 163 230
118 163 230
118 163 230
118 163 230
118 163 230
118 163 230
118 163 230
118 163 230
118 163 230
119 163 230
119 163 230
119 163 230
119 163 230
120 164 230
120 164 230
120 164 230
120 164 230
121 164 230
121 165 230
122 165 230
122 165 230
123 165 230
123 166 230
123 166 230
124 166 230
125 167 230
126 167 230
127 168 230
127 168 230
128 169 230
129 169 230
130 170 230
131 171 230
132 171 230
134 172 230
135 173 230
137 174 230
139 175 230
140 176 230
143 178 230
145 179 230
150 182 230
155 185 230
176 205 249
181 211 255
181 211 255
181 211 255
181 211 255
181 211 255
182 211 255
182 211 255
182 211 255
181 211 255
182 211 255
182 211 255
182 211 255
182 211 255
182 211 255
182 211 255
182 211 255
182 211 255
182 211 255
182 211 255
182 211 255
182 211 255
182 211 255
182 211 255
182 211 255
182 211 255
182 211 255
182 211 255
182 211 255
182 211 255
182 211 255
182 211 255
182 211 255
182 211 255
182 211 255
182 211 255
182 211 255
182 211 255
182 211 255
182 211 255
182 211 255
182 211 255
182 211 255
182 211 255
182 211 255
182 211 255
182 211 255
182 211 255
182 211 255
182 211 255
182 211 255
182 211 255
182 211 255
182 211 255
182 212 255
182 211 255
182 212 255
182 212 255
182 212 255
182 212 255
182 212 255
182 212 255
182 212 255
182 212 255
182 212 255
182 212 255
182 212 255
182 212 255
182 212 255
182 212 255
182 212 255
182 212 255
183 212 255
183 212 255
183 212 255
183 212 255
183 212 255
183 212 255
183 212 255
183 212 255
183 212 255
183 212 255
183 212 255
183 212 255
183 212 255
183 212 255
183 212 255
183 212 255
183 212 255
183 212 255
183 212 255
183 212 255
183 212 255
183 212 255
183 212 255
183 212 255
183 212 255
183 212 255
183 212 255
183 212 255
183 212 255
183 212 255
183 212 255
183 212 255
183 212 255
183 212 255
183 212 255
183 212 255
183 212 255
183 212 255
183 212 255
183 212 255
183 212 255
183 212 255
183 212 255
183 212 255
183 212 255
183 212 255
183 212 255
183 212 255
183 212 255
183 212 255
184 212 255
184 212 255
184 212 255
184 212 255
184 212 255
184 212 255
184 212 255
184 212 255
184 212 255
184 212 255
184 212 255
184 212 255
184 212 255
184 212 255
184 212 255
184 212 255
184 212 255
184 212 255
184 212 255
184 213 255
184 212 255
184 213 255
184 213 255
184 213 255
184 213 255
184 213 255
184 213 255
184 213 255
184 213 255
184 213 255
184 213 255
184 213 255
184 213 255
184 213 255
184 213 255
184 213 255
184 213 255
184 213 255
184 213 255
184 213 255
184 213 255
184 213 255
184 213 255
184 213 255
184 213 255
184 213 255
184 213 255
184 213 255
184 213 255
184 213 255
184 213 255
184 213 255
184 213 255
184 213 255
184 213 255
184 213 255
184 213 255
184 213 255
184 213 255
184 213 255
184 213 255
184 213 255
184 213 255
184 213 255
184 213 255
184 213 255
184 213 255
184 213 255
184 213 255
184 213 255
184 213 255
184 212 255
184 212 255
184 212 255
184 212 255
184 212 255
184 212 255
184 212 255
184 212 255
184 212 255
184 212 255
184 212 255
184 212 255
184 212 255
184 212 255
184 212 255
184 212 255
183 212 255
183 212 255
183 212 255
183 212 255
183 212 255
183 212 255
183 212 255
183 212 255
183 212 255
183 212 255
183 212 255
183 212 255
183 212 255
183 212 255
183 212 255
183 212 255
183 212 255
183 212 255
183 212 255
183 212 255
183 212 255
183 212 255
183 212 255
183 212 255
183 212 255
183 212 255
183 212 255
183 212 255
183 212 255
183 212 255
183 212 255
183 212 255
183 212 255
183 212 255
183 212 255
183 212 255
183 212 255
183 212 255
183 212 255
183 212 255
183 212 255
183 212 255
183 212 255
183 212 255
183 212 255
183 212 255
183 212 255
183 212 255
183 212 255
183 212 255
183 212 255
183 212 255
183 212 255
182 212 255
182 212 255
182 212 255
182 212 255
182 212 255
182 212 255
182 212 255
182 212 255
182 212 255
182 212 255
182 212 255
182 212 255
182 212 255
182 212 255
182 212 255
182 212 255
182 212 255
182 212 255
182 212 255
182 212 255
182 211 255
182 212 255
182 212 255
182 211 255
182 211 255
182 211 255
182 211 255
182 211 255
182 211 255
182 211 255
182 211 255
182 211 255
182 211 255
182 211 255
182 211 255
182 211 255
182 211 255
182 211 255
182 211 255
182 211 255
182 211 255
182 211 255
182 211 255
182 211 255
182 211 255
182 211 255
182 211 255
182 211 255
182 211 255
182 211 255
182 211 255
182 211 255
182 211 255
182 211 255
182 211 255
182 211 255
182 211 255
165 195 239
151 182 230
147 180 230
144 179 230
142 177 230
140 176 230
138 175 230
136 174 230
135 173 230
134 172 230
132 171 230
131 171 230
130 170 230
129 170 230
128 169 230
128 168 230
127 168 230
126 168 230
126 167 230
125 167 230
124 167 230
124 166 230
123 166 230
123 166 230
122 165 230
122 165 230
121 165 230
121 165 230
121 164 230
120 164 230
120 164 230
120 164 230
120 164 230
120 164 230
119 164 230
119 164 230
119 163 230
119 163 230
119 163 230
119 163 230
119 163 230
119 163 230
119 163 230
119 163 230
119 163 230
119 163 230
119 164 230
119 164 230
119 164 230
120 164 230
120 164 230
120 164 230
120 164 230
121 164 230
121 165 230
121 165 230
122 165 230
122 165 230
123 166 230
123 166 230
124 166 230
124 167 230
125 167 230
126 167 230
126 168 230
127 168 230
128 169 230
128 169 230
129 170 230
130 170 230
131 171 230
133 172 230
134 172 230
135 173 230
136 174 230
138 175 230
140 176 230
142 177 230
144 178 230
148 181 230
150 182 230
159 189 233
182 211 255
182 211 255
182 211 255
182 211 255
182 211 255
182 211 255
182 211 255
182 211 255
182 211 255
182 211 255
182 211 255
182 211 255
182 211 255
182 211 255
182 211 255
182 211 255
182 211 255
182 211 255
182 211 255
182 211 255
182 211 255
182 211 255
182 211 255
182 211 255
182 211 255
182 211 255
182 211 255
182 211 255
182 211 255
182 211 255
182 211 255
182 211 255
182 211 255
182 211 255
182 211 255
182 212 255
182 212 255
182 212 255
182 212 255
182 212 255
182 212 255
182 212 255
182 212 255
182 212 255
182 212 255
182 212 255
182 212 255
182 212 255
182 212 255
182 212 255
182 212 255
182 212 255
182 212 255
182 212 255
182 212 255
183 212 255
183 212 255
183 212 255
183 212 255
183 212 255
183 212 255
183 212 255
183 212 255
183 212 255
183 212 255
183 212 255
183 212 255
183 212 255
183 212 255
183 212 255
183 212 255
183 212 255
183 212 255
183 212 255
183 212 255
183 212 255
183 212 255
183 212 255
183 212 255
183 212 255
183 212 255
183 212 255
183 212 255
183 212 255
183 212 255
183 212 255
183 212 255
183 212 255
183 212 255
183 212 255
183 212 255
183 212 255
183 212 255
183 212 255
183 212 255
183 212 255
183 212 255
183 212 255
183 212 255
183 212 255
183 212 255
183 212 255
183 212 255
183 212 255
183 212 255
183 212 255
183 212 255
183 212 255
183 212 255
183 212 255
184 212 255
184 212 255
184 212 255
184 212 255
184 212 255
184 212 255
184 212 255
184 212 255
184 212 255
184 212 255
184 212 255
184 212 255
184 212 255
184 212 255
184 212 255
184 212 255
184 212 255
184 212 255
184 213 255
184 213 255
184 213 255
184 213 255
184 213 255
184 213 255
184 213 255
184 213 255
184 213 255
184 213 255
184 213 255
184 213 255
184 213 255
184 213 255
184 213 255
184 213 255
184 213 255
184 213 255
184 213 255
184 213 255
184 213 255
184 213 255
184 213 255
184 213 255
184 213 255
184 213 255
184 213 255
184 213 255
184 213 255
184 213 255
184 213 255
185 213 255
185 213 255
185 213 255
185 213 255
185 213 255
185 213 255
185 213 255
185 213 255
184 213 255
184 213 255
184 213 255
184 213 255
184 213 255
184 213 255
184 213 255
184 213 255
184 213 255
184 213 255
184 213 255
184 213 255
184 213 255
184 213 255
184 213 255
184 213 255
184 213 255
184 213 255
184 213 255
184 213 255
184 213 255
184 213 255
184 213 255
184 213 255
184 213 255
184 213 255
184 213 255
184 213 255
184 213 255
184 213 255
184 213 255
184 213 255
184 213 255
184 213 255
184 213 255
184 212 255
184 212 255
184 213 255
184 212 255
184 212 255
184 212 255
184 212 255
184 212 255
184 212 255
184 212 255
184 212 255
184 212 255
184 212 255
184 212 255
184 212 255
184 212 255
184 212 255
184 212 255
184 212 255
184 212 255
183 212 255
183 212 255
184 212 255
183 212 255
183 212 255
183 212 255
183 212 255
183 212 255
183 212 255
183 212 255
183 212 255
183 212 255
183 212 255
183 212 255
183 212 255
183 212 255
183 212 255
183 212 255
183 212 255
183 212 255
183 212 255
183 212 255
183 212 255
183 212 255
183 212 255
183 212 255
183 212 255
183 212 255
183 212 255
183 212 255
183 212 255
183 212 255
183 212 255
183 212 255
183 212 255
183 212 255
183 212 255
183 212 255
183 212 255
183 212 255
183 212 255
183 212 255
183 212 255
183 212 255
183 212 255
183 212 255
183 212 255
183 212 255
183 212 255
183 212 255
183 212 255
183 212 255
183 212 255
183 212 255
183 212 255
183 212 255
183 212 255
183 212 255
183 212 255
182 212 255
182 212 255
182 212 255
182 212 255
182 212 255
182 212 255
182 212 255
182 212 255
182 212 255
182 212 255
182 212 255
182 212 255
182 212 255
182 212 255
182 212 255
182 212 255
182 212 255
182 212 255
182 212 255
182 212 255
182 212 255
182 212 255
182 212 255
182 212 255
182 211 255
182 211 255
182 211 255
182 211 255
182 211 255
182 211 255
182 211 255
182 211 255
182 211 255
182 211 255
182 211 255
182 211 255
163 193 236
152 183 230
148 181 230
145 179 230
143 178 230
141 177 230
139 175 230
138 175 230
136 174 230
135 173 230
134 172 230
133 171 230
132 171 230
131 170 230
130 170 230
129 169 230
128 169 230
127 168 230
127 168 230
126 168 230
125 167 230
125 167 230
125 167 230
124 166 230
123 166 230
123 166 230
123 166 230
122 165 230
122 165 230
122 165 230
121 165 230
121 165 230
121 164 230
121 164 230
121 164 230
120 164 230
120 164 230
120 164 230
120 164 230
120 164 230
120 164 230
120 164 230
120 164 230
120 164 230
120 164 230
120 164 230
120 164 230
120 164 230
120 164 230
120 164 230
121 164 230
121 164 230
121 165 230
121 165 230
122 165 230
122 165 230
122 165 230
123 166 230
123 166 230
124 166 230
124 166 230
124 167 230
125 167 230
125 167 230
126 168 230
127 168 230
127 168 230
128 169 230
129 169 230
130 170 230
131 170 230
131 171 230
133 172 230
134 172 230
135 173 230
136 174 230
138 174 230
139 175 230
141 177 230
143 178 230
145 179 230
149 181 230
152 183 230
158 187 230
182 211 255
182 211 255
182 211 255
182 211 255
182 211 255
182 211 255
182 211 255
182 211 255
182 211 255
182 211 255
182 211 255
182 211 255
182 211 255
182 212 255
182 212 255
182 212 255
182 212 255
182 212 255
182 212 255
182 212 255
182 212 255
182 212 255
182 212 255
182 212 255
182 212 255
182 212 255
182 212 255
182 212 255
182 212 255
182 212 255
182 212 255
182 212 255
182 212 255
182 212 255
182 212 255
183 212 255
183 212 255
183 212 255
183 212 255
183 212 255
183 212 255
183 212 255
183 212 255
183 212 255
183 212 255
183 212 255
183 212 255
183 212 255
183 212 255
183 212 255
183 212 255
183 212 255
183 212 255
183 212 255
183 212 255
183 212 255
183 212 255
183 212 255
183 212 255
183 212 255
183 212 255
183 212 255
183 212 255
183 212 255
183 212 255
183 212 255
183 212 255
183 212 255
183 212 255
183 212 255
183 212 255
183 212 255
183 212 255
183 212 255
183 212 255
183 212 255
183 212 255
183 212 255
183 212 255
183 212 255
183 212 255
183 212 255
183 212 255
183 212 255
183 212 255
183 212 255
183 212 255
183 212 255
183 212 255
183 212 255
183 212 255
183 212 255
183 212 255
183 212 255
183 212 255
184 212 255
184 212 255
184 212 255
184 212 255
184 212 255
184 212 255
184 212 255
184 212 255
184 212 255
184 212 255
184 212 255
184 212 255
184 212 255
184 212 255
184 212 255
184 212 255
184 212 255
184 212 255
184 212 255
184 213 255
184 213 255
184 213 255
184 213 255
184 213 255
184 213 255
184 213 255
184 213 255
184 213 255
184 213 255
184 213 255
184 213 255
184 213 255
184 213 255
184 213 255
184 213 255
184 213 255
184 213 255
184 213 255
184 213 255
184 213 255
184 213 255
184 213 255
184 213 255
184 213 255
184 213 255
184 213 255
184 213 255
184 213 255
184 213 255
184 213 255
184 213 255
184 213 255
184 213 255
184 213 255
185 213 255
185 213 255
184 213 255
185 213 255
185 213 255
185 213 255
185 213 255
185 213 255
185 213 255
185 213 255
185 213 255
185 213 255
185 213 255
185 213 255
185 213 255
185 213 255
185 213 255
185 213 255
185 213 255
185 213 255
185 213 255
185 213 255
185 213 255
185 213 255
185 213 255
185 213 255
185 213 255
185 213 255
184 213 255
185 213 255
185 213 255
185 213 255
184 213 255
184 213 255
184 213 255
184 213 255
184 213 255
184 213 255
184 213 255
184 213 255
184 213 255
184 213 255
184 213 255
184 213 255
184 213 255
184 213 255
184 213 255
184 213 255
184 213 255
184 213 255
184 213 255
184 213 255
184 213 255
184 213 255
184 213 255
184 213 255
184 213 255
184 213 255
184 213 255
184 213 255
184 213 255
184 213 255
184 213 255
184 213 255
184 213 255
184 213 255
184 213 255
184 213 255
184 213 255
184 212 255
184 212 255
184 212 255
184 212 255
184 212 255
184 212 255
184 212 255
184 212 255
184 212 255
184 212 255
184 212 255
184 212 255
184 212 255
184 212 255
184 212 255
184 212 255
184 212 255
184 212 255
183 212 255
183 212 255
183 212 255
183 212 255
183 212 255
183 212 255
183 212 255
183 212 255
183 212 255
183 212 255
183 212 255
183 212 255
183 212 255
183 212 255
183 212 255
183 212 255
183 212 255
183 212 255
183 212 255
183 212 255
183 212 255
183 212 255
183 212 255
183 212 255
183 212 255
183 212 255
183 212 255
183 212 255
183 212 255
183 212 255
183 212 255
183 212 255
183 212 255
183 212 255
183 212 255
183 212 255
183 212 255
183 212 255
183 212 255
183 212 255
183 212 255
183 212 255
183 212 255
183 212 255
183 212 255
183 212 255
183 212 255
183 212 255
183 212 255
183 212 255
183 212 255
183 212 255
183 212 255
183 212 255
183 212 255
183 212 255
183 212 255
183 212 255
183 212 255
183 212 255
183 212 255
183 212 255
183 212 255
183 212 255
183 212 255
183 212 255
183 212 255
182 212 255
182 212 255
182 212 255
182 212 255
182 212 255
182 212 255
182 212 255
182 212 255
182 212 255
182 212 255
182 212 255
182 212 255
180 209 252
156 185 230
150 182 230
148 180 230
145 179 230
142 177 230
141 176 230
139 175 230
137 174 230
136 174 230
135 173 230
134 172 230
133 172 230
132 171 230
131 171 230
130 170 230
129 170 230
129 169 230
128 169 230
127 168 230
127 168 230
126 168 230
126 167 230
125 167 230
125 167 230
124 167 230
124 166 230
124 166 230
123 166 230
123 166 230
123 166 230
123 165 230
122 165 230
122 165 230
122 165 230
122 165 230
121 165 230
121 165 230
121 165 230
121 165 230
121 165 230
121 165 230
121 165 230
121 165 230
121 165 230
121 165 230
121 165 230
121 165 230
121 165 230
121 165 230
122 165 230
122 165 230
122 165 230
122 165 230
122 165 230
123 166 230
123 166 230
123 166 230
124 166 230
124 166 230
124 167 230
125 167 230
125 167 230
126 167 230
126 168 230
127 168 230
128 168 230
128 169 230
129 169 230
129 170 230
130 170 230
131 171 230
132 171 230
133 172 230
134 172 230
135 173 230
136 174 230
138 174 230
139 175 230
141 176 230
142 177 230
145 179 230
146 180 230
150 182 230
155 185 230
171 200 243
182 212 255
182 212 255
182 212 255
182 212 255
182 212 255
182 212 255
182 212 255
182 212 255
182 212 255
182 212 255
182 212 255
183 212 255
182 212 255
182 212 255
182 212 255
183 212 255
183 212 255
183 212 255
183 212 255
183 212 255
183 212 255
183 212 255
183 212 255
183 212 255
183 212 255
183 212 255
183 212 255
183 212 255
183 212 255
183 212 255
183 212 255
183 212 255
183 212 255
183 212 255
183 212 255
183 212 255
183 212 255
183 212 255
183 212 255
183 212 255
183 212 255
183 212 255
183 212 255
183 212 255
183 212 255
183 212 255
183 212 255
183 212 255
183 212 255
183 212 255
183 212 255
183 212 255
183 212 255
183 212 255
183 212 255
183 212 255
183 212 255
183 212 255
183 212 255
183 212 255
183 212 255
183 212 255
183 212 255
183 212 255
183 212 255
183 212 255
183 212 255
183 212 255
183 212 255
183 212 255
183 212 255
183 212 255
183 212 255
183 212 255
183 212 255
183 212 255
183 212 255
183 212 255
184 212 255
183 212 255
183 212 255
183 212 255
184 212 255
184 212 255
184 212 255
184 212 255
184 212 255
184 212 255
184 212 255
184 212 255
184 212 255
184 212 255
184 212 255
184 212 255
184 212 255
184 212 255
184 212 255
184 212 255
184 213 255
184 213 255
184 213 255
184 213 255
184 213 255
184 213 255
184 213 255
184 213 255
184 213 255
184 213 255
184 213 255
184 213 255
184 213 255
184 213 255
184 213 255
184 213 255
184 213 255
184 213 255
184 213 255
184 213 255
184 213 255
184 213 255
184 213 255
184 213 255
184 213 255
184 213 255
184 213 255
184 213 255
184 213 255
184 213 255
184 213 255
184 213 255
184 213 255
184 213 255
184 213 255
184 213 255
184 213 255
185 213 255
184 213 255
185 213 255
185 213 255
185 213 255
185 213 255
185 213 255
185 213 255
185 213 255
185 213 255
185 213 255
185 213 255
185 213 255
185 213 255
185 213 255
185 213 255
185 213 255
185 213 255
185 213 255
185 213 255
185 213 255
185 213 255
185 213 255
185 213 255
185 213 255
185 213 255
185 213 255
185 213 255
185 213 255
185 213 255
185 213 255
185 213 255
185 213 255
185 213 255
185 213 255
185 213 255
185 213 255
185 213 255
185 213 255
185 213 255
185 213 255
185 213 255
185 213 255
185 213 255
185 213 255
185 213 255
185 213 255
185 213 255
185 213 255
185 213 255
185 213 255
185 213 255
185 213 255
185 213 255
185 213 255
184 213 255
185 213 255
184 213 255
184 213 255
184 213 255
184 213 255
184 213 255
184 213 255
184 213 255
184 213 255
184 213 255
184 213 255
184 213 255
184 213 255
184 213 255
184 213 255
184 213 255
184 213 255
184 213 255
184 213 255
184 213 255
184 213 255
184 213 255
184 213 255
184 213 255
184 213 255
184 213 255
184 213 255
184 213 255
184 213 255
184 213 255
184 213 255
184 213 255
184 213 255
184 213 255
184 213 255
184 213 255
184 213 255
184 213 255
184 213 255
184 213 255
184 213 255
184 212 255
184 212 255
184 212 255
184 212 255
184 212 255
184 212 255
184 212 255
184 212 255
184 212 255
184 212 255
184 212 255
184 212 255
184 212 255
184 212 255
184 212 255
184 212 255
184 212 255
183 212 255
184 212 255
183 212 255
184 212 255
184 212 255
183 212 255
183 212 255
183 212 255
183 212 255
183 212 255
183 212 255
183 212 255
183 212 255
183 212 255
183 212 255
183 212 255
183 212 255
183 212 255
183 212 255
183 212 255
183 212 255
183 212 255
183 212 255
183 212 255
183 212 255
183 212 255
183 212 255
183 212 255
183 212 255
183 212 255
183 212 255
183 212 255
183 212 255
183 212 255
183 212 255
183 212 255
183 212 255
183 212 255
183 212 255
183 212 255
183 212 255
183 212 255
183 212 255
183 212 255
183 212 255
183 212 255
183 212 255
183 212 255
183 212 255
183 212 255
183 212 255
183 212 255
183 212 255
183 212 255
183 212 255
183 212 255
183 212 255
183 212 255
183 212 255
183 212 255
183 212 255
183 212 255
183 212 255
183 212 255
180 209 252
161 190 233
153 183 230
149 181 230
146 180 230
144 178 230
142 177 230
140 176 230
139 175 230
137 174 230
137 174 230
135 173 230
134 173 230
133 172 230
132 171 230
132 171 230
131 171 230
130 170 230
129 170 230
129 169 230
128 169 230
128 169 230
127 168 230
127 168 230
126 168 230
126 167 230
125 167 230
125 167 230
125 167 230
124 166 230
124 166 230
124 166 230
123 166 230
123 166 230
123 166 230
123 166 230
122 165 230
122 165 230
122 165 230
122 165 230
122 165 230
122 165 230
122 165 230
122 165 230
122 165 230
122 165 230
122 165 230
122 165 230
122 165 230
122 165 230
123 166 230
123 165 230
123 166 230
123 166 230
123 166 230
123 166 230
123 166 230
124 167 230
124 166 230
125 167 230
125 167 230
125 167 230
126 167 230
126 168 230
127 168 230
127 168 230
128 169 230
128 169 230
129 169 230
129 170 230
130 170 230
131 171 230
131 171 230
132 171 230
133 172 230
134 173 230
135 173 230
137 174 230
138 175 230
139 175 230
140 176 230
142 177 230
144 178 230
146 180 230
148 181 230
152 183 230
157 186 230
183 212 255
183 212 255
183 212 255
183 212 255
183 212 255
183 212 255
183 212 255
183 212 255
183 212 255
183 212 255
183 212 255
183 212 255
183 212 255
183 212 255
183 212 255
183 212 255
183 212 255
183 212 255
183 212 255
183 212 255
183 212 255
183 212 255
183 212 255
183 212 255
183 212 255
183 212 255
183 212 255
183 212 255
183 212 255
183 212 255
183 212 255
183 212 255
183 212 255
183 212 255
183 212 255
183 212 255
183 212 255
183 212 255
183 212 255
183 212 255
183 212 255
183 212 255
183 212 255
183 212 255
183 212 255
183 212 255
183 212 255
183 212 255
183 212 255
183 212 255
183 212 255
183 212 255
183 212 255
183 212 255
183 212 255
183 212 255
183 212 255
183 212 255
183 212 255
183 212 255
183 212 255
183 212 255
184 212 255
183 212 255
184 212 255
184 212 255
184 212 255
184 212 255
184 212 255
184 212 255
184 212 255
184 212 255
184 212 255
184 212 255
184 212 255
184 212 255
184 212 255
184 212 255
184 212 255
184 212 255
184 212 255
184 212 255
184 212 255
184 213 255
184 213 255
184 213 255
184 213 255
184 213 255
184 213 255
184 213 255
184 213 255
184 213 255
184 213 255
184 213 255
184 213 255
184 213 255
184 213 255
184 213 255
184 213 255
184 213 255
184 213 255
184 213 255
184 213 255
184 213 255
184 213 255
184 213 255
184 213 255
184 213 255
184 213 255
184 213 255
184 213 255
184 213 255
184 213 255
184 213 255
184 213 255
184 213 255
184 213 255
184 213 255
184 213 255
184 213 255
184 213 255
184 213 255
184 213 255
185 213 255
185 213 255
185 213 255
185 213 255
185 213 255
185 213 255
185 213 255
185 213 255
185 213 255
185 213 255
185 213 255
185 213 255
185 213 255
185 213 255
185 213 255
185 213 255
185 213 255
185 213 255
185 213 255
185 213 255
185 213 255
185 213 255
185 213 255
185 213 255
185 213 255
185 213 255
185 213 255
185 213 255
185 213 255
185 213 255
185 213 255
185 213 255
185 213 255
185 213 255
185 213 255
185 213 255
185 213 255
185 213 255
185 213 255
185 213 255
185 213 255
185 213 255
185 213 255
185 213 255
185 213 255
185 213 255
185 213 255
185 213 255
185 213 255
185 213 255
185 213 255
185 213 255
185 213 255
185 213 255
185 213 255
185 213 255
185 213 255
185 213 255
185 213 255
185 213 255
185 213 255
185 213 255
185 213 255
185 213 255
185 213 255
185 213 255
185 213 255
185 213 255
185 213 255
185 213 255
185 213 255
185 213 255
185 213 255
185 213 255
185 213 255
185 213 255
185 213 255
185 213 255
185 213 255
185 213 255
185 213 255
185 213 255
185 213 255
185 213 255
184 213 255
184 213 255
184 213 255
184 213 255
184 213 255
184 213 255
184 213 255
184 213 255
184 213 255
184 213 255
184 213 255
184 213 255
184 213 255
184 213 255
184 213 255
184 213 255
184 213 255
184 213 255
184 213 255
184 213 255
184 213 255
184 213 255
184 213 255
184 213 255
184 213 255
184 213 255
184 213 255
184 213 255
184 213 255
184 213 255
184 213 255
184 213 255
184 213 255
184 213 255
184 213 255
184 213 255
184 213 255
184 213 255
184 213 255
184 212 255
184 212 255
184 212 255
184 212 255
184 212 255
184 212 255
184 212 255
184 212 255
184 212 255
184 212 255
184 212 255
184 212 255
184 212 255
184 212 255
184 212 255
184 212 255
184 212 255
184 212 255
184 212 255
184 212 255
184 212 255
184 212 255
184 212 255
183 212 255
183 212 255
183 212 255
183 212 255
183 212 255
183 212 255
183 212 255
183 212 255
183 212 255
183 212 255
183 212 255
183 212 255
183 212 255
183 212 255
183 212 255
183 212 255
183 212 255
183 212 255
183 212 255
183 212 255
183 212 255
183 212 255
183 212 255
183 212 255
183 212 255
183 212 255
183 212 255
183 212 255
183 212 255
183 212 255
183 212 255
183 212 255
183 212 255
183 212 255
183 212 255
183 212 255
183 212 255
183 212 255
183 212 255
183 212 255
183 212 255
183 212 255
183 212 255
183 212 255
160 188 230
155 185 230
150 182 230
148 181 230
146 179 230
143 178 230
142 177 230
140 176 230
139 176 230
138 175 230
137 174 230
136 173 230
135 173 230
134 172 230
133 172 230
132 171 230
131 171 230
131 171 230
130 170 230
130 170 230
129 170 230
129 169 230
128 169 230
128 168 230
127 168 230
127 168 230
126 168 230
126 168 230
126 167 230
125 167 230
125 167 230
125 167 230
125 167 230
124 166 230
124 166 230
124 166 230
124 166 230
124 166 230
124 166 230
123 166 230
123 166 230
123 166 230
123 166 230
124 166 230
123 166 230
123 166 230
123 166 230
123 166 230
124 166 230
123 166 230
124 166 230
124 166 230
124 166 230
124 167 230
124 167 230
125 167 230
125 167 230
125 167 230
125 167 230
126 167 230
126 168 230
126 168 230
127 168 230
127 168 230
128 169 230
128 169 230
128 169 230
129 169 230
130 170 230
130 170 230
131 170 230
132 171 230
132 171 230
133 172 230
134 172 230
135 173 230
136 173 230
137 174 230
138 175 230
139 175 230
140 176 230
142 177 230
144 178 230
145 179 230
147 180 230
150 182 230
154 184 230
171 200 243
183 212 255
183 212 255
183 212 255
183 212 255
183 212 255
183 212 255
183 212 255
183 212 255
183 212 255
183 212 255
183 212 255
183 212 255
183 212 255
183 212 255
183 212 255
183 212 255
183 212 255
183 212 255
183 212 255
183 212 255
183 212 255
183 212 255
183 212 255
183 212 255
183 212 255
183 212 255
183 212 255
183 212 255
183 212 255
183 212 255
183 212 255
183 212 255
183 212 255
183 212 255
183 212 255
183 212 255
183 212 255
183 212 255
183 212 255
183 212 255
183 212 255
184 212 255
183 212 255
183 212 255
184 212 255
184 212 255
184 212 255
184 212 255
184 212 255
184 212 255
184 212 255
184 212 255
184 212 255
184 212 255
184 212 255
184 212 255
184 212 255
184 212 255
184 212 255
184 212 255
184 212 255
184 212 255
184 212 255
184 212 255
184 212 255
184 213 255
184 212 255
184 213 255
184 213 255
184 213 255
184 213 255
184 213 255
184 213 255
184 213 255
184 213 255
184 213 255
184 213 255
184 213 255
184 213 255
184 213 255
184 213 255
184 213 255
184 213 255
184 213 255
184 213 255
184 213 255
184 213 255
184 213 255
184 213 255
184 213 255
184 213 255
184 213 255
184 213 255
184 213 255
184 213 255
184 213 255
184 213 255
184 213 255
184 213 255
184 213 255
184 213 255
184 213 255
184 213 255
184 213 255
185 213 255
185 213 255
185 213 255
185 213 255
185 213 255
185 213 255
185 213 255
185 213 255
185 213 255
185 213 255
185 213 255
185 213 255
185 213 255
185 213 255
185 213 255
185 213 255
185 213 255
185 213 255
185 213 255
185 213 255
185 213 255
185 213 255
185 213 255
185 213 255
185 213 255
185 213 255
185 213 255
185 213 255
185 213 255
185 213 255
185 213 255
185 213 255
185 213 255
185 213 255
185 213 255
185 213 255
185 213 255
185 213 255
185 213 255
185 213 255
185 213 255
185 213 255
185 213 255
185 213 255
185 213 255
185 213 255
185 213 255
185 213 255
185 213 255
185 213 255
185 213 255
185 213 255
185 213 255
186 214 255
185 213 255
185 213 255
185 213 255
185 213 255
185 213 255
185 213 255
185 213 255
185 213 255
185 213 255
185 213 255
185 213 255
185 213 255
185 213 255
185 213 255
185 213 255
185 213 255
185 213 255
185 213 255
185 213 255
185 213 255
185 213 255
185 213 255
185 213 255
185 213 255
185 213 255
185 213 255
185 213 255
185 213 255
185 213 255
185 213 255
185 213 255
185 213 255
185 213 255
185 213 255
185 213 255
185 213 255
185 213 255
185 213 255
185 213 255
185 213 255
185 213 255
185 213 255
185 213 255
185 213 255
185 213 255
185 213 255
185 213 255
185 213 255
185 213 255
185 213 255
185 213 255
185 213 255
185 213 255
185 213 255
185 213 255
185 213 255
185 213 255
185 213 255
185 213 255
185 213 255
185 213 255
185 213 255
184 213 255
184 213 255
184 213 255
184 213 255
184 213 255
184 213 255
184 213 255
184 213 255
184 213 255
184 213 255
184 213 255
184 213 255
184 213 255
184 213 255
184 213 255
184 213 255
184 213 255
184 213 255
184 213 255
184 213 255
184 213 255
184 213 255
184 213 255
184 213 255
184 213 255
184 213 255
184 213 255
184 213 255
184 213 255
184 213 255
184 213 255
184 213 255
184 213 255
184 213 255
184 213 255
184 213 255
184 213 255
184 213 255
184 213 255
184 213 255
184 213 255
184 213 255
184 212 255
184 212 255
184 212 255
184 212 255
184 212 255
184 212 255
184 212 255
184 212 255
184 212 255
184 212 255
184 212 255
184 212 255
184 212 255
184 212 255
184 212 255
184 212 255
184 212 255
184 212 255
184 212 255
184 212 255
184 212 255
184 212 255
184 212 255
184 212 255
184 212 255
183 212 255
184 212 255
184 212 255
184 212 255
184 212 255
183 212 255
183 212 255
183 212 255
183 212 255
183 212 255
183 212 255
183 212 255
183 212 255
183 212 255
183 212 255
183 212 255
183 212 255
183 212 255
183 212 255
183 212 255
183 212 255
183 212 255
183 212 255
183 212 255
181 209 252
157 186 230
152 183 230
149 182 230
147 180 230
145 179 230
143 178 230
142 177 230
140 176 230
140 176 230
139 175 230
137 174 230
136 174 230
136 173 230
134 173 230
134 172 230
133 172 230
132 171 230
132 171 230
131 171 230
131 170 230
130 170 230
130 170 230
129 169 230
129 169 230
128 169 230
128 169 230
128 169 230
127 168 230
127 168 230
127 168 230
126 168 230
126 168 230
126 168 230
126 167 230
126 167 230
125 167 230
125 167 230
125 167 230
125 167 230
125 167 230
125 167 230
125 167 230
125 167 230
125 167 230
125 167 230
125 167 230
125 167 230
125 167 230
125 167 230
125 167 230
125 167 230
125 167 230
125 167 230
126 167 230
126 167 230
126 167 230
126 168 230
126 168 230
127 168 230
127 168 230
127 168 230
127 168 230
128 169 230
128 169 230
129 169 230
129 169 230
130 170 230
130 170 230
131 170 230
131 171 230
132 171 230
132 171 230
133 172 230
134 172 230
134 173 230
135 173 230
136 174 230
137 174 230
138 175 230
139 176 230
141 176 230
142 177 230
143 178 230
145 179 230
147 180 230
150 182 230
152 183 230
156 185 230
167 195 236
183 212 255
183 212 255
183 212 255
183 212 255
183 212 255
183 212 255
183 212 255
183 212 255
183 212 255
183 212 255
183 212 255
183 212 255
183 212 255
183 212 255
183 212 255
183 212 255
183 212 255
183 212 255
183 212 255
183 212 255
183 212 255
183 212 255
183 212 255
184 212 255
184 212 255
184 212 255
184 212 255
184 212 255
184 212 255
184 212 255
184 212 255
184 212 255
184 212 255
184 212 255
184 212 255
184 212 255
184 212 255
184 212 255
184 212 255
184 212 255
184 212 255
184 212 255
184 212 255
184 212 255
184 212 255
184 213 255
184 212 255
184 213 255
184 213 255
184 213 255
184 213 255
184 213 255
184 213 255
184 213 255
184 213 255
184 213 255
184 213 255
184 213 255
184 213 255
184 213 255
184 213 255
184 213 255
184 213 255
184 213 255
184 213 255
184 213 255
184 213 255
184 213 255
184 213 255
184 213 255
184 213 255
184 213 255
184 213 255
184 213 255
184 213 255
184 213 255
184 213 255
184 213 255
184 213 255
184 213 255
184 213 255
184 213 255
184 213 255
184 213 255
184 213 255
184 213 255
184 213 255
185 213 255
184 213 255
184 213 255
184 213 255
185 213 255
185 213 255
185 213 255
185 213 255
185 213 255
185 213 255
185 213 255
185 213 255
185 213 255
185 213 255
185 213 255
185 213 255
185 213 255
185 213 255
185 213 255
185 213 255
185 213 255
185 213 255
185 213 255
185 213 255
185 213 255
185 213 255
185 213 255
185 213 255
185 213 255
185 213 255
185 213 255
185 213 255
185 213 255
185 213 255
185 213 255
185 213 255
185 213 255
185 213 255
185 213 255
185 213 255
185 213 255
185 213 255
185 213 255
185 213 255
185 213 255
185 213 255
185 213 255
185 213 255
185 213 255
185 213 255
185 213 255
185 213 255
185 213 255
185 213 255
185 213 255
185 213 255
185 213 255
185 213 255
185 213 255
185 213 255
185 213 255
185 213 255
185 213 255
185 213 255
185 213 255
186 214 255
186 214 255
186 214 255
186 214 255
186 214 255
186 214 255
186 214 255
186 214 255
186 214 255
186 214 255
186 214 255
186 214 255
186 214 255
186 214 255
186 214 255
186 214 255
186 214 255
186 214 255
186 214 255
186 213 255
185 213 255
185 213 255
185 213 255
185 213 255
185 213 255
185 213 255
185 213 255
185 213 255
185 213 255
185 213 255
185 213 255
185 213 255
185 213 255
185 213 255
185 213 255
185 213 255
185 213 255
185 213 255
185 213 255
185 213 255
185 213 255
185 213 255
185 213 255
185 213 255
185 213 255
185 213 255
185 213 255
185 213 255
185 213 255
185 213 255
185 213 255
185 213 255
185 213 255
185 213 255
185 213 255
185 213 255
185 213 255
185 213 255
185 213 255
185 213 255
185 213 255
185 213 255
185 213 255
185 213 255
185 213 255
185 213 255
185 213 255
185 213 255
185 213 255
185 213 255
185 213 255
185 213 255
185 213 255
185 213 255
185 213 255
185 213 255
185 213 255
185 213 255
185 213 255
185 213 255
185 213 255
185 213 255
185 213 255
185 213 255
185 213 255
184 213 255
184 213 255
184 213 255
184 213 255
184 213 255
184 213 255
184 213 255
184 213 255
184 213 255
184 213 255
184 213 255
184 213 255
184 213 255
184 213 255
184 213 255
184 213 255
184 213 255
184 213 255
184 213 255
184 213 255
184 213 255
184 213 255
184 213 255
184 213 255
184 213 255
184 213 255
184 213 255
184 213 255
184 213 255
184 213 255
184 213 255
184 213 255
184 213 255
184 213 255
184 213 255
184 213 255
184 213 255
184 213 255
184 213 255
184 213 255
184 213 255
184 213 255
184 213 255
184 213 255
184 213 255
184 213 255
184 212 255
184 213 255
184 212 255
184 212 255
184 212 255
184 213 255
184 212 255
184 212 255
184 212 255
184 212 255
184 212 255
184 212 255
184 212 255
184 212 255
184 212 255
184 212 255
184 212 255
184 212 255
184 212 255
184 212 255
184 212 255
184 212 255
184 212 255
184 212 255
184 212 255
184 212 255
184 212 255
165 194 236
154 184 230
151 183 230
148 181 230
146 180 230
145 179 230
143 178 230
142 177 230
141 176 230
140 176 230
139 175 230
138 175 230
137 174 230
136 174 230
135 173 230
135 173 230
134 172 230
134 172 230
133 172 230
132 171 230
132 171 230
131 171 230
131 170 230
130 170 230
130 170 230
129 170 230
129 169 230
129 169 230
128 169 230
128 169 230
128 169 230
128 169 230
127 168 230
127 168 230
127 168 230
127 168 230
127 168 230
126 168 230
126 168 230
126 168 230
126 168 230
126 167 230
126 168 230
126 168 230
126 168 230
126 167 230
126 168 230
126 167 230
126 168 230
126 168 230
126 168 230
126 168 230
126 168 230
127 168 230
127 168 230
127 168 230
127 168 230
127 168 230
128 168 230
128 169 230
128 169 230
129 169 230
129 169 230
129 169 230
130 170 230
130 170 230
130 170 230
131 170 230
131 171 230
132 171 230
132 171 230
133 172 230
133 172 230
134 172 230
135 173 230
135 173 230
136 174 230
137 174 230
138 175 230
139 175 230
140 176 230
141 176 230
142 177 230
143 178 230
145 179 230
147 180 230
149 181 230
151 182 230
154 184 230
159 188 230
184 212 255
184 212 255
184 212 255
184 212 255
184 212 255
184 212 255
184 212 255
184 212 255
184 212 255
184 212 255
184 212 255
184 212 255
184 212 255
184 212 255
184 212 255
184 212 255
184 212 255
184 212 255
184 212 255
184 212 255
184 212 255
184 212 255
184 212 255
184 213 255
184 213 255
184 213 255
184 213 255
184 213 255
184 213 255
184 213 255
184 213 255
184 213 255
184 213 255
184 213 255
184 213 255
184 213 255
184 213 255
184 213 255
184 213 255
184 213 255
184 213 255
184 213 255
184 213 255
184 213 255
184 213 255
184 213 255
184 213 255
184 213 255
184 213 255
184 213 255
184 213 255
184 213 255
184 213 255
184 213 255
184 213 255
184 213 255
184 213 255
184 213 255
184 213 255
184 213 255
184 213 255
184 213 255
184 213 255
184 213 255
184 213 255
184 213 255
184 213 255
184 213 255
184 213 255
184 213 255
184 213 255
184 213 255
184 213 255
185 213 255
185 213 255
185 213 255
185 213 255
185 213 255
185 213 255
185 213 255
185 213 255
185 213 255
185 213 255
185 213 255
185 213 255
185 213 255
185 213 255
185 213 255
185 213 255
185 213 255
185 213 255
185 213 255
185 213 255
185 213 255
185 213 255
185 213 255
185 213 255
185 213 255
185 213 255
185 213 255
185 213 255
185 213 255
185 213 255
185 213 255
185 213 255
185 213 255
185 213 255
185 213 255
185 213 255
185 213 255
185 213 255
185 213 255
185 213 255
185 213 255
185 213 255
185 213 255
185 213 255
185 213 255
185 213 255
185 213 255
185 213 255
185 213 255
185 213 255
185 213 255
185 213 255
185 213 255
185 213 255
185 213 255
185 213 255
185 213 255
185 213 255
185 213 255
185 213 255
185 213 255
185 213 255
185 213 255
186 214 255
185 213 255
186 214 255
186 214 255
186 214 255
186 214 255
186 214 255
186 214 255
186 214 255
186 214 255
186 214 255
186 214 255
186 214 255
186 214 255
186 214 255
186 214 255
186 214 255
186 214 255
186 214 255
186 214 255
186 214 255
186 214 255
186 214 255
186 214 255
186 214 255
186 214 255
186 214 255
186 214 255
186 214 255
186 214 255
186 214 255
186 214 255
186 214 255
186 214 255
186 214 255
186 214 255
186 214 255
186 214 255
186 214 255
186 214 255
186 214 255
186 214 255
186 214 255
186 214 255
186 214 255
186 214 255
186 214 255
186 214 255
186 214 255
186 214 255
186 214 255
185 213 255
185 213 255
185 213 255
185 213 255
185 213 255
185 213 255
185 213 255
185 213 255
185 213 255
185 213 255
185 213 255
185 213 255
185 213 255
185 213 255
185 213 255
185 213 255
185 213 255
185 213 255
185 213 255
185 213 255
185 213 255
185 213 255
185 213 255
185 213 255
185 213 255
185 213 255
185 213 255
185 213 255
185 213 255
185 213 255
185 213 255
185 213 255
185 213 255
185 213 255
185 213 255
185 213 255
185 213 255
185 213 255
185 213 255
185 213 255
185 213 255
185 213 255
185 213 255
185 213 255
185 213 255
185 213 255
185 213 255
185 213 255
185 213 255
185 213 255
185 213 255
185 213 255
185 213 255
185 213 255
185 213 255
185 213 255
185 213 255
185 213 255
185 213 255
185 213 255
185 213 255
185 213 255
185 213 255
185 213 255
185 213 255
185 213 255
185 213 255
185 213 255
184 213 255
184 213 255
184 213 255
184 213 255
184 213 255
184 213 255
184 213 255
184 213 255
184 213 255
184 213 255
184 213 255
184 213 255
184 213 255
184 213 255
184 213 255
184 213 255
184 213 255
184 213 255
184 213 255
184 213 255
184 213 255
184 213 255
184 213 255
184 213 255
184 213 255
184 213 255
184 213 255
184 213 255
184 213 255
184 213 255
184 213 255
184 213 255
184 213 255
184 213 255
184 213 255
184 213 255
184 213 255
184 213 255
184 213 255
184 213 255
184 213 255
184 213 255
184 213 255
184 213 255
184 213 255
184 213 255
184 213 255
184 213 255
184 213 255
184 213 255
184 213 255
184 213 255
184 213 255
184 213 255
167 195 236
157 186 230
153 184 230
150 182 230
148 181 230
147 180 230
145 179 230
144 178 230
143 178 230
141 177 230
140 176 230
139 176 230
139 175 230
138 175 230
137 174 230
136 174 230
135 173 230
135 173 230
135 173 230
134 172 230
133 172 230
133 172 230
132 171 230
132 171 230
131 171 230
131 171 230
131 170 230
130 170 230
130 170 230
130 170 230
129 170 230
129 169 230
129 169 230
129 169 230
129 169 230
128 169 230
128 169 230
128 169 230
128 169 230
128 169 230
128 168 230
128 169 230
127 168 230
127 168 230
127 168 230
127 168 230
127 168 230
127 168 230
127 168 230
128 168 230
128 168 230
128 169 230
128 169 230
128 169 230
128 169 230
128 169 230
128 169 230
129 169 230
129 169 230
129 169 230
129 169 230
129 170 230
130 170 230
130 170 230
130 170 230
131 170 230
131 171 230
131 171 230
132 171 230
132 171 230
133 172 230
133 172 230
134 172 230
134 173 230
135 173 230
136 173 230
136 174 230
137 174 230
138 175 230
139 175 230
140 176 230
140 176 230
141 177 230
142 177 230
144 178 230
145 179 230
147 180 230
149 181 230
150 182 230
153 184 230
157 186 230
181 209 252
184 213 255
184 213 255
184 213 255
184 213 255
184 213 255
184 213 255
184 213 255
184 213 255
184 213 255
184 213 255
184 213 255
184 213 255
184 213 255
184 213 255
184 213 255
184 213 255
184 213 255
184 213 255
184 213 255
184 213 255
184 213 255
184 213 255
184 213 255
184 213 255
184 213 255
184 213 255
184 213 255
184 213 255
184 213 255
184 213 255
184 213 255
184 213 255
184 213 255
184 213 255
184 213 255
184 213 255
184 213 255
184 213 255
184 213 255
184 213 255
184 213 255
184 213 255
184 213 255
184 213 255
184 213 255
184 213 255
184 213 255
184 213 255
184 213 255
184 213 255
184 213 255
185 213 255
185 213 255
185 213 255
185 213 255
185 213 255
185 213 255
185 213 255
185 213 255
185 213 255
185 213 255
185 213 255
185 213 255
185 213 255
185 213 255
185 213 255
185 213 255
185 213 255
185 213 255
185 213 255
185 213 255
185 213 255
185 213 255
185 213 255
185 213 255
185 213 255
185 213 255
185 213 255
185 213 255
185 213 255
185 213 255
185 213 255
185 213 255
185 213 255
185 213 255
185 213 255
185 213 255
185 213 255
185 213 255
185 213 255
185 213 255
185 213 255
185 213 255
185 213 255
185 213 255
185 213 255
185 213 255
185 213 255
185 213 255
185 213 255
185 213 255
185 213 255
185 213 255
185 213 255
185 213 255
185 213 255
185 213 255
185 213 255
185 213 255
185 213 255
185 213 255
185 213 255
185 213 255
185 213 255
185 213 255
185 213 255
185 213 255
185 213 255
185 213 255
185 213 255
185 213 255
186 214 255
186 214 255
186 214 255
186 214 255
186 214 255
186 214 255
186 214 255
186 214 255
186 214 255
186 214 255
186 214 255
186 214 255
186 214 255
186 214 255
186 214 255
186 214 255
186 214 255
186 214 255
186 214 255
186 214 255
186 214 255
186 214 255
186 214 255
186 214 255
186 214 255
186 214 255
186 214 255
186 214 255
186 214 255
186 214 255
186 214 255
186 214 255
186 214 255
186 214 255
186 214 255
186 214 255
186 214 255
186 214 255
186 214 255
186 214 255
186 214 255
186 214 255
186 214 255
186 214 255
186 214 255
186 214 255
186 214 255
186 214 255
186 214 255
186 214 255
186 214 255
186 214 255
186 214 255
186 214 255
186 214 255
186 214 255
186 214 255
186 214 255
186 214 255
186 214 255
186 214 255
186 214 255
186 214 255
186 214 255
186 214 255
186 214 255
186 214 255
186 214 255
186 214 255
186 214 255
186 214 255
186 214 255
186 214 255
186 214 255
186 214 255
186 214 255
186 214 255
186 214 255
186 214 255
186 214 255
186 214 255
186 214 255
185 213 255
185 213 255
186 214 255
185 213 255
185 213 255
185 213 255
185 213 255
185 213 255
185 213 255
185 213 255
185 213 255
185 213 255
185 213 255
185 213 255
185 213 255
185 213 255
185 213 255
185 213 255
185 213 255
185 213 255
185 213 255
185 213 255
185 213 255
185 213 255
185 213 255
185 213 255
185 213 255
185 213 255
185 213 255
185 213 255
185 213 255
185 213 255
185 213 255
185 213 255
185 213 255
185 213 255
185 213 255
185 213 255
185 213 255
185 213 255
185 213 255
185 213 255
185 213 255
185 213 255
185 213 255
185 213 255
185 213 255
185 213 255
185 213 255
185 213 255
185 213 255
185 213 255
185 213 255
185 213 255
185 213 255
185 213 255
185 213 255
185 213 255
185 213 255
185 213 255
185 213 255
185 213 255
185 213 255
185 213 255
185 213 255
185 213 255
185 213 255
185 213 255
185 213 255
185 213 255
185 213 255
185 213 255
185 213 255
185 213 255
185 213 255
184 213 255
184 213 255
184 213 255
184 213 255
184 213 255
184 213 255
184 213 255
184 213 255
184 213 255
184 213 255
184 213 255
184 213 255
184 213 255
184 213 255
184 213 255
184 213 255
184 213 255
184 213 255
184 213 255
184 213 255
184 213 255
184 213 255
184 213 255
184 213 255
184 213 255
184 213 255
184 213 255
184 213 255
184 213 255
184 213 255
164 192 233
155 185 230
153 184 230
150 182 230
148 181 230
147 180 230
146 179 230
144 179 230
143 178 230
142 177 230
141 177 230
140 176 230
139 176 230
139 175 230
138 175 230
137 174 230
136 174 230
136 174 230
135 173 230
135 173 230
134 173 230
134 172 230
133 172 230
133 172 230
133 172 230
132 171 230
132 171 230
131 171 230
131 171 230
131 171 230
131 170 230
131 170 230
130 170 230
130 170 230
130 170 230
130 170 230
130 170 230
129 170 230
129 170 230
129 169 230
129 169 230
129 170 230
129 169 230
129 169 230
129 169 230
129 169 230
129 169 230
129 169 230
129 169 230
129 169 230
129 169 230
129 169 230
129 169 230
129 169 230
129 170 230
129 170 230
130 170 230
130 170 230
130 170 230
130 170 230
130 170 230
131 170 230
131 171 230
131 171 230
131 171 230
132 171 230
132 171 230
133 172 230
133 172 230
134 172 230
134 172 230
134 173 230
135 173 230
136 173 230
136 174 230
137 174 230
137 174 230
138 175 230
139 175 230
139 176 230
140 176 230
141 177 230
142 177 230
143 178 230
144 179 230
145 179 230
147 180 230
148 181 230
150 182 230
153 183 230
155 185 230
163 191 233
184 213 255
184 213 255
184 213 255
184 213 255
184 213 255
184 213 255
184 213 255
184 213 255
184 213 255
184 213 255
184 213 255
184 213 255
184 213 255
184 213 255
184 213 255
184 213 255
184 213 255
184 213 255
184 213 255
184 213 255
184 213 255
184 213 255
184 213 255
184 213 255
184 213 255
184 213 255
184 213 255
184 213 255
184 213 255
184 213 255
185 213 255
185 213 255
184 213 255
185 213 255
185 213 255
185 213 255
185 213 255
185 213 255
185 213 255
185 213 255
185 213 255
185 213 255
185 213 255
185 213 255
185 213 255
185 213 255
185 213 255
185 213 255
185 213 255
185 213 255
185 213 255
185 213 255
185 213 255
185 213 255
185 213 255
185 213 255
185 213 255
185 213 255
185 213 255
185 213 255
185 213 255
185 213 255
185 213 255
185 213 255
185 213 255
185 213 255
185 213 255
185 213 255
185 213 255
185 213 255
185 213 255
185 213 255
185 213 255
185 213 255
185 213 255
185 213 255
185 213 255
185 213 255
185 213 255
185 213 255
185 213 255
185 213 255
185 213 255
185 213 255
185 213 255
185 213 255
185 213 255
185 213 255
185 213 255
185 213 255
185 213 255
185 213 255
185 213 255
185 213 255
185 213 255
185 213 255
185 213 255
185 213 255
185 213 255
185 213 255
185 213 255
185 213 255
185 213 255
185 213 255
185 213 255
186 214 255
186 214 255
186 214 255
186 214 255
186 214 255
186 214 255
186 214 255
186 214 255
186 214 255
186 214 255
186 214 255
186 214 255
186 214 255
186 214 255
186 214 255
186 214 255
186 214 255
186 214 255
186 214 255
186 214 255
186 214 255
186 214 255
186 214 255
186 214 255
186 214 255
186 214 255
186 214 255
186 214 255
186 214 255
186 214 255
186 214 255
186 214 255
186 214 255
186 214 255
186 214 255
186 214 255
186 214 255
186 214 255
186 214 255
186 214 255
186 214 255
186 214 255
186 214 255
186 214 255
186 214 255
186 214 255
186 214 255
186 214 255
186 214 255
186 214 255
186 214 255
186 214 255
186 214 255
186 214 255
186 214 255
186 214 255
186 214 255
186 214 255
186 214 255
186 214 255
186 214 255
186 214 255
186 214 255
186 214 255
186 214 255
186 214 255
186 214 255
186 214 255
186 214 255
186 214 255
186 214 255
186 214 255
186 214 255
186 214 255
186 214 255
186 214 255
186 214 255
186 214 255
186 214 255
186 214 255
186 214 255
186 214 255
186 214 255
186 214 255
186 214 255
186 214 255
186 214 255
186 214 255
186 214 255
186 214 255
186 214 255
186 214 255
186 214 255
186 214 255
186 214 255
186 214 255
186 214 255
186 214 255
186 214 255
186 214 255
186 214 255
186 214 255
186 214 255
186 214 255
186 214 255
186 214 255
186 214 255
186 214 255
186 214 255
186 214 255
186 214 255
186 214 255
186 214 255
186 214 255
186 214 255
186 214 255
186 214 255
185 213 255
185 213 255
185 213 255
185 213 255
185 213 255
185 213 255
185 213 255
185 213 255
185 213 255
185 213 255
185 213 255
185 213 255
185 213 255
185 213 255
185 213 255
185 213 255
185 213 255
185 213 255
185 213 255
185 213 255
185 213 255
185 213 255
185 213 255
185 213 255
185 213 255
185 213 255
185 213 255
185 213 255
185 213 255
185 213 255
185 213 255
185 213 255
185 213 255
185 213 255
185 213 255
185 213 255
185 213 255
185 213 255
185 213 255
185 213 255
185 213 255
185 213 255
185 213 255
185 213 255
185 213 255
185 213 255
185 213 255
185 213 255
185 213 255
185 213 255
185 213 255
185 213 255
185 213 255
185 213 255
185 213 255
185 213 255
185 213 255
185 213 255
185 213 255
185 213 255
185 213 255
185 213 255
185 213 255
185 213 255
185 213 255
185 213 255
185 213 255
185 213 255
185 213 255
185 213 255
185 213 255
185 213 255
185 213 255
185 213 255
185 213 255
185 213 255
185 213 255
185 213 255
185 213 255
185 213 255
185 213 255
185 213 255
185 213 255
184 213 255
185 213 255
176 204 246
157 186 230
154 185 230
152 183 230
150 182 230
149 181 230
147 180 230
146 180 230
145 179 230
144 178 230
143 178 230
142 177 230
141 177 230
140 176 230
139 176 230
139 175 230
138 175 230
138 175 230
137 174 230
137 174 230
136 174 230
136 173 230
135 173 230
135 173 230
134 173 230
134 172 230
134 172 230
133 172 230
133 172 230
133 172 230
132 171 230
132 171 230
132 171 230
131 171 230
132 171 230
131 171 230
131 171 230
131 170 230
131 170 230
131 170 230
131 170 230
131 170 230
130 170 230
131 170 230
131 170 230
131 170 230
130 170 230
130 170 230
131 170 230
131 170 230
131 170 230
131 170 230
131 170 230
131 170 230
131 170 230
131 170 230
131 171 230
131 171 230
132 171 230
132 171 230
132 171 230
132 171 230
132 171 230
132 171 230
133 172 230
133 172 230
133 172 230
133 172 230
134 172 230
135 173 230
135 173 230
135 173 230
136 173 230
136 174 230
136 174 230
137 174 230
138 174 230
138 175 230
139 175 230
139 176 230
141 176 230
141 177 230
142 177 230
143 178 230
143 178 230
144 179 230
146 179 230
147 180 230
149 181 230
150 182 230
152 183 230
155 185 230
158 187 230
174 201 243
185 213 255
184 213 255
185 213 255
185 213 255
185 213 255
185 213 255
185 213 255
185 213 255
185 213 255
185 213 255
185 213 255
185 213 255
185 213 255
185 213 255
185 213 255
185 213 255
185 213 255
185 213 255
185 213 255
185 213 255
185 213 255
185 213 255
185 213 255
185 213 255
185 213 255
185 213 255
185 213 255
185 213 255
185 213 255
185 213 255
185 213 255
185 213 255
185 213 255
185 213 255
185 213 255
185 213 255
185 213 255
185 213 255
185 213 255
185 213 255
185 213 255
185 213 255
185 213 255
185 213 255
185 213 255
185 213 255
185 213 255
185 213 255
185 213 255
185 213 255
185 213 255
185 213 255
185 213 255
185 213 255
185 213 255
185 213 255
185 213 255
185 213 255
185 213 255
185 213 255
185 213 255
185 213 255
185 213 255
185 213 255
185 213 255
185 213 255
185 213 255
185 213 255
185 213 255
185 213 255
185 213 255
185 213 255
185 213 255
185 213 255
185 213 255
185 213 255
185 213 255
185 213 255
185 213 255
185 213 255
185 213 255
185 213 255
185 213 255
185 213 255
185 213 255
186 214 255
185 213 255
186 214 255
186 214 255
186 214 255
186 214 255
186 214 255
186 214 255
186 214 255
186 214 255
186 214 255
186 214 255
186 214 255
186 214 255
186 214 255
186 214 255
186 214 255
186 214 255
186 214 255
186 214 255
186 214 255
186 214 255
186 214 255
186 214 255
186 214 255
186 214 255
186 214 255
186 214 255
186 214 255
186 214 255
186 214 255
186 214 255
186 214 255
186 214 255
186 214 255
186 214 255
186 214 255
186 214 255
186 214 255
186 214 255
186 214 255
186 214 255
186 214 255
186 214 255
186 214 255
186 214 255
186 214 255
186 214 255
186 214 255
186 214 255
186 214 255
186 214 255
186 214 255
186 214 255
186 214 255
186 214 255
186 214 255
186 214 255
186 214 255
186 214 255
186 214 255
186 214 255
186 214 255
186 214 255
186 214 255
186 214 255
186 214 255
186 214 255
187 214 255
187 214 255
187 214 255
187 214 255
187 214 255
187 214 255
187 214 255
187 214 255
187 214 255
187 214 255
186 214 255
187 214 255
186 214 255
187 214 255
186 214 255
186 214 255
186 214 255
186 214 255
186 214 255
186 214 255
186 214 255
186 214 255
186 214 255
186 214 255
186 214 255
186 214 255
186 214 255
186 214 255
186 214 255
186 214 255
186 214 255
186 214 255
186 214 255
186 214 255
186 214 255
186 214 255
186 214 255
186 214 255
186 214 255
186 214 255
186 214 255
186 214 255
186 214 255
186 214 255
186 214 255
186 214 255
186 214 255
186 214 255
186 214 255
186 214 255
186 214 255
186 214 255
186 214 255
186 214 255
186 214 255
186 214 255
186 214 255
186 214 255
186 214 255
186 214 255
186 214 255
186 214 255
186 214 255
186 214 255
186 214 255
186 214 255
186 214 255
186 214 255
186 214 255
186 214 255
186 214 255
186 214 255
186 214 255
186 214 255
186 214 255
186 214 255
186 214 255
186 214 255
186 214 255
186 214 255
186 214 255
186 214 255
186 214 255
186 214 255
186 214 255
186 214 255
186 214 255
186 214 255
186 214 255
185 213 255
185 213 255
185 213 255
185 213 255
185 213 255
185 213 255
185 213 255
185 213 255
185 213 255
185 213 255
185 213 255
185 213 255
185 213 255
185 213 255
185 213 255
185 213 255
185 213 255
185 213 255
185 213 255
185 213 255
185 213 255
185 213 255
185 213 255
185 213 255
185 213 255
185 213 255
185 213 255
185 213 255
185 213 255
185 213 255
185 213 255
185 213 255
185 213 255
185 213 255
185 213 255
185 213 255
185 213 255
185 213 255
185 213 255
185 213 255
185 213 255
185 213 255
185 213 255
185 213 255
185 213 255
185 213 255
185 213 255
185 213 255
185 213 255
185 213 255
185 213 255
185 213 255
185 213 255
185 213 255
185 213 255
185 213 255
185 213 255
185 213 255
185 213 255
185 213 255
185 213 255
185 213 255
185 213 255
182 210 252
170 198 239
157 186 230
154 185 230
152 183 230
151 182 230
149 181 230
148 181 230
147 180 230
146 179 230
144 179 230
144 178 230
143 178 230
142 177 230
141 177 230
141 176 230
140 176 230
139 176 230
138 175 230
138 175 230
138 174 230
137 174 230
137 174 230
136 174 230
136 174 230
136 174 230
135 173 230
135 173 230
135 173 230
134 172 230
134 172 230
134 172 230
134 172 230
133 172 230
133 172 230
133 172 230
133 172 230
133 172 230
133 172 230
132 171 230
132 171 230
132 171 230
132 171 230
132 171 230
132 171 230
132 171 230
132 171 230
133 171 230
132 171 230
132 171 230
132 171 230
132 171 230
132 171 230
132 171 230
132 171 230
132 171 230
132 171 230
133 172 230
133 172 230
133 172 230
133 172 230
133 172 230
133 172 230
134 172 230
134 172 230
134 172 230
134 173 230
135 173 230
135 173 230
135 173 230
136 173 230
136 173 230
136 174 230
137 174 230
137 174 230
138 175 230
138 175 230
139 175 230
139 176 230
140 176 230
141 176 230
141 177 230
142 177 230
143 178 230
144 178 230
144 179 230
145 179 230
146 180 230
148 181 230
149 181 230
151 182 230
152 183 230
154 184 230
157 186 230
164 192 233
185 213 255
185 213 255
185 213 255
185 213 255
185 213 255
185 213 255
185 213 255
185 213 255
185 213 255
185 213 255
185 213 255
185 213 255
185 213 255
185 213 255
185 213 255
185 213 255
185 213 255
185 213 255
185 213 255
185 213 255
185 213 255
185 213 255
185 213 255
185 213 255
185 213 255
185 213 255
185 213 255
185 213 255
185 213 255
185 213 255
185 213 255
185 213 255
185 213 255
185 213 255
185 213 255
185 213 255
185 213 255
185 213 255
185 213 255
185 213 255
185 213 255
185 213 255
185 213 255
185 213 255
185 213 255
185 213 255
185 213 255
185 213 255
185 213 255
185 213 255
185 213 255
185 213 255
185 213 255
185 213 255
185 213 255
185 213 255
185 213 255
185 213 255
185 213 255
185 213 255
185 213 255
185 213 255
185 213 255
185 213 255
185 213 255
186 214 255
186 214 255
186 214 255
186 214 255
186 214 255
186 214 255
186 214 255
186 214 255
186 214 255
186 214 255
186 214 255
186 214 255
186 214 255
186 214 255
186 214 255
186 214 255
186 214 255
186 214 255
186 214 255
186 214 255
186 214 255
186 214 255
186 214 255
186 214 255
186 214 255
186 214 255
186 214 255
186 214 255
186 214 255
186 214 255
186 214 255
186 214 255
186 214 255
186 214 255
186 214 255
186 214 255
186 214 255
186 214 255
186 214 255
186 214 255
186 214 255
186 214 255
186 214 255
186 214 255
186 214 255
186 214 255
186 214 255
186 214 255
186 214 255
186 214 255
186 214 255
186 214 255
186 214 255
186 214 255
186 214 255
186 214 255
186 214 255
186 214 255
186 214 255
186 214 255
186 214 255
186 214 255
186 214 255
186 214 255
186 214 255
186 214 255
186 214 255
186 214 255
186 214 255
186 214 255
186 214 255
186 214 255
186 214 255
186 214 255
186 214 255
187 214 255
186 214 255
187 214 255
187 214 255
187 214 255
187 214 255
187 214 255
187 214 255
187 214 255
187 214 255
187 214 255
187 214 255
187 214 255
187 214 255
187 214 255
187 214 255
187 214 255
187 214 255
187 214 255
187 214 255
187 214 255
187 214 255
187 214 255
187 214 255
187 214 255
187 214 255
187 214 255
187 214 255
187 214 255
187 214 255
187 214 255
187 214 255
187 214 255
187 214 255
187 214 255
187 214 255
187 214 255
187 214 255
187 214 255
187 214 255
187 214 255
187 214 255
187 214 255
186 214 255
186 214 255
186 214 255
186 214 255
186 214 255
186 214 255
186 214 255
186 214 255
186 214 255
186 214 255
186 214 255
186 214 255
186 214 255
186 214 255
186 214 255
186 214 255
186 214 255
186 214 255
186 214 255
186 214 255
186 214 255
186 214 255
186 214 255
186 214 255
186 214 255
186 214 255
186 214 255
186 214 255
186 214 255
186 214 255
186 214 255
186 214 255
186 214 255
186 214 255
186 214 255
186 214 255
186 214 255
186 214 255
186 214 255
186 214 255
186 214 255
186 214 255
186 214 255
186 214 255
186 214 255
186 214 255
186 214 255
186 214 255
186 214 255
186 214 255
186 214 255
186 214 255
186 214 255
186 214 255
186 214 255
186 214 255
186 214 255
186 214 255
186 214 255
186 214 255
186 214 255
186 214 255
186 214 255
186 214 255
186 214 255
186 214 255
186 214 255
186 214 255
186 214 255
186 214 255
186 214 255
186 214 255
186 214 255
186 214 255
186 214 255
186 214 255
186 214 255
186 214 255
186 214 255
186 214 255
186 214 255
186 214 255
186 214 255
185 213 255
186 213 255
185 213 255
185 213 255
185 213 255
185 213 255
185 213 255
185 213 255
185 213 255
185 213 255
185 213 255
185 213 255
185 213 255
185 213 255
185 213 255
185 213 255
185 213 255
185 213 255
185 213 255
185 213 255
185 213 255
185 213 255
185 213 255
185 213 255
185 213 255
185 213 255
185 213 255
185 213 255
185 213 255
185 213 255
185 213 255
185 213 255
185 213 255
185 213 255
185 213 255
185 213 255
185 213 255
185 213 255
185 213 255
176 204 246
159 187 230
156 186 230
154 184 230
152 183 230
151 182 230
149 181 230
148 181 230
147 180 230
146 180 230
145 179 230
145 179 230
144 178 230
143 178 230
142 177 230
142 177 230
141 176 230
141 176 230
140 176 230
140 176 230
139 175 230
138 175 230
138 175 230
137 174 230
137 174 230
137 174 230
137 174 230
136 174 230
136 174 230
136 174 230
136 173 230
135 173 230
135 173 230
135 173 230
134 173 230
134 173 230
134 173 230
134 173 230
134 172 230
134 172 230
134 172 230
134 172 230
134 172 230
134 172 230
134 172 230
134 172 230
133 172 230
134 172 230
134 172 230
134 172 230
134 172 230
134 172 230
134 172 230
134 172 230
134 172 230
134 172 230
134 172 230
134 172 230
134 173 230
134 173 230
134 173 230
135 173 230
135 173 230
135 173 230
136 173 230
136 173 230
136 173 230
136 174 230
136 174 230
137 174 230
137 174 230
137 174 230
138 175 230
138 175 230
139 175 230
139 175 230
139 176 230
140 176 230
140 176 230
141 177 230
142 177 230
142 177 230
143 178 230
144 178 230
144 179 230
145 179 230
146 180 230
147 180 230
148 181 230
149 182 230
151 182 230
152 183 230
154 184 230
156 186 230
160 188 230
172 199 239
185 213 255
185 213 255
185 213 255
185 213 255
185 213 255
185 213 255
185 213 255
185 213 255
185 213 255
185 213 255
185 213 255
185 213 255
185 213 255
185 213 255
185 213 255
185 213 255
185 213 255
185 213 255
185 213 255
185 213 255
185 213 255
185 213 255
185 213 255
185 213 255
185 213 255
185 213 255
185 213 255
185 213 255
185 213 255
185 213 255
185 213 255
185 213 255
185 213 255
185 213 255
185 213 255
185 213 255
185 213 255
185 213 255
185 213 255
185 213 255
185 213 255
186 214 255
186 214 255
186 214 255
186 214 255
186 214 255
186 214 255
186 214 255
186 214 255
186 214 255
186 214 255
186 214 255
186 214 255
186 214 255
186 214 255
186 214 255
186 214 255
186 214 255
186 214 255
186 214 255
186 214 255
186 214 255
186 214 255
186 214 255
186 214 255
186 214 255
186 214 255
186 214 255
186 214 255
186 214 255
186 214 255
186 214 255
186 214 255
186 214 255
186 214 255
186 214 255
186 214 255
186 214 255
186 214 255
186 214 255
186 214 255
186 214 255
186 214 255
186 214 255
186 214 255
186 214 255
186 214 255
186 214 255
186 214 255
186 214 255
186 214 255
186 214 255
186 214 255
186 214 255
186 214 255
186 214 255
186 214 255
186 214 255
186 214 255
186 214 255
186 214 255
186 214 255
186 214 255
186 214 255
186 214 255
186 214 255
186 214 255
186 214 255
186 214 255
186 214 255
186 214 255
186 214 255
186 214 255
186 214 255
186 214 255
186 214 255
186 214 255
186 214 255
186 214 255
187 214 255
186 214 255
186 214 255
187 214 255
187 214 255
187 214 255
187 214 255
187 214 255
187 214 255
187 214 255
187 214 255
187 214 255
187 214 255
187 214 255
187 214 255
187 214 255
187 214 255
187 214 255
187 214 255
187 214 255
187 214 255
187 214 255
187 214 255
187 214 255
187 214 255
187 214 255
187 214 255
187 214 255
187 214 255
187 214 255
187 214 255
187 214 255
187 214 255
187 214 255
187 214 255
187 214 255
187 214 255
187 214 255
187 214 255
187 214 255
187 214 255
187 214 255
187 214 255
187 214 255
187 214 255
187 214 255
187 214 255
187 214 255
187 214 255
187 214 255
187 214 255
187 214 255
187 214 255
187 214 255
187 214 255
187 214 255
187 214 255
187 214 255
187 214 255
187 214 255
187 214 255
187 214 255
187 214 255
187 214 255
187 214 255
187 214 255
187 214 255
187 214 255
187 214 255
187 214 255
187 214 255
187 214 255
187 214 255
187 214 255
187 214 255
187 214 255
187 214 255
187 214 255
187 214 255
187 214 255
186 214 255
187 214 255
187 214 255
187 214 255
187 214 255
186 214 255
187 214 255
186 214 255
186 214 255
186 214 255
186 214 255
186 214 255
186 214 255
186 214 255
186 214 255
186 214 255
186 214 255
186 214 255
186 214 255
186 214 255
186 214 255
186 214 255
186 214 255
186 214 255
186 214 255
186 214 255
186 214 255
186 214 255
186 214 255
186 214 255
186 214 255
186 214 255
186 214 255
186 214 255
186 214 255
186 214 255
186 214 255
186 214 255
186 214 255
186 214 255
186 214 255
186 214 255
186 214 255
186 214 255
186 214 255
186 214 255
186 214 255
186 214 255
186 214 255
186 214 255
186 214 255
186 214 255
186 214 255
186 214 255
186 214 255
186 214 255
186 214 255
186 214 255
186 214 255
186 214 255
186 214 255
186 214 255
186 214 255
186 214 255
186 214 255
186 214 255
186 214 255
186 214 255
186 214 255
186 214 255
186 214 255
186 214 255
186 214 255
186 214 255
186 214 255
186 214 255
186 214 255
186 214 255
186 214 255
186 214 255
186 214 255
186 214 255
186 214 255
186 214 255
186 214 255
186 214 255
186 214 255
186 214 255
186 214 255
186 214 255
186 214 255
186 214 255
186 214 255
186 214 255
186 214 255
185 213 255
186 213 255
186 214 255
185 213 255
186 214 255
185 213 255
185 213 255
186 214 255
185 213 255
185 213 255
162 189 230
159 187 230
156 185 230
154 185 230
153 184 230
151 183 230
150 182 230
149 181 230
148 181 230
147 180 230
146 180 230
145 179 230
145 179 230
144 178 230
143 178 230
143 178 230
142 177 230
142 177 230
141 177 230
141 176 230
140 176 230
140 176 230
140 176 230
139 175 230
139 175 230
139 175 230
138 175 230
138 175 230
138 175 230
137 174 230
137 174 230
137 174 230
137 174 230
137 174 230
136 174 230
136 174 230
136 174 230
136 174 230
136 173 230
136 173 230
136 173 230
136 173 230
136 173 230
135 173 230
135 173 230
135 173 230
135 173 230
135 173 230
135 173 230
135 173 230
135 173 230
135 173 230
136 173 230
135 173 230
135 173 230
136 173 230
136 173 230
136 173 230
136 174 230
136 174 230
136 174 230
136 174 230
137 174 230
136 174 230
137 174 230
137 174 230
137 174 230
138 174 230
138 175 230
138 175 230
138 175 230
139 175 230
139 175 230
139 176 230
140 176 230
140 176 230
141 176 230
141 177 230
142 177 230
142 177 230
143 178 230
143 178 230
144 178 230
145 179 230
145 179 230
146 180 230
147 180 230
148 181 230
149 181 230
150 182 230
151 183 230
152 183 230
154 184 230
156 186 230
158 187 230
171 198 239
185 213 255
185 213 255
185 213 255
185 213 255
185 213 255
185 213 255
186 214 255
186 214 255
186 214 255
186 214 255
186 214 255
186 214 255
186 214 255
186 214 255
186 214 255
186 214 255
186 214 255
186 214 255
186 214 255
186 214 255
186 214 255
186 214 255
186 214 255
186 214 255
186 214 255
186 214 255
186 214 255
186 214 255
186 214 255
186 214 255
186 214 255
186 214 255
186 214 255
186 214 255
186 214 255
186 214 255
186 214 255
186 214 255
186 214 255
186 214 255
186 214 255
186 214 255
186 214 255
186 214 255
186 214 255
186 214 255
186 214 255
186 214 255
186 214 255
186 214 255
186 214 255
186 214 255
186 214 255
186 214 255
186 214 255
186 214 255
186 214 255
186 214 255
186 214 255
186 214 255
186 214 255
186 214 255
186 214 255
186 214 255
186 214 255
186 214 255
186 214 255
186 214 255
186 214 255
186 214 255
186 214 255
186 214 255
186 214 255
186 214 255
186 214 255
186 214 255
186 214 255
186 214 255
186 214 255
186 214 255
186 214 255
186 214 255
186 214 255
186 214 255
186 214 255
186 214 255
186 214 255
186 214 255
186 214 255
186 214 255
186 214 255
186 214 255
186 214 255
186 214 255
186 214 255
186 214 255
186 214 255
186 214 255
186 214 255
187 214 255
187 214 255
186 214 255
187 214 255
187 214 255
187 214 255
187 214 255
187 214 255
187 214 255
187 214 255
187 214 255
187 214 255
187 214 255
187 214 255
187 214 255
187 214 255
187 214 255
187 214 255
187 214 255
187 214 255
187 214 255
187 214 255
187 214 255
187 214 255
187 214 255
187 214 255
187 214 255
187 214 255
187 214 255
187 214 255
187 214 255
187 214 255
187 214 255
187 214 255
187 214 255
187 214 255
187 214 255
187 214 255
187 214 255
187 214 255
187 214 255
187 214 255
187 214 255
187 214 255
187 214 255
187 214 255
187 214 255
187 214 255
187 214 255
187 214 255
187 214 255
187 214 255
187 214 255
187 215 255
187 215 255
187 215 255
187 215 255
187 215 255
187 215 255
187 215 255
187 215 255
187 215 255
187 215 255
187 215 255
187 215 255
187 215 255
187 214 255
187 214 255
187 215 255
187 214 255
187 214 255
187 214 255
187 214 255
187 214 255
187 214 255
187 214 255
187 214 255
187 214 255
187 214 255
187 214 255
187 214 255
187 214 255
187 214 255
187 214 255
187 214 255
187 214 255
187 214 255
187 214 255
187 214 255
187 214 255
187 214 255
187 214 255
187 214 255
187 214 255
187 214 255
187 214 255
187 214 255
187 214 255
187 214 255
187 214 255
187 214 255
187 214 255
187 214 255
187 214 255
187 214 255
187 214 255
187 214 255
187 214 255
187 214 255
187 214 255
187 214 255
187 214 255
187 214 255
187 214 255
187 214 255
187 214 255
187 214 255
187 214 255
187 214 255
187 214 255
187 214 255
187 214 255
187 214 255
187 214 255
187 214 255
187 214 255
187 214 255
186 214 255
186 214 255
187 214 255
186 214 255
186 214 255
186 214 255
186 214 255
186 214 255
186 214 255
186 214 255
186 214 255
186 214 255
186 214 255
186 214 255
186 214 255
186 214 255
186 214 255
186 214 255
186 214 255
186 214 255
186 214 255
186 214 255
186 214 255
186 214 255
186 214 255
186 214 255
186 214 255
186 214 255
186 214 255
186 214 255
186 214 255
186 214 255
186 214 255
186 214 255
186 214 255
186 214 255
186 214 255
186 214 255
186 214 255
186 214 255
186 214 255
186 214 255
186 214 255
186 214 255
186 214 255
186 214 255
186 214 255
186 214 255
186 214 255
186 214 255
186 214 255
186 214 255
186 214 255
186 214 255
186 214 255
186 214 255
186 214 255
186 214 255
186 214 255
186 214 255
186 214 255
186 214 255
186 214 255
186 214 255
186 214 255
186 214 255
186 214 255
186 214 255
186 214 255
186 214 255
186 214 255
186 214 255
186 214 255
186 214 255
186 214 255
186 214 255
186 214 255
183 211 252
162 189 230
158 187 230
156 186 230
154 185 230
153 184 230
152 183 230
150 182 230
150 182 230
149 181 230
148 181 230
147 180 230
146 180 230
146 179 230
145 179 230
145 179 230
144 178 230
143 178 230
143 178 230
143 177 230
142 177 230
142 177 230
141 177 230
141 176 230
141 176 230
140 176 230
140 176 230
140 176 230
139 176 230
140 176 230
139 175 230
139 175 230
138 175 230
139 175 230
138 175 230
138 175 230
138 175 230
138 175 230
138 175 230
138 174 230
137 174 230
137 174 230
137 174 230
137 174 230
137 174 230
137 174 230
137 174 230
137 174 230
137 174 230
137 174 230
137 174 230
137 174 230
137 174 230
137 174 230
137 174 230
137 174 230
137 174 230
137 174 230
138 175 230
138 175 230
138 175 230
138 175 230
138 175 230
138 175 230
138 175 230
138 175 230
139 175 230
139 175 230
139 175 230
139 176 230
140 176 230
140 176 230
140 176 230
141 176 230
141 176 230
141 177 230
142 177 230
142 177 230
143 178 230
143 178 230
144 178 230
144 178 230
145 179 230
145 179 230
146 179 230
147 180 230
147 180 230
148 181 230
149 181 230
149 182 230
151 182 230
152 183 230
153 184 230
154 184 230
156 186 230
157 186 230
161 189 230
180 208 249
186 214 255
186 214 255
186 214 255
186 214 255
186 214 255
186 214 255
186 214 255
186 214 255
186 214 255
186 214 255
186 214 255
186 214 255
186 214 255
186 214 255
186 214 255
186 214 255
186 214 255
186 214 255
186 214 255
186 214 255
186 214 255
186 214 255
186 214 255
186 214 255
186 214 255
186 214 255
186 214 255
186 214 255
186 214 255
186 214 255
186 214 255
186 214 255
186 214 255
186 214 255
186 214 255
186 214 255
186 214 255
186 214 255
186 214 255
186 214 255
186 214 255
186 214 255
186 214 255
186 214 255
186 214 255
186 214 255
186 214 255
186 214 255
186 214 255
186 214 255
186 214 255
186 214 255
186 214 255
186 214 255
186 214 255
186 214 255
186 214 255
186 214 255
186 214 255
186 214 255
186 214 255
186 214 255
186 214 255
186 214 255
186 214 255
186 214 255
186 214 255
186 214 255
186 214 255
186 214 255
186 214 255
187 214 255
186 214 255
186 214 255
186 214 255
187 214 255
186 214 255
187 214 255
186 214 255
187 214 255
186 214 255
187 214 255
187 214 255
187 214 255
187 214 255
187 214 255
187 214 255
187 214 255
187 214 255
187 214 255
187 214 255
187 214 255
187 214 255
187 214 255
187 214 255
187 214 255
187 214 255
187 214 255
187 214 255
187 214 255
187 214 255
187 214 255
187 214 255
187 214 255
187 214 255
187 214 255
187 214 255
187 214 255
187 214 255
187 214 255
187 214 255
187 214 255
187 214 255
187 214 255
187 214 255
187 214 255
187 214 255
187 214 255
187 214 255
187 214 255
187 214 255
187 214 255
187 214 255
187 214 255
187 214 255
187 214 255
187 214 255
187 214 255
187 214 255
187 214 255
187 214 255
187 214 255
187 214 255
187 214 255
187 214 255
187 214 255
187 215 255
187 215 255
187 215 255
187 215 255
187 215 255
187 215 255
187 215 255
187 215 255
187 215 255
187 215 255
187 215 255
187 215 255
187 215 255
187 215 255
187 215 255
188 215 255
188 215 255
188 215 255
188 215 255
187 215 255
187 215 255
188 215 255
188 215 255
187 215 255
187 215 255
187 215 255
187 215 255
187 215 255
187 215 255
187 215 255
187 215 255
187 215 255
187 215 255
187 215 255
187 215 255
187 215 255
187 215 255
187 215 255
187 215 255
187 215 255
187 215 255
187 215 255
187 215 255
187 215 255
187 215 255
187 215 255
187 215 255
187 215 255
187 215 255
187 215 255
187 215 255
187 215 255
187 214 255
187 214 255
187 214 255
187 214 255
187 214 255
187 214 255
187 214 255
187 214 255
187 214 255
187 214 255
187 214 255
187 214 255
187 214 255
187 214 255
187 214 255
187 214 255
187 214 255
187 214 255
187 214 255
187 214 255
187 214 255
187 214 255
187 214 255
187 214 255
187 214 255
187 214 255
187 214 255
187 214 255
187 214 255
187 214 255
187 214 255
187 214 255
187 214 255
187 214 255
187 214 255
187 214 255
187 214 255
187 214 255
187 214 255
187 214 255
187 214 255
187 214 255
187 214 255
187 214 255
187 214 255
187 214 255
187 214 255
187 214 255
187 214 255
187 214 255
187 214 255
187 214 255
187 214 255
187 214 255
187 214 255
187 214 255
187 214 255
187 214 255
187 214 255
187 214 255
187 214 255
187 214 255
186 214 255
187 214 255
186 214 255
186 214 255
187 214 255
186 214 255
186 214 255
186 214 255
186 214 255
186 214 255
186 214 255
186 214 255
186 214 255
186 214 255
186 214 255
186 214 255
186 214 255
186 214 255
186 214 255
186 214 255
186 214 255
186 214 255
186 214 255
186 214 255
186 214 255
186 214 255
186 214 255
186 214 255
186 214 255
186 214 255
186 214 255
186 214 255
186 214 255
186 214 255
186 214 255
186 214 255
186 214 255
186 214 255
186 214 255
186 214 255
186 214 255
186 214 255
186 214 255
186 214 255
186 214 255
186 214 255
186 214 255
186 214 255
186 214 255
186 214 255
186 214 255
186 214 255
178 205 246
161 189 230
158 187 230
156 186 230
155 185 230
153 184 230
152 183 230
151 183 230
151 182 230
150 182 230
149 181 230
148 181 230
147 180 230
147 180 230
146 180 230
146 179 230
145 179 230
145 179 230
144 179 230
144 178 230
144 178 230
143 178 230
143 178 230
142 177 230
142 177 230
142 177 230
142 177 230
141 177 230
141 176 230
141 177 230
141 176 230
141 176 230
140 176 230
140 176 230
140 176 230
140 176 230
139 176 230
139 175 230
139 176 230
139 175 230
139 175 230
139 175 230
139 175 230
139 175 230
139 175 230
139 175 230
138 175 230
139 175 230
138 175 230
139 175 230
139 175 230
139 175 230
139 175 230
139 175 230
139 175 230
139 175 230
139 175 230
139 175 230
139 175 230
139 175 230
139 176 230
139 175 230
139 176 230
140 176 230
140 176 230
140 176 230
141 176 230
140 176 230
141 176 230
141 176 230
141 177 230
142 177 230
142 177 230
142 177 230
142 177 230
143 178 230
143 178 230
144 178 230
144 178 230
144 178 230
145 179 230
146 179 230
145 179 230
146 180 230
147 180 230
147 180 230
148 181 230
149 181 230
149 182 230
150 182 230
151 183 230
152 183 230
154 184 230
155 185 230
156 186 230
158 187 230
161 189 230
172 199 239
186 214 255
186 214 255
186 214 255
186 214 255
186 214 255
186 214 255
186 214 255
186 214 255
186 214 255
186 214 255
186 214 255
186 214 255
186 214 255
186 214 255
186 214 255
186 214 255
186 214 255
186 214 255
186 214 255
186 214 255
186 214 255
186 214 255
186 214 255
186 214 255
186 214 255
186 214 255
186 214 255
186 214 255
186 214 255
186 214 255
186 214 255
186 214 255
186 214 255
186 214 255
186 214 255
186 214 255
186 214 255
186 214 255
186 214 255
186 214 255
186 214 255
186 214 255
186 214 255
186 214 255
186 214 255
186 214 255
186 214 255
186 214 255
186 214 255
186 214 255
186 214 255
187 214 255
187 214 255
187 214 255
187 214 255
187 214 255
187 214 255
187 214 255
187 214 255
187 214 255
187 214 255
187 214 255
187 214 255
187 214 255
187 214 255
187 214 255
187 214 255
187 214 255
187 214 255
187 214 255
187 214 255
187 214 255
187 214 255
187 214 255
187 214 255
187 214 255
187 214 255
187 214 255
187 214 255
187 214 255
187 214 255
187 214 255
187 214 255
187 214 255
187 214 255
187 214 255
187 214 255
187 214 255
187 214 255
187 214 255
187 214 255
187 214 255
187 214 255
187 214 255
187 214 255
187 214 255
187 214 255
187 214 255
187 214 255
187 214 255
187 214 255
187 214 255
187 214 255
187 214 255
187 214 255
187 214 255
187 214 255
187 214 255
187 214 255
187 214 255
187 214 255
187 214 255
187 214 255
187 214 255
187 214 255
187 214 255
187 215 255
187 215 255
187 215 255
187 215 255
187 215 255
187 215 255
187 215 255
187 215 255
187 215 255
187 215 255
187 215 255
187 215 255
187 215 255
187 215 255
187 215 255
187 215 255
187 215 255
187 215 255
187 215 255
187 215 255
187 215 255
187 215 255
187 215 255
187 215 255
187 215 255
187 215 255
187 215 255
187 215 255
187 215 255
187 215 255
187 215 255
188 215 255
188 215 255
188 215 255
188 215 255
188 215 255
188 215 255
188 215 255
188 215 255
188 215 255
188 215 255
188 215 255
188 215 255
188 215 255
188 215 255
188 215 255
188 215 255
188 215 255
188 215 255
188 215 255
188 215 255
188 215 255
188 215 255
188 215 255
188 215 255
188 215 255
188 215 255
188 215 255
188 215 255
188 215 255
188 215 255
188 215 255
188 215 255
187 215 255
187 215 255
187 215 255
187 215 255
187 215 255
187 215 255
187 215 255
187 215 255
187 215 255
187 215 255
187 215 255
187 215 255
187 215 255
187 215 255
187 215 255
187 215 255
187 215 255
187 215 255
187 215 255
187 215 255
187 215 255
187 215 255
187 215 255
187 215 255
187 215 255
187 215 255
187 215 255
187 215 255
187 215 255
187 215 255
187 215 255
187 215 255
187 214 255
187 214 255
187 214 255
187 214 255
187 214 255
187 214 255
187 214 255
187 214 255
187 214 255
187 214 255
187 214 255
187 214 255
187 214 255
187 214 255
187 214 255
187 214 255
187 214 255
187 214 255
187 214 255
187 214 255
187 214 255
187 214 255
187 214 255
187 214 255
187 214 255
187 214 255
187 214 255
187 214 255
187 214 255
187 214 255
187 214 255
187 214 255
187 214 255
187 214 255
187 214 255
187 214 255
187 214 255
187 214 255
187 214 255
187 214 255
187 214 255
187 214 255
187 214 255
187 214 255
187 214 255
187 214 255
187 214 255
187 214 255
187 214 255
187 214 255
187 214 255
187 214 255
187 214 255
187 214 255
187 214 255
187 214 255
187 214 255
187 214 255
187 214 255
187 214 255
187 214 255
187 214 255
187 214 255
187 214 255
187 214 255
187 214 255
187 214 255
187 214 255
187 214 255
187 214 255
187 214 255
186 214 255
187 214 255
187 214 255
187 214 255
186 214 255
186 214 255
186 214 255
186 214 255
186 214 255
186 214 255
186 214 255
186 214 255
186 214 255
186 214 255
186 214 255
186 214 255
186 214 255
186 214 255
186 214 255
186 214 255
166 193 233
160 188 230
158 187 230
156 186 230
155 185 230
154 184 230
153 184 230
152 183 230
151 183 230
151 182 230
150 182 230
149 182 230
149 181 230
148 181 230
147 180 230
147 180 230
146 180 230
146 180 230
146 179 230
145 179 230
145 179 230
145 179 230
144 178 230
144 178 230
144 178 230
144 178 230
143 178 230
143 178 230
143 177 230
142 177 230
142 177 230
142 177 230
142 177 230
141 177 230
141 177 230
141 177 230
141 177 230
141 177 230
141 176 230
141 176 230
140 176 230
141 176 230
140 176 230
140 176 230
141 176 230
141 176 230
140 176 230
140 176 230
140 176 230
140 176 230
140 176 230
140 176 230
140 176 230
140 176 230
140 176 230
141 176 230
141 176 230
141 176 230
141 177 230
141 177 230
141 177 230
141 177 230
142 177 230
141 177 230
141 177 230
141 177 230
142 177 230
142 177 230
142 177 230
143 177 230
143 178 230
143 178 230
143 178 230
143 178 230
144 178 230
144 178 230
145 179 230
145 179 230
145 179 230
146 179 230
146 180 230
147 180 230
147 180 230
147 180 230
148 181 230
149 181 230
149 181 230
150 182 230
150 182 230
151 183 230
152 183 230
153 184 230
154 184 230
155 185 230
157 186 230
158 187 230
160 188 230
167 193 233
186 214 255
186 214 255
186 214 255
186 214 255
186 214 255
186 214 255
186 214 255
186 214 255
186 214 255
186 214 255
186 214 255
186 214 255
186 214 255
187 214 255
186 214 255
187 214 255
186 214 255
187 214 255
187 214 255
187 214 255
186 214 255
187 214 255
187 214 255
187 214 255
187 214 255
187 214 255
187 214 255
187 214 255
187 214 255
187 214 255
187 214 255
187 214 255
187 214 255
187 214 255
187 214 255
187 214 255
187 214 255
187 214 255
187 214 255
187 214 255
187 214 255
187 214 255
187 214 255
187 214 255
187 214 255
187 214 255
187 214 255
187 214 255
187 214 255
187 214 255
187 214 255
187 214 255
187 214 255
187 214 255
187 214 255
187 214 255
187 214 255
187 214 255
187 214 255
187 214 255
187 214 255
187 214 255
187 214 255
187 214 255
187 214 255
187 214 255
187 214 255
187 214 255
187 214 255
187 214 255
187 214 255
187 214 255
187 214 255
187 214 255
187 214 255
187 214 255
187 214 255
187 214 255
187 214 255
187 214 255
187 214 255
187 214 255
187 214 255
187 214 255
187 214 255
187 214 255
187 214 255
187 214 255
187 214 255
187 215 255
187 215 255
187 215 255
187 215 255
187 215 255
187 215 255
187 215 255
187 215 255
187 215 255
187 215 255
187 215 255
187 215 255
187 215 255
187 215 255
187 215 255
187 215 255
187 215 255
187 215 255
187 215 255
187 215 255
187 215 255
187 215 255
187 215 255
187 215 255
187 215 255
187 215 255
187 215 255
187 215 255
187 215 255
187 215 255
187 215 255
187 215 255
188 215 255
188 215 255
188 215 255
188 215 255
188 215 255
188 215 255
188 215 255
187 215 255
188 215 255
188 215 255
188 215 255
188 215 255
188 215 255
188 215 255
188 215 255
188 215 255
188 215 255
188 215 255
188 215 255
188 215 255
188 215 255
188 215 255
188 215 255
188 215 255
188 215 255
188 215 255
188 215 255
188 215 255
188 215 255
188 215 255
188 215 255
188 215 255
188 215 255
188 215 255
188 215 255
188 215 255
188 215 255
188 215 255
188 215 255
188 215 255
188 215 255
188 215 255
188 215 255
188 215 255
188 215 255
188 215 255
188 215 255
188 215 255
188 215 255
188 215 255
188 215 255
188 215 255
188 215 255
188 215 255
188 215 255
188 215 255
188 215 255
188 215 255
188 215 255
188 215 255
188 215 255
188 215 255
188 215 255
188 215 255
188 215 255
188 215 255
188 215 255
188 215 255
188 215 255
188 215 255
188 215 255
188 215 255
188 215 255
188 215 255
188 215 255
188 215 255
188 215 255
188 215 255
188 215 255
188 215 255
188 215 255
188 215 255
188 215 255
187 215 255
187 215 255
187 215 255
187 215 255
187 215 255
187 215 255
187 215 255
187 215 255
187 215 255
187 215 255
187 215 255
187 215 255
187 215 255
187 215 255
187 215 255
187 215 255
187 215 255
187 215 255
187 215 255
187 215 255
187 215 255
187 215 255
187 215 255
187 215 255
187 215 255
187 215 255
187 215 255
187 215 255
187 215 255
187 215 255
187 215 255
187 215 255
187 215 255
187 214 255
187 214 255
187 214 255
187 214 255
187 214 255
187 214 255
187 214 255
187 214 255
187 214 255
187 214 255
187 214 255
187 214 255
187 214 255
187 214 255
187 214 255
187 214 255
187 214 255
187 214 255
187 214 255
187 214 255
187 214 255
187 214 255
187 214 255
187 214 255
187 214 255
187 214 255
187 214 255
187 214 255
187 214 255
187 214 255
187 214 255
187 214 255
187 214 255
187 214 255
187 214 255
187 214 255
187 214 255
187 214 255
187 214 255
187 214 255
187 214 255
187 214 255
187 214 255
187 214 255
187 214 255
187 214 255
187 214 255
187 214 255
187 214 255
187 214 255
187 214 255
187 214 255
187 214 255
187 214 255
187 214 255
187 214 255
187 214 255
187 214 255
187 214 255
187 214 255
187 214 255
187 214 255
187 214 255
187 214 255
179 206 246
162 189 230
161 188 230
159 187 230
157 186 230
156 185 230
155 185 230
154 184 230
153 184 230
152 183 230
152 183 230
151 182 230
150 182 230
150 182 230
149 182 230
149 181 230
148 181 230
148 181 230
148 181 230
147 180 230
147 180 230
146 180 230
146 180 230
146 179 230
146 179 230
146 179 230
145 179 230
145 179 230
144 178 230
144 178 230
144 178 230
144 178 230
144 178 230
143 178 230
143 178 230
143 178 230
143 178 230
143 178 230
143 178 230
143 178 230
142 177 230
142 177 230
142 177 230
142 177 230
142 177 230
142 177 230
142 177 230
142 177 230
142 177 230
142 177 230
142 177 230
142 177 230
142 177 230
142 177 230
142 177 230
142 177 230
142 177 230
142 177 230
142 177 230
143 178 230
143 178 230
142 177 230
143 178 230
143 178 230
143 178 230
143 178 230
143 178 230
144 178 230
144 178 230
144 178 230
144 178 230
144 178 230
145 179 230
145 179 230
145 179 230
145 179 230
146 180 230
146 180 230
146 180 230
147 180 230
147 180 230
147 180 230
148 181 230
148 181 230
149 181 230
149 182 230
150 182 230
150 182 230
151 183 230
152 183 230
152 183 230
153 184 230
154 184 230
155 185 230
156 186 230
157 186 230
159 187 230
160 188 230
162 189 230
179 206 246
187 214 255
187 214 255
187 214 255
187 214 255
187 214 255
187 214 255
187 214 255
187 214 255
187 214 255
187 214 255
187 214 255
187 214 255
187 214 255
187 214 255
187 214 255
187 214 255
187 214 255
187 214 255
187 214 255
187 214 255
187 214 255
187 214 255
187 214 255
187 214 255
187 214 255
187 214 255
187 214 255
187 214 255
187 214 255
187 214 255
187 214 255
187 214 255
187 214 255
187 214 255
187 214 255
187 214 255
187 214 255
187 214 255
187 214 255
187 214 255
187 214 255
187 214 255
187 214 255
187 214 255
187 214 255
187 214 255
187 214 255
187 214 255
187 214 255
187 214 255
187 214 255
187 214 255
187 214 255
187 214 255
187 214 255
187 214 255
187 214 255
187 214 255
187 214 255
187 214 255
187 214 255
187 215 255
187 214 255
187 215 255
187 214 255
187 215 255
187 215 255
187 215 255
187 215 255
187 215 255
187 215 255
187 215 255
187 215 255
187 215 255
187 215 255
187 215 255
187 215 255
187 215 255
187 215 255
187 215 255
187 215 255
187 215 255
187 215 255
187 215 255
187 215 255
187 215 255
187 215 255
187 215 255
187 215 255
187 215 255
188 215 255
187 215 255
187 215 255
187 215 255
188 215 255
187 215 255
188 215 255
187 215 255
188 215 255
188 215 255
188 215 255
188 215 255
188 215 255
188 215 255
188 215 255
188 215 255
188 215 255
188 215 255
188 215 255
188 215 255
188 215 255
188 215 255
188 215 255
188 215 255
188 215 255
188 215 255
188 215 255
188 215 255
188 215 255
188 215 255
188 215 255
188 215 255
188 215 255
188 215 255
188 215 255
188 215 255
188 215 255
188 215 255
188 215 255
188 215 255
188 215 255
188 215 255
188 215 255
188 215 255
188 215 255
188 215 255
188 215 255
188 215 255
188 215 255
188 215 255
188 215 255
188 215 255
188 215 255
188 215 255
188 215 255
188 215 255
188 215 255
188 215 255
188 215 255
188 215 255
188 215 255
188 215 255
188 215 255
188 215 255
188 215 255
188 215 255
188 215 255
188 215 255
188 215 255
188 215 255
188 215 255
188 215 255
188 215 255
188 215 255
188 215 255
188 215 255
188 215 255
188 215 255
188 215 255
188 215 255
188 215 255
188 215 255
188 215 255
188 215 255
188 215 255
188 215 255
188 215 255
188 215 255
188 215 255
188 215 255
188 215 255
188 215 255
188 215 255
188 215 255
188 215 255
188 215 255
188 215 255
188 215 255
188 215 255
188 215 255
188 215 255
188 215 255
188 215 255
188 215 255
188 215 255
188 215 255
188 215 255
188 215 255
188 215 255
188 215 255
188 215 255
188 215 255
188 215 255
188 215 255
188 215 255
188 215 255
188 215 255
188 215 255
188 215 255
188 215 255
188 215 255
188 215 255
188 215 255
188 215 255
188 215 255
188 215 255
188 215 255
188 215 255
188 215 255
188 215 255
188 215 255
188 215 255
188 215 255
188 215 255
188 215 255
188 215 255
188 215 255
187 215 255
188 215 255
187 215 255
188 215 255
187 215 255
187 215 255
187 215 255
187 215 255
188 215 255
187 215 255
187 215 255
187 215 255
187 215 255
187 215 255
187 215 255
187 215 255
187 215 255
187 215 255
187 215 255
187 215 255
187 215 255
187 215 255
187 215 255
187 215 255
187 215 255
187 215 255
187 215 255
187 215 255
187 215 255
187 215 255
187 215 255
187 215 255
187 215 255
187 215 255
187 215 255
187 215 255
187 215 255
187 215 255
187 215 255
187 215 255
187 215 255
187 215 255
187 215 255
187 215 255
187 215 255
187 215 255
187 215 255
187 214 255
187 214 255
187 215 255
187 214 255
187 214 255
187 214 255
187 214 255
187 214 255
187 214 255
187 214 255
187 214 255
187 214 255
187 214 255
187 214 255
187 214 255
187 214 255
187 214 255
187 214 255
187 214 255
187 214 255
187 214 255
187 214 255
187 214 255
187 214 255
187 214 255
187 214 255
176 203 243
162 189 230
161 188 230
159 187 230
158 187 230
157 186 230
156 185 230
155 185 230
154 184 230
153 184 230
153 183 230
152 183 230
152 183 230
151 183 230
150 182 230
150 182 230
150 182 230
149 182 230
149 181 230
149 181 230
148 181 230
148 181 230
148 181 230
147 180 230
147 180 230
147 180 230
147 180 230
146 180 230
146 179 230
146 179 230
145 179 230
146 179 230
145 179 230
145 179 230
145 179 230
145 179 230
144 179 230
144 179 230
144 179 230
145 179 230
145 179 230
144 179 230
144 178 230
144 178 230
144 178 230
144 179 230
144 178 230
144 178 230
144 178 230
144 178 230
144 178 230
144 178 230
144 178 230
144 178 230
144 178 230
144 178 230
144 178 230
145 179 230
144 178 230
144 179 230
145 179 230
145 179 230
145 179 230
145 179 230
145 179 230
145 179 230
145 179 230
145 179 230
145 179 230
145 179 230
146 180 230
146 179 230
146 180 230
146 180 230
147 180 230
147 180 230
147 180 230
147 180 230
148 181 230
148 181 230
149 181 230
149 181 230
149 182 230
149 182 230
150 182 230
151 182 230
151 183 230
152 183 230
152 183 230
153 184 230
154 184 230
154 184 230
155 185 230
156 185 230
157 186 230
158 187 230
159 187 230
160 188 230
163 190 230
176 203 243
187 214 255
187 214 255
187 214 255
187 214 255
187 214 255
187 214 255
187 214 255
187 214 255
187 214 255
187 214 255
187 214 255
187 214 255
187 214 255
187 214 255
187 214 255
187 214 255
187 214 255
187 214 255
187 214 255
187 214 255
187 214 255
187 214 255
187 214 255
187 214 255
187 214 255
187 214 255
187 214 255
187 214 255
187 214 255
187 214 255
187 214 255
187 215 255
187 215 255
187 215 255
187 215 255
187 215 255
187 215 255
187 215 255
187 215 255
187 215 255
187 215 255
187 215 255
187 215 255
187 215 255
187 215 255
187 215 255
187 215 255
187 215 255
187 215 255
187 215 255
187 215 255
187 215 255
187 215 255
187 215 255
187 215 255
187 215 255
187 215 255
187 215 255
187 215 255
187 215 255
187 215 255
187 215 255
188 215 255
187 215 255
187 215 255
187 215 255
187 215 255
188 215 255
188 215 255
187 215 255
188 215 255
188 215 255
188 215 255
188 215 255
188 215 255
188 215 255
188 215 255
188 215 255
188 215 255
188 215 255
188 215 255
188 215 255
188 215 255
188 215 255
188 215 255
188 215 255
188 215 255
188 215 255
188 215 255
188 215 255
188 215 255
188 215 255
188 215 255
188 215 255
188 215 255
188 215 255
188 215 255
188 215 255
188 215 255
188 215 255
188 215 255
188 215 255
188 215 255
188 215 255
188 215 255
188 215 255
188 215 255
188 215 255
188 215 255
188 215 255
188 215 255
188 215 255
188 215 255
188 215 255
188 215 255
188 215 255
188 215 255
188 215 255
188 215 255
188 215 255
188 215 255
188 215 255
188 215 255
188 215 255
188 215 255
188 215 255
188 215 255
188 215 255
188 215 255
188 215 255
188 215 255
188 215 255
188 215 255
188 215 255
188 215 255
188 215 255
188 215 255
188 215 255
188 215 255
188 215 255
188 215 255
188 215 255
188 215 255
188 215 255
188 215 255
188 215 255
188 215 255
188 215 255
188 215 255
188 215 255
188 215 255
188 215 255
188 215 255
188 215 255
188 215 255
188 215 255
188 215 255
188 215 255
188 215 255
188 215 255
188 215 255
188 215 255
188 215 255
188 215 255
188 215 255
188 215 255
188 215 255
188 215 255
188 215 255
188 215 255
188 215 255
188 215 255
188 215 255
188 215 255
188 215 255
188 215 255
188 215 255
188 215 255
188 215 255
188 215 255
188 215 255
188 215 255
188 215 255
188 215 255
188 215 255
188 215 255
188 215 255
188 215 255
188 215 255
188 215 255
188 215 255
188 215 255
188 215 255
188 215 255
188 215 255
188 215 255
188 215 255
188 215 255
188 215 255
188 215 255
188 215 255
188 215 255
188 215 255
188 215 255
188 215 255
188 215 255
188 215 255
188 215 255
188 215 255
188 215 255
188 215 255
188 215 255
188 215 255
188 215 255
188 215 255
188 215 255
188 215 255
188 215 255
188 215 255
188 215 255
188 215 255
188 215 255
188 215 255
188 215 255
188 215 255
188 215 255
188 215 255
188 215 255
188 215 255
188 215 255
188 215 255
188 215 255
188 215 255
188 215 255
188 215 255
188 215 255
188 215 255
188 215 255
188 215 255
188 215 255
188 215 255
188 215 255
188 215 255
188 215 255
188 215 255
188 215 255
188 215 255
188 215 255
188 215 255
188 215 255
188 215 255
188 215 255
188 215 255
188 215 255
188 215 255
188 215 255
188 215 255
188 215 255
188 215 255
188 215 255
188 215 255
188 215 255
188 215 255
188 215 255
188 215 255
188 215 255
188 215 255
188 215 255
188 215 255
187 215 255
187 215 255
187 215 255
187 215 255
187 215 255
187 215 255
187 215 255
187 215 255
187 215 255
187 215 255
187 215 255
187 215 255
187 215 255
187 215 255
187 215 255
187 215 255
187 215 255
187 215 255
187 215 255
187 215 255
187 215 255
187 215 255
187 215 255
187 215 255
187 215 255
187 215 255
187 215 255
187 215 255
187 215 255
187 215 255
187 215 255
171 197 236
163 189 230
161 188 230
159 188 230
158 187 230
157 186 230
156 186 230
156 185 230
155 185 230
154 185 230
154 184 230
153 184 230
153 184 230
153 184 230
152 183 230
151 183 230
151 183 230
151 182 230
151 182 230
150 182 230
150 182 230
149 181 230
149 181 230
149 181 230
149 181 230
148 181 230
148 181 230
148 181 230
148 181 230
148 181 230
147 180 230
147 180 230
147 180 230
147 180 230
147 180 230
147 180 230
147 180 230
147 180 230
146 180 230
146 180 230
146 180 230
146 180 230
146 180 230
146 180 230
146 179 230
146 179 230
146 180 230
146 179 230
146 179 230
146 179 230
146 180 230
146 179 230
146 179 230
146 179 230
146 180 230
146 180 230
146 180 230
146 179 230
146 180 230
146 180 230
147 180 230
146 180 230
147 180 230
147 180 230
147 180 230
147 180 230
147 180 230
147 180 230
148 181 230
147 180 230
148 181 230
147 180 230
148 181 230
148 181 230
148 181 230
149 181 230
149 181 230
149 181 230
149 182 230
150 182 230
150 182 230
150 182 230
151 182 230
151 183 230
152 183 230
152 183 230
152 183 230
153 184 230
153 184 230
154 184 230
155 185 230
155 185 230
156 185 230
157 186 230
157 186 230
158 187 230
160 188 230
161 188 230
162 189 230
165 191 230
187 215 255
187 215 255
187 215 255
187 215 255
187 215 255
187 215 255
187 215 255
187 215 255
187 215 255
187 215 255
187 215 255
187 215 255
187 215 255
187 215 255
187 215 255
187 215 255
187 215 255
187 215 255
187 215 255
187 215 255
187 215 255
187 215 255
187 215 255
187 215 255
187 215 255
187 215 255
187 215 255
187 215 255
187 215 255
188 215 255
187 215 255
187 215 255
188 215 255
188 215 255
188 215 255
188 215 255
188 215 255
188 215 255
188 215 255
188 215 255
188 215 255
188 215 255
188 215 255
188 215 255
188 215 255
188 215 255
188 215 255
188 215 255
188 215 255
188 215 255
188 215 255
188 215 255
188 215 255
188 215 255
188 215 255
188 215 255
188 215 255
188 215 255
188 215 255
188 215 255
188 215 255
188 215 255
188 215 255
188 215 255
188 215 255
188 215 255
188 215 255
188 215 255
188 215 255
188 215 255
188 215 255
188 215 255
188 215 255
188 215 255
188 215 255
188 215 255
188 215 255
188 215 255
188 215 255
188 215 255
188 215 255
188 215 255
188 215 255
188 215 255
188 215 255
188 215 255
188 215 255
188 215 255
188 215 255
188 215 255
188 215 255
188 215 255
188 215 255
188 215 255
188 215 255
188 215 255
188 215 255
188 215 255
188 215 255
188 215 255
188 215 255
188 215 255
188 215 255
188 215 255
188 215 255
188 215 255
188 215 255
188 215 255
188 215 255
188 215 255
188 215 255
188 215 255
188 215 255
188 215 255
188 215 255
188 215 255
188 215 255
188 215 255
188 215 255
188 215 255
188 215 255
188 215 255
188 215 255
188 215 255
188 215 255
188 215 255
188 215 255
188 215 255
188 215 255
188 215 255
188 215 255
188 215 255
188 215 255
188 215 255
188 215 255
188 215 255
188 215 255
188 215 255
188 215 255
188 215 255
188 215 255
188 215 255
188 215 255
188 215 255
188 215 255
188 215 255
188 215 255
188 215 255
188 215 255
188 215 255
189 215 255
189 215 255
189 215 255
189 215 255
189 215 255
189 215 255
189 215 255
189 215 255
189 215 255
189 215 255
189 215 255
189 215 255
189 215 255
189 215 255
189 215 255
189 215 255
189 215 255
189 215 255
189 215 255
189 215 255
189 215 255
189 215 255
189 215 255
189 215 255
189 215 255
188 215 255
188 215 255
188 215 255
188 215 255
188 215 255
188 215 255
188 215 255
188 215 255
188 215 255
188 215 255
188 215 255
188 215 255
188 215 255
188 215 255
188 215 255
188 215 255
188 215 255
188 215 255
188 215 255
188 215 255
188 215 255
188 215 255
188 215 255
188 215 255
188 215 255
188 215 255
188 215 255
188 215 255
188 215 255
188 215 255
188 215 255
188 215 255
188 215 255
188 215 255
188 215 255
188 215 255
188 215 255
188 215 255
188 215 255
188 215 255
188 215 255
188 215 255
188 215 255
188 215 255
188 215 255
188 215 255
188 215 255
188 215 255
188 215 255
188 215 255
188 215 255
188 215 255
188 215 255
188 215 255
188 215 255
188 215 255
188 215 255
188 215 255
188 215 255
188 215 255
188 215 255
188 215 255
188 215 255
188 215 255
188 215 255
188 215 255
188 215 255
188 215 255
188 215 255
188 215 255
188 215 255
188 215 255
188 215 255
188 215 255
188 215 255
188 215 255
188 215 255
188 215 255
188 215 255
188 215 255
188 215 255
188 215 255
188 215 255
188 215 255
188 215 255
188 215 255
188 215 255
188 215 255
188 215 255
188 215 255
188 215 255
188 215 255
188 215 255
188 215 255
188 215 255
188 215 255
188 215 255
188 215 255
188 215 255
188 215 255
188 215 255
188 215 255
188 215 255
188 215 255
188 215 255
188 215 255
188 215 255
188 215 255
188 215 255
188 215 255
188 215 255
188 215 255
188 215 255
188 215 255
188 215 255
188 215 255
188 215 255
188 215 255
188 215 255
188 215 255
188 215 255
188 215 255
188 215 255
188 215 255
188 215 255
165 191 230
163 190 230
161 189 230
160 188 230
159 187 230
158 187 230
157 186 230
157 186 230
156 186 230
155 185 230
155 185 230
155 185 230
154 184 230
154 184 230
153 184 230
153 184 230
153 184 230
152 183 230
152 183 230
152 183 230
151 183 230
151 183 230
151 182 230
150 182 230
150 182 230
150 182 230
150 182 230
150 182 230
149 182 230
149 181 230
149 182 230
149 181 230
149 181 230
149 181 230
149 181 230
149 181 230
149 181 230
148 181 230
148 181 230
148 181 230
148 181 230
148 181 230
148 181 230
148 180 230
148 181 230
148 181 230
148 181 230
148 181 230
147 180 230
148 181 230
148 181 230
148 181 230
148 181 230
147 180 230
148 181 230
148 181 230
148 181 230
148 181 230
148 181 230
148 181 230
148 181 230
148 181 230
148 181 230
148 181 230
148 181 230
148 181 230
149 181 230
149 181 230
149 181 230
149 181 230
149 182 230
149 182 230
150 182 230
150 182 230
150 182 230
150 182 230
150 182 230
151 182 230
151 182 230
151 183 230
151 183 230
152 183 230
152 183 230
152 183 230
153 184 230
153 184 230
154 184 230
154 184 230
155 185 230
155 185 230
156 185 230
156 186 230
157 186 230
157 186 230
158 187 230
159 187 230
160 188 230
162 189 230
163 190 230
165 191 230
180 207 246
188 215 255
188 215 255
188 215 255
188 215 255
188 215 255
188 215 255
188 215 255
188 215 255
188 215 255
188 215 255
188 215 255
188 215 255
188 215 255
188 215 255
188 215 255
188 215 255
188 215 255
188 215 255
188 215 255
188 215 255
188 215 255
188 215 255
188 215 255
188 215 255
188 215 255
188 215 255
188 215 255
188 215 255
188 215 255
188 215 255
188 215 255
188 215 255
188 215 255
188 215 255
188 215 255
188 215 255
188 215 255
188 215 255
188 215 255
188 215 255
188 215 255
188 215 255
188 215 255
188 215 255
188 215 255
188 215 255
188 215 255
188 215 255
188 215 255
188 215 255
188 215 255
188 215 255
188 215 255
188 215 255
188 215 255
188 215 255
188 215 255
188 215 255
188 215 255
188 215 255
188 215 255
188 215 255
188 215 255
188 215 255
188 215 255
188 215 255
188 215 255
188 215 255
188 215 255
188 215 255
188 215 255
188 215 255
188 215 255
188 215 255
188 215 255
188 215 255
188 215 255
188 215 255
188 215 255
188 215 255
188 215 255
188 215 255
188 215 255
188 215 255
188 215 255
188 215 255
188 215 255
188 215 255
188 215 255
188 215 255
188 215 255
188 215 255
188 215 255
188 215 255
188 215 255
188 215 255
188 215 255
188 215 255
188 215 255
188 215 255
188 215 255
188 215 255
188 215 255
188 215 255
188 215 255
188 215 255
188 215 255
188 215 255
188 215 255
188 215 255
188 215 255
188 215 255
188 215 255
188 215 255
188 215 255
188 215 255
188 215 255
188 215 255
188 215 255
188 215 255
188 215 255
188 215 255
188 215 255
188 215 255
189 215 255
188 215 255
188 215 255
188 215 255
189 215 255
189 215 255
189 215 255
189 215 255
189 215 255
189 215 255
189 215 255
189 215 255
189 215 255
189 215 255
189 215 255
189 215 255
189 215 255
189 215 255
189 215 255
189 215 255
189 215 255
189 215 255
189 215 255
189 215 255
189 215 255
189 216 255
189 216 255
189 216 255
189 216 255
189 216 255
189 216 255
189 216 255
189 216 255
189 215 255
189 215 255
189 215 255
189 215 255
189 215 255
189 215 255
189 215 255
189 215 255
189 215 255
189 215 255
189 215 255
189 215 255
189 215 255
189 215 255
189 215 255
189 215 255
189 215 255
189 215 255
189 215 255
189 215 255
189 215 255
189 215 255
189 215 255
189 215 255
189 215 255
189 215 255
189 215 255
189 215 255
189 215 255
189 215 255
189 215 255
189 215 255
189 215 255
189 215 255
189 215 255
189 215 255
189 215 255
189 215 255
189 215 255
189 215 255
189 215 255
189 215 255
189 215 255
189 215 255
189 215 255
189 215 255
189 215 255
189 215 255
189 215 255
189 215 255
188 215 255
188 215 255
188 215 255
188 215 255
188 215 255
188 215 255
188 215 255
188 215 255
188 215 255
188 215 255
188 215 255
188 215 255
188 215 255
188 215 255
188 215 255
188 215 255
188 215 255
188 215 255
188 215 255
188 215 255
188 215 255
188 215 255
188 215 255
188 215 255
188 215 255
188 215 255
188 215 255
193 191 227
204 144 169
199 168 198
188 215 255
188 215 255
194 191 227
188 215 255
188 215 255
188 215 255
188 215 255
188 215 255
188 215 255
188 215 255
188 215 255
188 215 255
188 215 255
188 215 255
188 215 255
188 215 255
188 215 255
188 215 255
188 215 255
188 215 255
188 215 255
188 215 255
188 215 255
188 215 255
188 215 255
188 215 255
188 215 255
188 215 255
188 215 255
188 215 255
188 215 255
188 215 255
188 215 255
188 215 255
188 215 255
188 215 255
188 215 255
188 215 255
188 215 255
188 215 255
188 215 255
188 215 255
188 215 255
188 215 255
188 215 255
188 215 255
188 215 255
188 215 255
188 215 255
188 215 255
188 215 255
188 215 255
188 215 255
188 215 255
188 215 255
188 215 255
188 215 255
188 215 255
188 215 255
188 215 255
188 215 255
178 204 243
165 191 230
164 190 230
162 189 230
161 189 230
160 188 230
159 187 230
158 187 230
158 187 230
157 186 230
157 186 230
156 186 230
156 185 230
156 185 230
155 185 230
154 185 230
154 185 230
154 184 230
154 184 230
153 184 230
153 184 230
153 184 230
153 184 230
153 184 230
152 183 230
152 183 230
152 183 230
152 183 230
151 183 230
151 183 230
151 183 230
151 183 230
151 182 230
151 182 230
151 182 230
151 182 230
150 182 230
150 182 230
150 182 230
150 182 230
150 182 230
150 182 230
149 182 230
149 182 230
150 182 230
150 182 230
150 182 230
149 182 230
150 182 230
149 182 230
150 182 230
150 182 230
150 182 230
150 182 230
150 182 230
150 182 230
150 182 230
150 182 230
150 182 230
150 182 230
150 182 230
150 182 230
150 182 230
150 182 230
150 182 230
150 182 230
150 182 230
151 182 230
151 182 230
151 182 230
151 182 230
151 183 230
151 183 230
152 183 230
152 183 230
152 183 230
152 183 230
152 183 230
152 183 230
153 184 230
153 184 230
153 184 230
153 184 230
153 184 230
154 184 230
154 184 230
155 185 230
155 185 230
156 185 230
156 186 230
156 186 230
157 186 230
157 186 230
158 187 230
159 187 230
159 187 230
160 188 230
161 188 230
162 189 230
163 190 230
165 191 230
180 206 246
188 215 255
188 215 255
188 215 255
188 215 255
188 215 255
188 215 255
188 215 255
188 215 255
188 215 255
188 215 255
188 215 255
188 215 255
188 215 255
188 215 255
188 215 255
188 215 255
188 215 255
188 215 255
188 215 255
188 215 255
188 215 255
188 215 255
188 215 255
188 215 255
188 215 255
188 215 255
188 215 255
188 215 255
188 215 255
188 215 255
188 215 255
188 215 255
188 215 255
188 215 255
188 215 255
188 215 255
188 215 255
188 215 255
188 215 255
188 215 255
188 215 255
188 215 255
188 215 255
188 215 255
188 215 255
188 215 255
188 215 255
188 215 255
188 215 255
188 215 255
188 215 255
188 215 255
188 215 255
188 215 255
188 215 255
188 215 255
188 215 255
188 215 255
188 215 255
188 215 255
188 215 255
188 215 255
188 215 255
188 215 255
188 215 255
188 215 255
188 215 255
188 215 255
188 215 255
188 215 255
188 215 255
188 215 255
188 215 255
188 215 255
188 215 255
188 215 255
188 215 255
188 215 255
188 215 255
188 215 255
188 215 255
188 215 255
188 215 255
188 215 255
188 215 255
189 215 255
188 215 255
188 215 255
188 215 255
188 215 255
189 215 255
189 215 255
189 215 255
188 215 255
188 215 255
189 215 255
189 215 255
189 215 255
189 215 255
189 215 255
189 215 255
189 215 255
189 215 255
189 215 255
189 215 255
189 215 255
189 215 255
189 215 255
189 215 255
189 215 255
189 215 255
189 215 255
189 215 255
189 215 255
189 215 255
189 215 255
189 215 255
189 215 255
189 215 255
189 215 255
189 215 255
189 215 255
189 215 255
189 215 255
189 215 255
189 215 255
189 215 255
189 215 255
189 215 255
189 215 255
189 215 255
189 215 255
189 215 255
189 215 255
189 215 255
189 215 255
189 215 255
189 216 255
189 216 255
189 215 255
189 215 255
189 216 255
189 216 255
189 216 255
189 216 255
189 215 255
189 216 255
189 216 255
189 216 255
189 216 255
189 216 255
189 216 255
189 216 255
189 216 255
189 216 255
189 216 255
189 216 255
189 216 255
189 216 255
189 216 255
189 216 255
189 216 255
189 216 255
189 216 255
189 216 255
189 216 255
189 216 255
189 216 255
189 216 255
189 216 255
189 216 255
189 216 255
189 216 255
189 216 255
189 216 255
189 216 255
189 216 255
189 216 255
189 216 255
189 216 255
189 216 255
189 216 255
189 216 255
189 216 255
189 216 255
189 216 255
189 216 255
189 216 255
189 216 255
189 216 255
189 216 255
189 216 255
189 216 255
189 216 255
189 215 255
189 215 255
189 215 255
189 215 255
189 215 255
189 215 255
189 215 255
189 215 255
189 215 255
189 215 255
189 215 255
189 215 255
189 215 255
189 215 255
189 215 255
189 215 255
189 215 255
189 215 255
189 215 255
189 215 255
189 215 255
189 215 255
189 215 255
189 215 255
189 215 255
189 215 255
189 215 255
189 215 255
189 215 255
189 215 255
189 215 255
189 215 255
189 215 255
194 192 227
204 144 169
209 120 140
214 96 111
230 25 25
225 49 54
230 25 25
230 25 25
230 25 25
230 25 25
230 25 25
230 25 25
230 25 25
230 25 25
230 25 25
209 120 140
220 73 83
209 120 140
209 120 140
199 168 198
189 215 255
189 215 255
188 215 255
188 215 255
188 215 255
189 215 255
188 215 255
188 215 255
188 215 255
188 215 255
188 215 255
188 215 255
188 215 255
188 215 255
188 215 255
188 215 255
188 215 255
188 215 255
188 215 255
188 215 255
188 215 255
188 215 255
188 215 255
188 215 255
188 215 255
188 215 255
188 215 255
188 215 255
188 215 255
188 215 255
188 215 255
188 215 255
188 215 255
188 215 255
188 215 255
188 215 255
188 215 255
188 215 255
188 215 255
188 215 255
188 215 255
188 215 255
188 215 255
188 215 255
188 215 255
188 215 255
188 215 255
188 215 255
188 215 255
188 215 255
188 215 255
175 201 239
165 191 230
164 190 230
162 189 230
162 189 230
161 188 230
160 188 230
160 188 230
159 187 230
158 187 230
158 187 230
157 186 230
157 186 230
157 186 230
156 186 230
156 186 230
156 185 230
156 185 230
155 185 230
155 185 230
155 185 230
154 185 230
154 184 230
154 184 230
154 184 230
154 184 230
154 184 230
153 184 230
153 184 230
153 184 230
153 183 230
153 184 230
153 183 230
152 183 230
152 183 230
152 183 230
152 183 230
152 183 230
152 183 230
152 183 230
151 183 230
152 183 230
152 183 230
151 183 230
152 183 230
152 183 230
151 183 230
151 183 230
152 183 230
152 183 230
151 182 230
151 183 230
152 183 230
152 183 230
151 183 230
152 183 230
152 183 230
152 183 230
152 183 230
152 183 230
152 183 230
152 183 230
152 183 230
152 183 230
152 183 230
152 183 230
152 183 230
152 183 230
153 184 230
152 183 230
153 184 230
153 184 230
153 184 230
153 184 230
153 184 230
153 184 230
154 184 230
154 184 230
154 184 230
154 184 230
154 185 230
154 185 230
155 185 230
155 185 230
156 185 230
156 185 230
156 186 230
157 186 230
157 186 230
157 186 230
158 186 230
158 187 230
158 187 230
159 187 230
159 188 230
160 188 230
161 189 230
161 189 230
162 189 230
164 190 230
166 191 230
173 198 236
188 215 255
188 215 255
188 215 255
188 215 255
188 215 255
188 215 255
188 215 255
188 215 255
188 215 255
188 215 255
188 215 255
188 215 255
188 215 255
188 215 255
188 215 255
188 215 255
188 215 255
188 215 255
188 215 255
188 215 255
188 215 255
188 215 255
188 215 255
188 215 255
188 215 255
188 215 255
188 215 255
188 215 255
188 215 255
188 215 255
188 215 255
188 215 255
188 215 255
188 215 255
188 215 255
188 215 255
188 215 255
188 215 255
188 215 255
188 215 255
188 215 255
188 215 255
188 215 255
188 215 255
188 215 255
188 215 255
188 215 255
189 215 255
188 215 255
189 215 255
189 215 255
189 215 255
189 215 255
189 215 255
188 215 255
189 215 255
189 215 255
189 215 255
189 215 255
189 215 255
189 215 255
189 215 255
189 215 255
189 215 255
189 215 255
189 215 255
189 215 255
189 215 255
189 215 255
189 215 255
189 215 255
189 215 255
189 215 255
189 215 255
189 215 255
189 215 255
189 215 255
189 215 255
189 215 255
189 215 255
189 215 255
189 215 255
189 215 255
189 215 255
189 215 255
189 215 255
189 215 255
189 215 255
189 215 255
189 215 255
189 215 255
189 215 255
189 215 255
189 215 255
189 215 255
189 215 255
189 215 255
189 215 255
189 215 255
189 215 255
189 215 255
189 215 255
189 215 255
189 215 255
189 215 255
189 216 255
189 215 255
189 216 255
189 216 255
189 216 255
189 216 255
189 216 255
189 216 255
189 216 255
189 216 255
189 216 255
189 216 255
189 216 255
189 216 255
189 216 255
189 216 255
189 216 255
189 216 255
189 216 255
189 216 255
189 216 255
189 216 255
189 216 255
189 216 255
189 216 255
189 216 255
189 216 255
189 216 255
189 216 255
189 216 255
189 216 255
189 216 255
189 216 255
189 216 255
189 216 255
189 216 255
189 216 255
189 216 255
189 216 255
189 216 255
189 216 255
189 216 255
189 216 255
189 216 255
189 216 255
189 216 255
189 216 255
189 216 255
189 216 255
189 216 255
189 216 255
189 216 255
189 216 255
189 216 255
189 216 255
189 216 255
189 216 255
189 216 255
189 216 255
189 216 255
189 216 255
189 216 255
189 216 255
189 216 255
189 216 255
189 216 255
189 216 255
189 216 255
189 216 255
189 216 255
189 216 255
189 216 255
189 216 255
189 216 255
189 216 255
189 216 255
189 216 255
189 216 255
189 216 255
189 216 255
189 216 255
189 216 255
189 216 255
189 216 255
189 216 255
189 216 255
189 216 255
189 216 255
189 216 255
189 216 255
189 216 255
189 216 255
189 216 255
189 216 255
189 216 255
189 216 255
189 216 255
189 216 255
189 216 255
189 216 255
189 216 255
189 216 255
189 216 255
189 216 255
189 216 255
189 216 255
189 216 255
189 216 255
189 216 255
189 216 255
189 216 255
189 216 255
189 216 255
189 216 255
189 216 255
189 216 255
189 216 255
189 216 255
189 216 255
199 168 198
220 73 83
230 25 25
230 25 25
230 25 25
230 25 25
230 25 25
230 25 25
230 25 25
230 25 25
230 25 25
230 25 25
230 25 25
230 25 25
230 25 25
230 25 25
230 25 25
230 25 25
230 25 25
230 25 25
230 25 25
230 25 25
230 25 25
209 120 140
214 96 111
199 168 198
189 215 255
189 215 255
189 215 255
189 215 255
189 215 255
189 215 255
189 215 255
189 215 255
189 215 255
189 215 255
189 215 255
189 215 255
189 215 255
189 215 255
189 215 255
189 215 255
189 215 255
189 215 255
189 215 255
189 215 255
189 215 255
189 215 255
189 215 255
189 215 255
189 215 255
189 215 255
189 215 255
189 215 255
189 215 255
189 215 255
189 215 255
189 215 255
189 215 255
189 215 255
189 215 255
189 215 255
189 215 255
189 215 255
189 215 255
189 215 255
189 215 255
189 215 255
189 215 255
189 215 255
189 215 255
189 215 255
189 215 255
189 215 255
173 198 236
165 191 230
164 190 230
163 190 230
163 190 230
162 189 230
161 189 230
161 188 230
160 188 230
160 188 230
159 188 230
159 187 230
158 187 230
158 187 230
158 187 230
158 186 230
157 186 230
157 186 230
157 186 230
157 186 230
156 186 230
156 186 230
156 186 230
156 185 230
155 185 230
155 185 230
155 185 230
155 185 230
155 185 230
155 185 230
154 185 230
155 185 230
155 185 230
154 185 230
154 184 230
154 184 230
154 184 230
154 185 230
154 184 230
154 184 230
154 184 230
153 184 230
154 184 230
153 184 230
154 184 230
154 184 230
154 184 230
153 184 230
153 184 230
153 184 230
153 184 230
153 184 230
153 184 230
153 184 230
153 184 230
153 184 230
153 184 230
154 184 230
154 184 230
154 184 230
154 184 230
154 184 230
154 184 230
154 184 230
154 185 230
154 184 230
154 184 230
154 185 230
154 185 230
154 185 230
155 185 230
155 185 230
155 185 230
155 185 230
155 185 230
156 185 230
155 185 230
155 185 230
156 186 230
156 186 230
156 186 230
156 186 230
157 186 230
157 186 230
157 186 230
157 186 230
158 186 230
158 187 230
158 187 230
158 187 230
159 187 230
160 188 230
160 188 230
160 188 230
161 188 230
161 189 230
162 189 230
163 189 230
163 190 230
164 191 230
165 191 230
175 201 239
189 215 255
189 215 255
189 215 255
189 215 255
189 215 255
189 215 255
189 215 255
189 215 255
189 215 255
189 215 255
189 215 255
189 215 255
189 215 255
189 215 255
189 215 255
189 215 255
189 215 255
189 215 255
189 215 255
189 215 255
189 215 255
189 215 255
189 215 255
189 215 255
189 215 255
189 215 255
189 215 255
189 215 255
189 215 255
189 215 255
189 215 255
189 215 255
189 215 255
189 215 255
189 215 255
189 215 255
189 215 255
189 215 255
189 215 255
189 215 255
189 215 255
189 215 255
189 215 255
189 215 255
189 215 255
189 215 255
189 215 255
189 215 255
189 215 255
189 215 255
189 215 255
189 215 255
189 215 255
189 215 255
189 215 255
189 216 255
189 216 255
189 216 255
189 215 255
189 216 255
189 216 255
189 216 255
189 215 255
189 215 255
189 216 255
189 216 255
189 216 255
189 216 255
189 216 255
189 216 255
189 216 255
189 216 255
189 216 255
189 216 255
189 216 255
189 216 255
189 216 255
189 216 255
189 216 255
189 216 255
189 216 255
189 216 255
189 216 255
189 216 255
189 216 255
189 216 255
189 216 255
189 216 255
189 216 255
189 216 255
189 216 255
189 216 255
189 216 255
189 216 255
189 216 255
189 216 255
189 216 255
189 216 255
189 216 255
189 216 255
189 216 255
189 216 255
189 216 255
189 216 255
189 216 255
189 216 255
189 216 255
189 216 255
189 216 255
189 216 255
189 216 255
189 216 255
189 216 255
189 216 255
189 216 255
189 216 255
189 216 255
189 216 255
189 216 255
189 216 255
189 216 255
189 216 255
189 216 255
189 216 255
189 216 255
189 216 255
189 216 255
189 216 255
189 216 255
189 216 255
189 216 255
189 216 255
189 216 255
189 216 255
189 216 255
189 216 255
189 216 255
189 216 255
189 216 255
189 216 255
189 216 255
189 216 255
189 216 255
189 216 255
189 216 255
189 216 255
189 216 255
189 216 255
189 216 255
190 216 255
190 216 255
190 216 255
190 216 255
190 216 255
190 216 255
190 216 255
190 216 255
190 216 255
190 216 255
190 216 255
189 216 255
190 216 255
190 216 255
189 216 255
190 216 255
189 216 255
190 216 255
189 216 255
189 216 255
189 216 255
189 216 255
189 216 255
189 216 255
189 216 255
189 216 255
189 216 255
189 216 255
189 216 255
189 216 255
189 216 255
189 216 255
189 216 255
189 216 255
189 216 255
189 216 255
189 216 255
189 216 255
189 216 255
189 216 255
189 216 255
189 216 255
189 216 255
189 216 255
189 216 255
189 216 255
189 216 255
189 216 255
189 216 255
189 216 255
189 216 255
189 216 255
189 216 255
189 216 255
189 216 255
189 216 255
189 216 255
189 216 255
189 216 255
189 216 255
189 216 255
189 216 255
189 216 255
189 216 255
189 216 255
189 216 255
189 216 255
189 216 255
189 216 255
189 216 255
189 216 255
189 216 255
204 144 169
225 49 54
230 25 25
230 25 25
230 25 25
230 25 25
230 25 25
230 25 25
230 25 25
230 25 25
230 25 25
230 25 25
230 25 25
230 25 25
230 25 25
230 25 25
230 25 25
230 25 25
230 25 25
230 25 25
230 25 25
230 25 25
230 25 25
230 25 25
230 25 25
230 25 25
230 25 25
230 25 25
230 25 25
225 49 54
215 97 111
199 168 198
189 216 255
189 216 255
189 216 255
189 216 255
189 216 255
189 216 255
189 216 255
189 216 255
189 216 255
189 216 255
189 216 255
189 216 255
189 216 255
189 216 255
189 216 255
189 216 255
189 216 255
189 216 255
189 216 255
189 216 255
189 216 255
189 216 255
189 216 255
189 216 255
189 216 255
189 216 255
189 216 255
189 216 255
189 216 255
189 216 255
189 216 255
189 216 255
189 216 255
189 216 255
189 216 255
189 216 255
189 216 255
189 216 255
189 216 255
189 216 255
189 216 255
189 216 255
189 215 255
189 216 255
189 216 255
170 195 233
166 191 230
165 191 230
164 190 230
163 190 230
163 190 230
162 189 230
162 189 230
162 189 230
161 188 230
160 188 230
160 188 230
160 188 230
160 188 230
160 188 230
159 187 230
159 187 230
159 187 230
158 187 230
158 187 230
158 187 230
158 187 230
158 186 230
158 186 230
157 186 230
157 186 230
157 186 230
157 186 230
157 186 230
156 186 230
156 186 230
156 186 230
156 186 230
156 186 230
156 185 230
156 185 230
156 185 230
156 185 230
156 186 230
156 185 230
156 185 230
155 185 230
155 185 230
155 185 230
156 185 230
155 185 230
155 185 230
155 185 230
155 185 230
156 185 230
155 185 230
156 185 230
155 185 230
155 185 230
156 185 230
156 185 230
156 185 230
156 185 230
155 185 230
155 185 230
156 185 230
156 185 230
155 185 230
156 185 230
155 185 230
156 185 230
156 186 230
156 185 230
156 186 230
156 186 230
156 186 230
157 186 230
156 186 230
156 186 230
157 186 230
157 186 230
157 186 230
157 186 230
157 186 230
157 186 230
158 186 230
158 187 230
158 187 230
158 187 230
159 187 230
159 187 230
159 187 230
159 188 230
159 188 230
160 188 230
160 188 230
160 188 230
161 189 230
161 189 230
162 189 230
162 189 230
163 190 230
163 190 230
164 190 230
165 191 230
166 192 230
168 193 230
189 216 255
189 216 255
189 215 255
189 216 255
189 216 255
189 216 255
189 216 255
189 216 255
189 216 255
189 216 255
189 215 255
189 216 255
189 216 255
189 216 255
189 216 255
189 216 255
189 216 255
189 216 255
189 216 255
189 216 255
189 216 255
189 216 255
189 216 255
189 216 255
189 216 255
189 216 255
189 216 255
189 216 255
189 216 255
189 216 255
189 216 255
189 216 255
189 216 255
189 216 255
189 216 255
189 216 255
189 216 255
189 216 255
189 216 255
189 216 255
189 216 255
189 216 255
189 216 255
189 216 255
189 216 255
189 216 255
189 216 255
189 216 255
189 216 255
189 216 255
189 216 255
189 216 255
189 216 255
189 216 255
189 216 255
189 216 255
189 216 255
189 216 255
189 216 255
189 216 255
189 216 255
189 216 255
189 216 255
189 216 255
189 216 255
189 216 255
189 216 255
189 216 255
189 216 255
189 216 255
189 216 255
189 216 255
189 216 255
189 216 255
189 216 255
189 216 255
189 216 255
189 216 255
189 216 255
189 216 255
189 216 255
189 216 255
189 216 255
189 216 255
189 216 255
189 216 255
189 216 255
189 216 255
189 216 255
189 216 255
189 216 255
189 216 255
189 216 255
189 216 255
189 216 255
189 216 255
189 216 255
189 216 255
189 216 255
189 216 255
189 216 255
189 216 255
189 216 255
189 216 255
189 216 255
189 216 255
189 216 255
189 216 255
189 216 255
189 216 255
189 216 255
189 216 255
189 216 255
189 216 255
189 216 255
189 216 255
189 216 255
189 216 255
189 216 255
189 216 255
189 216 255
189 216 255
189 216 255
189 216 255
189 216 255
189 216 255
189 216 255
189 216 255
189 216 255
189 216 255
189 216 255
189 216 255
189 216 255
190 216 255
190 216 255
190 216 255
190 216 255
190 216 255
190 216 255
190 216 255
190 216 255
190 216 255
189 216 255
190 216 255
190 216 255
190 216 255
190 216 255
190 216 255
190 216 255
190 216 255
190 216 255
190 216 255
190 216 255
190 216 255
190 216 255
190 216 255
190 216 255
190 216 255
190 216 255
190 216 255
190 216 255
190 216 255
190 216 255
190 216 255
190 216 255
190 216 255
190 216 255
190 216 255
190 216 255
190 216 255
190 216 255
190 216 255
190 216 255
190 216 255
190 216 255
190 216 255
190 216 255
190 216 255
190 216 255
190 216 255
190 216 255
190 216 255
190 216 255
190 216 255
190 216 255
190 216 255
190 216 255
190 216 255
190 216 255
190 216 255
190 216 255
190 216 255
190 216 255
190 216 255
190 216 255
190 216 255
190 216 255
190 216 255
190 216 255
190 216 255
190 216 255
190 216 255
190 216 255
190 216 255
190 216 255
190 216 255
190 216 255
190 216 255
190 216 255
190 216 255
190 216 255
190 216 255
190 216 255
189 216 255
189 216 255
190 216 255
189 216 255
190 216 255
200 168 198
220 73 83
230 25 25
230 25 25
230 25 25
230 25 25
230 25 25
230 25 25
230 25 25
230 25 25
230 25 25
230 25 25
230 25 25
230 25 25
230 25 25
230 25 25
230 25 25
230 25 25
230 25 25
230 25 25
230 25 25
230 25 25
230 25 25
230 25 25
230 25 25
230 25 25
230 25 25
230 25 25
230 25 25
230 25 25
230 25 25
230 25 25
230 25 25
230 25 25
230 25 25
215 97 111
199 168 198
189 216 255
189 216 255
189 216 255
189 216 255
189 216 255
189 216 255
189 216 255
189 216 255
189 216 255
189 216 255
189 216 255
189 216 255
189 216 255
189 216 255
189 216 255
189 216 255
189 216 255
189 216 255
189 216 255
189 216 255
189 216 255
189 216 255
189 216 255
189 216 255
189 216 255
189 216 255
189 216 255
189 216 255
189 216 255
189 216 255
189 216 255
189 216 255
189 216 255
189 216 255
189 216 255
189 216 255
189 216 255
189 216 255
189 216 255
189 216 255
189 216 255
189 216 255
189 216 255
168 193 230
167 192 230
166 192 230
165 191 230
164 191 230
164 190 230
163 190 230
163 190 230
163 189 230
162 189 230
162 189 230
162 189 230
161 189 230
161 189 230
161 188 230
161 188 230
160 188 230
160 188 230
160 188 230
160 188 230
160 188 230
159 188 230
159 187 230
159 188 230
159 187 230
159 187 230
159 187 230
159 187 230
158 187 230
158 187 230
158 187 230
158 187 230
158 187 230
158 187 230
158 187 230
158 187 230
158 187 230
158 187 230
157 186 230
157 186 230
158 187 230
157 186 230
157 186 230
157 186 230
157 186 230
158 187 230
158 186 230
157 186 230
157 186 230
157 186 230
157 186 230
157 186 230
157 186 230
157 186 230
157 186 230
157 186 230
157 186 230
157 186 230
157 186 230
158 187 230
157 186 230
158 187 230
157 186 230
158 187 230
158 187 230
158 187 230
158 187 230
158 187 230
158 187 230
158 187 230
158 187 230
159 187 230
158 187 230
158 187 230
159 187 230
159 187 230
159 187 230
159 187 230
159 187 230
159 187 230
159 188 230
159 187 230
160 188 230
160 188 230
160 188 230
161 188 230
161 188 230
161 188 230
161 188 230
161 189 230
162 189 230
162 189 230
162 189 230
162 189 230
163 190 230
163 190 230
164 190 230
165 191 230
165 191 230
166 191 230
167 192 230
168 193 230
187 213 252
189 216 255
189 216 255
189 216 255
189 216 255
189 216 255
189 216 255
189 216 255
189 216 255
189 216 255
189 216 255
189 216 255
189 216 255
189 216 255
189 216 255
189 216 255
189 216 255
189 216 255
189 216 255
189 216 255
189 216 255
189 216 255
189 216 255
189 216 255
189 216 255
189 216 255
189 216 255
189 216 255
189 216 255
189 216 255
189 216 255
189 216 255
189 216 255
189 216 255
189 216 255
189 216 255
189 216 255
189 216 255
189 216 255
189 216 255
189 216 255
189 216 255
189 216 255
189 216 255
189 216 255
189 216 255
189 216 255
189 216 255
189 216 255
189 216 255
189 216 255
189 216 255
189 216 255
189 216 255
189 216 255
189 216 255
189 216 255
189 216 255
189 216 255
189 216 255
189 216 255
189 216 255
189 216 255
189 216 255
189 216 255
189 216 255
189 216 255
189 216 255
189 216 255
189 216 255
189 216 255
189 216 255
189 216 255
189 216 255
189 216 255
189 216 255
189 216 255
189 216 255
189 216 255
189 216 255
189 216 255
189 216 255
189 216 255
189 216 255
189 216 255
190 216 255
189 216 255
190 216 255
190 216 255
189 216 255
190 216 255
190 216 255
190 216 255
190 216 255
190 216 255
190 216 255
190 216 255
190 216 255
190 216 255
190 216 255
190 216 255
190 216 255
190 216 255
190 216 255
190 216 255
190 216 255
190 216 255
190 216 255
190 216 255
190 216 255
190 216 255
190 216 255
190 216 255
190 216 255
190 216 255
190 216 255
190 216 255
190 216 255
190 216 255
190 216 255
190 216 255
190 216 255
190 216 255
190 216 255
190 216 255
190 216 255
190 216 255
190 216 255
190 216 255
190 216 255
190 216 255
190 216 255
190 216 255
190 216 255
190 216 255
190 216 255
190 216 255
190 216 255
190 216 255
190 216 255
190 216 255
190 216 255
190 216 255
190 216 255
190 216 255
190 216 255
190 216 255
190 216 255
190 216 255
190 216 255
190 216 255
190 216 255
190 216 255
190 216 255
190 216 255
190 216 255
190 216 255
190 216 255
190 216 255
190 216 255
190 216 255
190 216 255
190 216 255
190 216 255
190 216 255
190 216 255
190 216 255
190 216 255
190 216 255
190 216 255
190 216 255
190 216 255
190 216 255
190 216 255
190 216 255
190 216 255
190 216 255
190 216 255
190 216 255
190 216 255
190 216 255
190 216 255
190 216 255
190 216 255
190 216 255
190 216 255
190 216 255
190 216 255
190 216 255
190 216 255
190 216 255
190 216 255
190 216 255
190 216 255
190 216 255
190 216 255
190 216 255
190 216 255
190 216 255
190 216 255
190 216 255
190 216 255
190 216 255
190 216 255
190 216 255
190 216 255
190 216 255
190 216 255
190 216 255
190 216 255
190 216 255
190 216 255
190 216 255
190 216 255
190 216 255
190 216 255
200 168 198
225 49 54
230 25 25
230 25 25
230 25 25
230 25 25
230 25 25
230 25 25
230 25 25
230 25 25
230 25 25
230 25 25
230 25 25
230 25 25
230 25 25
230 25 25
230 25 25
230 25 25
230 25 25
230 25 25
230 25 25
230 25 25
230 25 25
230 25 25
230 25 25
230 25 25
230 25 25
230 25 25
230 25 25
230 25 25
230 25 25
230 25 25
230 25 25
230 25 25
230 25 25
230 25 25
230 25 25
230 25 25
230 25 25
225 49 54
215 97 111
190 216 255
190 216 255
190 216 255
190 216 255
190 216 255
190 216 255
190 216 255
190 216 255
190 216 255
190 216 255
190 216 255
190 216 255
190 216 255
190 216 255
190 216 255
190 216 255
190 216 255
190 216 255
190 216 255
190 216 255
190 216 255
190 216 255
190 216 255
189 216 255
189 216 255
190 216 255
190 216 255
190 216 255
190 216 255
189 216 255
190 216 255
190 216 255
190 216 255
189 216 255
189 216 255
190 216 255
190 216 255
189 216 255
189 216 255
190 216 255
187 213 252
168 193 230
167 192 230
166 192 230
166 191 230
165 191 230
165 191 230
164 190 230
164 190 230
164 190 230
163 190 230
163 190 230
163 190 230
163 190 230
163 190 230
162 189 230
162 189 230
162 189 230
162 189 230
162 189 230
161 189 230
161 189 230
161 189 230
161 189 230
161 188 230
161 188 230
161 188 230
161 188 230
161 188 230
160 188 230
160 188 230
160 188 230
160 188 230
160 188 230
160 188 230
160 188 230
160 188 230
159 188 230
160 188 230
159 188 230
159 188 230
159 187 230
159 188 230
159 187 230
159 187 230
159 188 230
159 188 230
160 188 230
159 188 230
159 188 230
159 188 230
159 188 230
159 187 230
159 187 230
159 187 230
160 188 230
159 187 230
159 188 230
159 187 230
159 187 230
160 188 230
159 188 230
159 188 230
159 188 230
160 188 230
160 188 230
159 188 230
160 188 230
160 188 230
160 188 230
160 188 230
160 188 230
160 188 230
160 188 230
160 188 230
160 188 230
161 188 230
161 188 230
161 188 230
161 188 230
161 189 230
161 189 230
161 189 230
161 189 230
162 189 230
162 189 230
162 189 230
162 189 230
162 189 230
163 190 230
163 190 230
163 190 230
163 190 230
164 190 230
164 190 230
164 190 230
164 190 230
165 191 230
165 191 230
166 191 230
166 192 230
167 192 230
169 193 230
187 213 252
190 216 255
190 216 255
190 216 255
190 216 255
189 216 255
190 216 255
190 216 255
189 216 255
189 216 255
189 216 255
190 216 255
190 216 255
190 216 255
189 216 255
190 216 255
190 216 255
189 216 255
190 216 255
190 216 255
190 216 255
190 216 255
190 216 255
190 216 255
190 216 255
190 216 255
190 216 255
190 216 255
190 216 255
190 216 255
190 216 255
190 216 255
190 216 255
190 216 255
190 216 255
190 216 255
190 216 255
190 216 255
190 216 255
190 216 255
190 216 255
190 216 255
190 216 255
190 216 255
190 216 255
190 216 255
190 216 255
190 216 255
190 216 255
190 216 255
190 216 255
190 216 255
190 216 255
190 216 255
190 216 255
190 216 255
190 216 255
190 216 255
190 216 255
190 216 255
190 216 255
190 216 255
190 216 255
190 216 255
190 216 255
190 216 255
190 216 255
190 216 255
190 216 255
190 216 255
190 216 255
190 216 255
190 216 255
190 216 255
190 216 255
190 216 255
190 216 255
190 216 255
190 216 255
190 216 255
190 216 255
190 216 255
190 216 255
190 216 255
190 216 255
190 216 255
190 216 255
190 216 255
190 216 255
190 216 255
190 216 255
190 216 255
190 216 255
190 216 255
190 216 255
190 216 255
190 216 255
190 216 255
190 216 255
190 216 255
190 216 255
190 216 255
190 216 255
190 216 255
190 216 255
190 216 255
190 216 255
190 216 255
190 216 255
190 216 255
190 216 255
190 216 255
190 216 255
190 216 255
190 216 255
190 216 255
190 216 255
190 216 255
190 216 255
190 216 255
190 216 255
190 216 255
190 216 255
190 216 255
190 216 255
190 216 255
190 216 255
190 216 255
190 216 255
190 216 255
190 216 255
190 216 255
190 216 255
190 216 255
190 216 255
190 216 255
190 216 255
190 216 255
190 216 255
190 216 255
190 216 255
190 216 255
190 216 255
190 216 255
190 216 255
190 216 255
190 216 255
190 216 255
190 216 255
190 216 255
190 216 255
190 216 255
190 216 255
190 216 255
190 216 255
190 216 255
190 216 255
190 216 255
190 216 255
190 216 255
190 216 255
190 216 255
190 216 255
190 216 255
190 216 255
190 216 255
190 216 255
190 216 255
190 216 255
190 216 255
190 216 255
190 216 255
190 216 255
190 216 255
190 216 255
190 216 255
190 216 255
190 216 255
190 216 255
190 216 255
190 216 255
190 216 255
190 216 255
190 216 255
190 216 255
190 216 255
190 216 255
190 216 255
190 216 255
190 216 255
190 216 255
190 216 255
190 216 255
190 216 255
190 216 255
190 216 255
190 216 255
190 216 255
190 216 255
190 216 255
190 216 255
190 216 255
190 216 255
190 216 255
190 216 255
190 216 255
190 216 255
190 216 255
190 216 255
190 216 255
190 216 255
190 216 255
190 216 255
190 216 255
190 216 255
220 73 83
230 25 25
230 25 25
230 25 25
230 25 25
230 25 25
230 25 25
230 25 25
230 25 25
230 25 25
230 25 25
230 25 25
230 25 25
230 25 25
230 25 25
230 25 25
230 25 25
230 25 25
230 25 25
230 25 25
230 25 25
230 25 25
230 25 25
230 25 25
230 25 25
230 25 25
230 25 25
230 25 25
230 25 25
230 25 25
230 25 25
230 25 25
230 25 25
230 25 25
230 25 25
230 25 25
230 25 25
230 25 25
230 25 25
230 25 25
230 25 25
230 25 25
215 97 111
205 144 169
190 216 255
190 216 255
190 216 255
190 216 255
190 216 255
190 216 255
190 216 255
190 216 255
190 216 255
190 216 255
190 216 255
190 216 255
190 216 255
190 216 255
190 216 255
190 216 255
190 216 255
190 216 255
190 216 255
190 216 255
190 216 255
190 216 255
190 216 255
190 216 255
190 216 255
190 216 255
190 216 255
190 216 255
190 216 255
190 216 255
190 216 255
190 216 255
190 216 255
190 216 255
190 216 255
190 216 255
190 216 255
190 216 255
185 211 249
169 193 230
168 193 230
167 192 230
167 192 230
166 192 230
166 192 230
166 191 230
166 191 230
165 191 230
165 191 230
165 191 230
164 191 230
164 191 230
164 190 230
164 190 230
164 190 230
164 190 230
163 190 230
163 190 230
163 190 230
163 190 230
163 190 230
163 189 230
163 189 230
162 189 230
162 189 230
162 189 230
162 189 230
162 189 230
162 189 230
162 189 230
162 189 230
162 189 230
162 189 230
162 189 230
162 189 230
162 189 230
161 189 230
161 189 230
161 189 230
161 189 230
161 189 230
161 189 230
162 189 230
161 189 230
162 189 230
161 189 230
161 189 230
161 189 230
161 189 230
161 189 230
161 189 230
161 189 230
161 189 230
161 189 230
161 189 230
161 189 230
161 189 230
161 189 230
161 189 230
161 189 230
162 189 230
161 189 230
161 189 230
162 189 230
162 189 230
162 189 230
162 189 230
162 189 230
162 189 230
162 189 230
162 189 230
162 189 230
162 189 230
162 189 230
162 189 230
163 189 230
163 190 230
163 190 230
163 190 230
163 190 230
163 190 230
163 190 230
163 190 230
164 190 230
164 190 230
163 190 230
164 190 230
164 190 230
164 191 230
164 191 230
165 191 230
165 191 230
165 191 230
165 191 230
166 191 230
166 192 230
166 192 230
167 192 230
167 192 230
168 193 230
169 193 230
185 211 249
190 216 255
190 216 255
190 216 255
190 216 255
190 216 255
190 216 255
190 216 255
190 216 255
190 216 255
190 216 255
190 216 255
190 216 255
190 216 255
190 216 255
190 216 255
190 216 255
190 216 255
190 216 255
190 216 255
190 216 255
190 216 255
190 216 255
190 216 255
190 216 255
190 216 255
190 216 255
190 216 255
190 216 255
190 216 255
190 216 255
190 216 255
190 216 255
190 216 255
190 216 255
190 216 255
190 216 255
190 216 255
190 216 255
190 216 255
190 216 255
190 216 255
190 216 255
190 216 255
190 216 255
190 216 255
190 216 255
190 216 255
190 216 255
190 216 255
190 216 255
190 216 255
190 216 255
190 216 255
190 216 255
190 216 255
190 216 255
190 216 255
190 216 255
190 216 255
190 216 255
190 216 255
190 216 255
190 216 255
190 216 255
190 216 255
190 216 255
190 216 255
190 216 255
190 216 255
190 216 255
190 216 255
190 216 255
190 216 255
190 216 255
190 216 255
190 216 255
190 216 255
190 216 255
190 216 255
190 216 255
190 216 255
190 216 255
190 216 255
190 216 255
190 216 255
190 216 255
190 216 255
190 216 255
190 216 255
190 216 255
190 216 255
190 216 255
190 216 255
190 216 255
190 216 255
190 216 255
190 216 255
190 216 255
190 216 255
190 216 255
190 216 255
190 216 255
190 216 255
190 216 255
190 216 255
190 216 255
190 216 255
190 216 255
190 216 255
190 216 255
190 216 255
190 216 255
190 216 255
190 216 255
190 216 255
190 216 255
190 216 255
190 216 255
190 216 255
190 216 255
190 216 255
190 216 255
190 216 255
190 216 255
190 216 255
190 216 255
190 216 255
190 216 255
190 216 255
190 216 255
190 216 255
190 216 255
190 216 255
190 216 255
190 216 255
190 216 255
190 216 255
190 216 255
190 216 255
190 216 255
190 216 255
190 216 255
190 216 255
190 216 255
190 216 255
190 216 255
190 216 255
190 216 255
190 216 255
190 216 255
190 216 255
190 216 255
190 216 255
190 216 255
190 216 255
190 216 255
190 216 255
190 216 255
190 216 255
190 216 255
190 216 255
190 216 255
190 216 255
190 216 255
190 216 255
190 216 255
190 216 255
190 216 255
190 216 255
190 216 255
190 216 255
190 216 255
190 216 255
190 216 255
190 216 255
190 216 255
190 216 255
190 216 255
190 216 255
190 216 255
190 216 255
190 216 255
190 216 255
190 216 255
190 216 255
190 216 255
190 216 255
190 216 255
190 216 255
190 216 255
190 216 255
190 216 255
190 216 255
190 216 255
190 216 255
190 216 255
190 216 255
190 216 255
190 216 255
190 216 255
190 216 255
190 216 255
190 216 255
190 216 255
190 216 255
190 216 255
190 216 255
190 216 255
190 216 255
190 216 255
190 216 255
190 216 255
190 216 255
230 25 25
230 25 25
230 25 25
230 25 25
230 25 25
230 25 25
230 25 25
230 25 25
230 25 25
230 25 25
230 25 25
230 25 25
230 25 25
230 25 25
230 25 25
230 25 25
230 25 25
230 25 25
230 25 25
230 25 25
230 25 25
230 25 25
230 25 25
230 25 25
230 25 25
230 25 25
230 25 25
230 25 25
230 25 25
230 25 25
230 25 25
230 25 25
230 25 25
230 25 25
230 25 25
230 25 25
230 25 25
230 25 25
230 25 25
230 25 25
230 25 25
230 25 25
230 25 25
230 25 25
230 25 25
205 145 169
190 216 255
190 216 255
190 216 255
190 216 255
190 216 255
190 216 255
190 216 255
190 216 255
190 216 255
190 216 255
190 216 255
190 216 255
190 216 255
190 216 255
190 216 255
190 216 255
190 216 255
190 216 255
190 216 255
190 216 255
190 216 255
190 216 255
190 216 255
190 216 255
190 216 255
190 216 255
190 216 255
190 216 255
190 216 255
190 216 255
190 216 255
190 216 255
190 216 255
190 216 255
190 216 255
190 216 255
190 216 255
180 205 243
169 194 230
169 193 230
168 193 230
168 193 230
167 192 230
167 192 230
167 192 230
187 107 126
181 128 152
166 191 230
166 192 230
166 191 230
166 191 230
165 191 230
165 191 230
165 191 230
165 191 230
165 191 230
165 191 230
164 191 230
165 191 230
165 191 230
165 191 230
164 191 230
164 190 230
164 190 230
164 191 230
164 190 230
164 190 230
164 190 230
164 190 230
164 190 230
164 190 230
164 190 230
164 190 230
164 190 230
163 190 230
163 190 230
164 190 230
164 190 230
163 190 230
164 190 230
163 190 230
163 190 230
163 190 230
163 190 230
163 190 230
163 190 230
163 190 230
163 190 230
163 190 230
163 190 230
164 190 230
164 190 230
163 190 230
163 190 230
164 190 230
163 190 230
163 190 230
164 190 230
164 190 230
163 190 230
164 190 230
163 190 230
164 190 230
163 190 230
163 190 230
164 190 230
164 190 230
164 190 230
164 190 230
164 190 230
164 190 230
164 190 230
164 190 230
164 190 230
164 190 230
164 190 230
164 191 230
164 191 230
165 191 230
165 191 230
165 191 230
165 191 230
165 191 230
165 191 230
165 191 230
165 191 230
165 191 230
166 191 230
166 191 230
166 192 230
166 192 230
166 192 230
167 192 230
167 192 230
167 192 230
168 193 230
168 193 230
168 193 230
169 193 230
169 194 230
178 202 239
190 216 255
190 216 255
190 216 255
190 216 255
190 216 255
190 216 255
190 216 255
190 216 255
190 216 255
190 216 255
190 216 255
190 216 255
190 216 255
190 216 255
190 216 255
190 216 255
190 216 255
190 216 255
190 216 255
190 216 255
190 216 255
190 216 255
190 216 255
190 216 255
190 216 255
190 216 255
190 216 255
190 216 255
190 216 255
190 216 255
190 216 255
190 216 255
190 216 255
190 216 255
190 216 255
190 216 255
190 216 255
190 216 255
190 216 255
190 216 255
190 216 255
190 216 255
190 216 255
190 216 255
190 216 255
190 216 255
190 216 255
190 216 255
190 216 255
190 216 255
190 216 255
190 216 255
190 216 255
190 216 255
190 216 255
190 216 255
190 216 255
190 216 255
190 216 255
190 216 255
190 216 255
190 216 255
190 216 255
190 216 255
190 216 255
190 216 255
190 216 255
190 216 255
190 216 255
190 216 255
190 216 255
190 216 255
190 216 255
190 216 255
190 216 255
190 216 255
190 216 255
190 216 255
190 216 255
190 216 255
190 216 255
190 216 255
190 216 255
190 216 255
190 216 255
190 216 255
190 216 255
190 216 255
190 216 255
190 216 255
190 216 255
190 216 255
190 216 255
190 216 255
190 216 255
190 216 255
190 216 255
190 216 255
190 216 255
190 216 255
190 216 255
190 216 255
190 216 255
190 216 255
190 216 255
190 216 255
190 216 255
190 216 255
190 216 255
190 216 255
190 216 255
190 216 255
190 216 255
190 216 255
190 216 255
190 216 255
190 216 255
190 216 255
190 216 255
190 216 255
190 216 255
190 216 255
190 216 255
190 216 255
190 216 255
190 216 255
190 216 255
190 216 255
190 216 255
190 216 255
190 216 255
190 216 255
190 216 255
190 216 255
190 216 255
190 216 255
190 216 255
190 216 255
190 216 255
191 216 255
190 216 255
190 216 255
190 216 255
190 216 255
190 216 255
190 216 255
190 216 255
191 217 255
191 217 255
191 217 255
191 217 255
191 217 255
191 217 255
191 217 255
191 217 255
191 217 255
191 217 255
191 217 255
191 217 255
191 217 255
191 217 255
191 217 255
191 217 255
191 217 255
191 217 255
191 217 255
191 217 255
191 217 255
191 217 255
191 217 255
191 217 255
191 217 255
191 217 255
191 217 255
191 217 255
191 217 255
191 217 255
191 217 255
191 217 255
191 217 255
191 217 255
191 217 255
191 217 255
191 217 255
191 217 255
191 217 255
191 217 255
191 217 255
191 217 255
191 217 255
191 217 255
191 217 255
191 217 255
191 217 255
191 217 255
191 217 255
191 217 255
191 217 255
191 217 255
191 217 255
191 217 255
191 217 255
191 217 255
191 217 255
191 217 255
191 217 255
191 217 255
191 216 255
191 217 255
191 217 255
205 145 169
230 25 25
230 25 25
230 25 25
230 25 25
230 25 25
230 25 25
230 25 25
230 25 25
230 25 25
230 25 25
230 25 25
230 25 25
230 25 25
230 25 25
230 25 25
230 25 25
230 25 25
230 25 25
230 25 25
230 25 25
230 25 25
230 25 25
230 25 25
230 25 25
230 25 25
230 25 25
230 25 25
230 25 25
230 25 25
230 25 25
230 25 25
230 25 25
230 25 25
230 25 25
230 25 25
230 25 25
230 25 25
230 25 25
230 25 25
230 25 25
230 25 25
230 25 25
230 25 25
230 25 25
230 25 25
230 25 25
230 25 25
230 25 25
225 49 54
190 216 255
190 216 255
190 216 255
191 216 255
190 216 255
190 216 255
190 216 255
190 216 255
190 216 255
190 216 255
190 216 255
190 216 255
190 216 255
190 216 255
190 216 255
190 216 255
190 216 255
190 216 255
190 216 255
190 216 255
190 216 255
190 216 255
190 216 255
190 216 255
190 216 255
190 216 255
190 216 255
190 216 255
190 216 255
190 216 255
190 216 255
190 216 255
190 216 255
190 216 255
190 216 255
190 216 255
181 205 243
170 194 230
169 194 230
169 193 230
169 193 230
168 193 230
192 86 100
207 23 23
207 23 23
207 23 23
192 86 100
177 150 178
167 192 230
167 192 230
167 192 230
167 192 230
167 192 230
167 192 230
166 192 230
166 192 230
166 192 230
166 192 230
166 192 230
166 192 230
166 192 230
166 192 230
166 192 230
165 191 230
166 192 230
166 191 230
166 191 230
166 191 230
166 191 230
166 191 230
166 191 230
166 191 230
165 191 230
165 191 230
165 191 230
165 191 230
165 191 230
165 191 230
166 191 230
165 191 230
165 191 230
165 191 230
165 191 230
165 191 230
165 191 230
165 191 230
166 191 230
166 191 230
165 191 230
165 191 230
166 191 230
165 191 230
165 191 230
165 191 230
165 191 230
166 191 230
165 191 230
165 191 230
165 191 230
166 191 230
165 191 230
165 191 230
166 191 230
165 191 230
166 191 230
166 191 230
166 191 230
166 191 230
166 191 230
166 191 230
166 191 230
166 191 230
166 191 230
166 191 230
166 192 230
166 192 230
166 192 230
166 191 230
166 191 230
166 192 230
167 192 230
167 192 230
167 192 230
167 192 230
167 192 230
167 192 230
167 192 230
167 192 230
167 192 230
168 193 230
168 193 230
168 193 230
168 193 230
168 193 230
168 193 230
169 193 230
169 193 230
169 194 230
170 194 230
178 203 239
190 216 255
190 216 255
190 216 255
190 216 255
190 216 255
190 216 255
190 216 255
190 216 255
190 216 255
190 216 255
190 216 255
190 216 255
190 216 255
190 216 255
190 216 255
190 216 255
190 216 255
190 216 255
190 216 255
190 216 255
190 216 255
190 216 255
190 216 255
190 216 255
190 216 255
190 216 255
190 216 255
190 216 255
190 216 255
190 216 255
190 216 255
190 216 255
190 216 255
190 216 255
190 216 255
190 216 255
190 216 255
191 217 255
190 216 255
190 216 255
190 216 255
191 217 255
191 216 255
190 216 255
190 216 255
190 216 255
191 217 255
190 216 255
190 216 255
191 216 255
190 216 255
191 217 255
190 216 255
191 217 255
191 217 255
190 216 255
190 216 255
190 216 255
190 216 255
191 217 255
191 216 255
191 217 255
191 217 255
191 217 255
191 217 255
191 217 255
190 216 255
191 217 255
190 216 255
191 217 255
191 217 255
191 217 255
191 217 255
191 217 255
191 217 255
191 217 255
191 217 255
191 217 255
191 217 255
191 217 255
191 217 255
191 217 255
191 217 255
191 217 255
191 217 255
191 217 255
191 217 255
191 217 255
191 217 255
191 217 255
191 217 255
191 217 255
191 217 255
191 217 255
191 217 255
191 217 255
191 217 255
191 217 255
191 217 255
191 217 255
191 217 255
191 217 255
191 217 255
191 217 255
191 217 255
191 217 255
191 217 255
191 217 255
191 217 255
191 217 255
191 217 255
191 217 255
191 217 255
191 217 255
191 217 255
191 217 255
191 217 255
191 217 255
191 217 255
191 217 255
191 217 255
191 217 255
191 217 255
191 217 255
191 217 255
191 217 255
191 217 255
191 217 255
191 217 255
191 217 255
191 217 255
191 217 255
191 217 255
191 217 255
191 217 255
191 217 255
191 217 255
191 217 255
191 217 255
191 217 255
191 217 255
191 217 255
191 217 255
191 217 255
191 217 255
191 217 255
191 217 255
191 217 255
191 217 255
191 217 255
191 217 255
191 217 255
191 217 255
191 217 255
191 217 255
191 217 255
191 217 255
191 217 255
191 217 255
191 217 255
191 217 255
191 217 255
191 217 255
191 217 255
191 217 255
191 217 255
191 217 255
191 217 255
191 217 255
191 217 255
191 217 255
191 217 255
191 217 255
191 217 255
191 217 255
191 217 255
191 217 255
191 217 255
191 217 255
191 217 255
191 217 255
191 217 255
191 217 255
191 217 255
191 217 255
191 217 255
191 217 255
191 217 255
191 217 255
191 217 255
191 217 255
191 217 255
191 217 255
191 217 255
191 217 255
191 217 255
191 217 255
191 217 255
191 217 255
191 217 255
191 217 255
191 217 255
191 217 255
191 217 255
191 217 255
191 217 255
191 217 255
191 217 255
191 217 255
201 169 198
230 25 25
230 25 25
230 25 25
230 25 25
230 25 25
230 25 25
230 25 25
230 25 25
230 25 25
230 25 25
230 25 25
230 25 25
230 25 25
230 25 25
230 25 25
230 25 25
230 25 25
230 25 25
230 25 25
230 25 25
230 25 25
230 25 25
230 25 25
230 25 25
230 25 25
230 25 25
230 25 25
230 25 25
230 25 25
230 25 25
230 25 25
230 25 25
230 25 25
230 25 25
230 25 25
230 25 25
230 25 25
230 25 25
230 25 25
230 25 25
230 25 25
230 25 25
230 25 25
230 25 25
230 25 25
230 25 25
230 25 25
230 25 25
230 25 25
230 25 25
220 73 83
196 193 227
191 217 255
191 217 255
191 217 255
191 217 255
191 217 255
191 217 255
191 217 255
191 217 255
191 217 255
191 217 255
191 217 255
191 217 255
191 217 255
191 217 255
191 217 255
191 217 255
191 217 255
191 217 255
191 217 255
191 217 255
191 217 255
191 217 255
191 217 255
191 217 255
191 217 255
191 217 255
191 217 255
191 217 255
191 217 255
191 217 255
191 217 255
191 217 255
191 217 255
191 217 255
178 203 239
171 194 230
170 194 230
170 194 230
170 194 230
179 151 178
207 23 23
207 23 23
207 23 23
207 23 23
207 23 23
188 108 126
169 193 230
169 193 230
169 193 230
169 193 230
168 193 230
168 193 230
168 193 230
168 193 230
168 193 230
168 193 230
168 193 230
168 193 230
168 193 230
168 193 230
167 192 230
168 192 230
168 193 230
167 192 230
167 192 230
167 192 230
167 192 230
168 193 230
167 192 230
167 192 230
167 192 230
168 193 230
167 192 230
168 193 230
167 192 230
167 192 230
167 192 230
168 192 230
168 192 230
168 192 230
167 192 230
167 192 230
167 192 230
167 192 230
167 192 230
167 192 230
167 192 230
167 192 230
167 192 230
167 192 230
167 192 230
168 193 230
168 193 230
167 192 230
167 192 230
167 192 230
167 192 230
168 193 230
167 192 230
168 192 230
167 192 230
167 192 230
167 192 230
167 192 230
167 192 230
167 192 230
168 193 230
168 192 230
168 193 230
168 193 230
168 193 230
168 193 230
168 192 230
168 193 230
168 193 230
168 193 230
168 193 230
168 193 230
168 193 230
168 193 230
168 193 230
168 193 230
168 193 230
169 193 230
168 193 230
169 193 230
168 193 230
169 193 230
169 193 230
169 193 230
169 193 230
169 193 230
170 194 230
170 194 230
170 194 230
170 194 230
171 194 230
186 211 249
191 217 255
191 217 255
191 217 255
191 217 255
191 217 255
191 217 255
191 217 255
191 217 255
191 217 255
191 217 255
191 217 255
191 217 255
191 217 255
191 217 255
191 217 255
191 217 255
191 217 255
191 217 255
191 217 255
191 217 255
191 217 255
191 217 255
191 217 255
191 217 255
191 217 255
191 217 255
191 217 255
191 217 255
191 217 255
191 217 255
191 217 255
191 217 255
191 217 255
191 217 255
191 217 255
191 217 255
191 217 255
191 217 255
191 217 255
191 217 255
191 217 255
191 217 255
191 217 255
191 217 255
191 217 255
191 217 255
191 217 255
191 217 255
191 217 255
191 217 255
191 217 255
191 217 255
191 217 255
191 217 255
191 217 255
191 217 255
191 217 255
191 217 255
191 217 255
191 217 255
191 217 255
191 217 255
191 217 255
191 217 255
191 217 255
191 217 255
191 217 255
191 217 255
191 217 255
191 217 255
191 217 255
191 217 255
191 217 255
191 217 255
191 217 255
191 217 255
191 217 255
191 217 255
191 217 255
191 217 255
191 217 255
191 217 255
191 217 255
191 217 255
191 217 255
191 217 255
191 217 255
191 217 255
191 217 255
191 217 255
191 217 255
191 217 255
191 217 255
191 217 255
191 217 255
191 217 255
191 217 255
191 217 255
191 217 255
191 217 255
191 217 255
191 217 255
191 217 255
191 217 255
191 217 255
191 217 255
191 217 255
191 217 255
191 217 255
191 217 255
191 217 255
191 217 255
191 217 255
191 217 255
191 217 255
191 217 255
191 217 255
191 217 255
191 217 255
191 217 255
191 217 255
191 217 255
191 217 255
191 217 255
191 217 255
191 217 255
191 217 255
191 217 255
191 217 255
191 217 255
191 217 255
191 217 255
191 217 255
191 217 255
191 217 255
191 217 255
191 217 255
191 217 255
191 217 255
191 217 255
191 217 255
191 217 255
191 217 255
191 217 255
191 217 255
191 217 255
191 217 255
191 217 255
191 217 255
191 217 255
191 217 255
191 217 255
191 217 255
191 217 255
191 217 255
191 217 255
191 217 255
191 217 255
191 217 255
191 217 255
191 217 255
191 217 255
191 217 255
191 217 255
191 217 255
191 217 255
191 217 255
191 217 255
191 217 255
191 217 255
191 217 255
191 217 255
191 217 255
191 217 255
191 217 255
191 217 255
191 217 255
191 217 255
191 217 255
191 217 255
191 217 255
191 217 255
191 217 255
191 217 255
191 217 255
191 217 255
191 217 255
191 217 255
191 217 255
191 217 255
191 217 255
191 217 255
191 217 255
191 217 255
191 217 255
191 217 255
191 217 255
191 217 255
191 217 255
191 217 255
191 217 255
191 217 255
191 217 255
191 217 255
191 217 255
191 217 255
191 217 255
191 217 255
220 73 83
230 25 25
230 25 25
230 25 25
230 25 25
230 25 25
230 25 25
230 25 25
230 25 25
230 25 25
230 25 25
230 25 25
230 25 25
230 25 25
230 25 25
230 25 25
230 25 25
230 25 25
230 25 25
230 25 25
230 25 25
230 25 25
230 25 25
230 25 25
230 25 25
230 25 25
230 25 25
230 25 25
230 25 25
230 25 25
230 25 25
230 25 25
230 25 25
230 25 25
230 25 25
230 25 25
230 25 25
230 25 25
230 25 25
230 25 25
230 25 25
230 25 25
230 25 25
230 25 25
230 25 25
230 25 25
230 25 25
230 25 25
230 25 25
230 25 25
230 25 25
230 25 25
230 25 25
225 49 54
210 121 140
191 217 255
191 217 255
191 217 255
191 217 255
191 217 255
191 217 255
191 217 255
191 217 255
191 217 255
191 217 255
191 217 255
191 217 255
191 217 255
191 217 255
191 217 255
191 217 255
191 217 255
191 217 255
191 217 255
191 217 255
191 217 255
191 217 255
191 217 255
191 217 255
191 217 255
191 217 255
191 217 255
191 217 255
191 217 255
191 217 255
191 217 255
191 217 255
191 217 255
181 206 243
171 195 230
171 195 230
171 195 230
171 195 230
207 23 23
207 23 23
207 23 23
207 23 23
207 23 23
207 23 23
207 23 23
184 130 152
170 194 230
170 194 230
170 194 230
170 194 230
170 194 230
170 194 230
170 194 230
169 194 230
169 194 230
170 194 230
170 194 230
170 194 230
169 194 230
169 194 230
170 194 230
169 194 230
170 194 230
169 194 230
170 194 230
169 194 230
169 193 230
170 194 230
170 194 230
169 194 230
169 194 230
170 194 230
169 194 230
169 193 230
169 193 230
169 193 230
169 194 230
170 194 230
169 193 230
170 194 230
169 194 230
169 194 230
169 193 230
169 193 230
170 194 230
170 194 230
169 193 230
169 193 230
169 194 230
169 193 230
170 194 230
169 193 230
169 193 230
169 194 230
169 193 230
169 194 230
170 194 230
169 193 230
169 194 230
169 194 230
169 194 230
169 193 230
169 193 230
169 194 230
169 194 230
170 194 230
169 194 230
169 193 230
170 194 230
170 194 230
170 194 230
170 194 230
169 194 230
170 194 230
170 194 230
170 194 230
170 194 230
170 194 230
169 194 230
170 194 230
170 194 230
170 194 230
170 194 230
170 194 230
170 194 230
170 194 230
170 194 230
170 194 230
170 194 230
170 194 230
171 194 230
171 194 230
171 194 230
171 194 230
171 195 230
171 195 230
176 200 236
191 217 255
191 217 255
191 217 255
191 217 255
191 217 255
191 217 255
191 217 255
191 217 255
191 217 255
191 217 255
191 217 255
191 217 255
191 217 255
191 217 255
191 217 255
191 217 255
191 217 255
191 217 255
191 217 255
191 217 255
191 217 255
191 217 255
191 217 255
191 217 255
191 217 255
191 217 255
191 217 255
191 217 255
191 217 255
191 217 255
191 217 255
191 217 255
191 217 255
191 217 255
191 217 255
191 217 255
191 217 255
191 217 255
191 217 255
191 217 255
191 217 255
191 217 255
191 217 255
191 217 255
191 217 255
191 217 255
191 217 255
191 217 255
191 217 255
191 217 255
191 217 255
191 217 255
191 217 255
191 217 255
191 217 255
191 217 255
191 217 255
191 217 255
191 217 255
191 217 255
191 217 255
191 217 255
191 217 255
191 217 255
191 217 255
191 217 255
191 217 255
191 217 255
191 217 255
191 217 255
191 217 255
191 217 255
191 217 255
191 217 255
191 217 255
191 217 255
191 217 255
191 217 255
191 217 255
191 217 255
191 217 255
191 217 255
191 217 255
191 217 255
191 217 255
191 217 255
191 217 255
191 217 255
191 217 255
191 217 255
191 217 255
191 217 255
191 217 255
191 217 255
191 217 255
191 217 255
191 217 255
191 217 255
191 217 255
191 217 255
191 217 255
191 217 255
191 217 255
191 217 255
191 217 255
191 217 255
191 217 255
191 217 255
191 217 255
191 217 255
191 217 255
191 217 255
191 217 255
191 217 255
191 217 255
191 217 255
191 217 255
191 217 255
191 217 255
191 217 255
191 217 255
191 217 255
191 217 255
191 217 255
191 217 255
191 217 255
191 217 255
191 217 255
191 217 255
191 217 255
191 217 255
191 217 255
191 217 255
191 217 255
191 217 255
191 217 255
191 217 255
191 217 255
191 217 255
191 217 255
191 217 255
191 217 255
191 217 255
191 217 255
191 217 255
191 217 255
191 217 255
191 217 255
191 217 255
191 217 255
191 217 255
191 217 255
191 217 255
191 217 255
191 217 255
191 217 255
191 217 255
191 217 255
191 217 255
191 217 255
191 217 255
191 217 255
191 217 255
191 217 255
191 217 255
191 217 255
191 217 255
191 217 255
191 217 255
191 217 255
191 217 255
191 217 255
191 217 255
191 217 255
191 217 255
191 217 255
191 217 255
191 217 255
191 217 255
191 217 255
191 217 255
191 217 255
191 217 255
191 217 255
191 217 255
191 217 255
191 217 255
191 217 255
191 217 255
191 217 255
191 217 255
191 217 255
191 217 255
191 217 255
191 217 255
191 217 255
191 217 255
191 217 255
191 217 255
191 217 255
191 217 255
191 217 255
191 217 255
191 217 255
191 217 255
191 217 255
191 217 255
220 73 83
230 25 25
230 25 25
230 25 25
230 25 25
230 25 25
230 25 25
230 25 25
230 25 25
230 25 25
230 25 25
230 25 25
230 25 25
230 25 25
230 25 25
230 25 25
230 25 25
230 25 25
230 25 25
230 25 25
230 25 25
230 25 25
230 25 25
230 25 25
230 25 25
230 25 25
230 25 25
230 25 25
230 25 25
230 25 25
230 25 25
230 25 25
230 25 25
230 25 25
230 25 25
230 25 25
230 25 25
230 25 25
230 25 25
230 25 25
230 25 25
230 25 25
230 25 25
230 25 25
230 25 25
230 25 25
230 25 25
230 25 25
230 25 25
230 25 25
230 25 25
230 25 25
230 25 25
230 25 25
230 25 25
230 25 25
206 145 169
191 217 255
191 217 255
191 217 255
191 217 255
191 217 255
191 217 255
191 217 255
191 217 255
191 217 255
191 217 255
191 217 255
191 217 255
191 217 255
191 217 255
191 217 255
191 217 255
191 217 255
191 217 255
191 217 255
191 217 255
191 217 255
191 217 255
191 217 255
191 217 255
191 217 255
191 217 255
191 217 255
191 217 255
191 217 255
191 217 255
191 217 255
191 217 255
175 198 233
172 195 230
172 195 230
172 195 230
176 173 204
207 23 23
207 23 23
207 23 23
207 23 23
207 23 23
207 23 23
207 23 23
207 23 23
180 152 178
171 195 230
172 195 230
172 195 230
171 195 230
171 195 230
171 195 230
171 195 230
171 195 230
171 195 230
171 195 230
172 195 230
171 195 230
171 195 230
171 195 230
172 195 230
172 195 230
171 195 230
171 195 230
171 195 230
171 195 230
172 195 230
171 195 230
171 195 230
171 195 230
171 195 230
172 195 230
171 195 230
171 195 230
171 195 230
171 195 230
171 195 230
171 195 230
171 195 230
171 195 230
172 195 230
172 195 230
171 195 230
171 195 230
171 195 230
171 195 230
171 195 230
171 195 230
171 195 230
171 195 230
171 195 230
171 195 230
171 195 230
171 195 230
172 195 230
172 195 230
171 195 230
171 194 230
171 195 230
171 195 230
172 195 230
171 195 230
172 195 230
171 195 230
171 195 230
171 195 230
171 195 230
172 195 230
171 195 230
171 195 230
171 195 230
171 195 230
172 195 230
172 195 230
171 195 230
171 195 230
171 195 230
171 195 230
171 195 230
172 195 230
172 195 230
172 195 230
171 195 230
172 195 230
172 195 230
172 195 230
172 195 230
171 195 230
172 195 230
171 195 230
172 195 230
172 195 230
172 195 230
172 195 230
172 195 230
179 203 239
191 217 255
191 217 255
191 217 255
191 217 255
191 217 255
191 217 255
191 217 255
191 217 255
191 217 255
191 217 255
191 217 255
191 217 255
191 217 255
191 217 255
191 217 255
191 217 255
191 217 255
191 217 255
191 217 255
191 217 255
191 217 255
191 217 255
191 217 255
191 217 255
191 217 255
191 217 255
191 217 255
191 217 255
191 217 255
191 217 255
191 217 255
191 217 255
191 217 255
191 217 255
191 217 255
191 217 255
191 217 255
191 217 255
191 217 255
191 217 255
191 217 255
191 217 255
191 217 255
191 217 255
191 217 255
191 217 255
191 217 255
191 217 255
191 217 255
191 217 255
191 217 255
191 217 255
191 217 255
191 217 255
191 217 255
191 217 255
191 217 255
191 217 255
191 217 255
191 217 255
191 217 255
191 217 255
191 217 255
191 217 255
191 217 255
191 217 255
191 217 255
191 217 255
191 217 255
191 217 255
191 217 255
191 217 255
191 217 255
191 217 255
191 217 255
191 217 255
191 217 255
191 217 255
191 217 255
191 217 255
191 217 255
191 217 255
191 217 255
191 217 255
191 217 255
191 217 255
191 217 255
191 217 255
191 217 255
191 217 255
191 217 255
191 217 255
191 217 255
191 217 255
191 217 255
191 217 255
191 217 255
191 217 255
191 217 255
191 217 255
191 217 255
191 217 255
191 217 255
191 217 255
191 217 255
191 217 255
191 217 255
191 217 255
191 217 255
191 217 255
191 217 255
191 217 255
191 217 255
191 217 255
191 217 255
191 217 255
191 217 255
191 217 255
191 217 255
191 217 255
191 217 255
191 217 255
191 217 255
191 217 255
191 217 255
191 217 255
191 217 255
191 217 255
191 217 255
191 217 255
191 217 255
191 217 255
191 217 255
191 217 255
191 217 255
191 217 255
191 217 255
191 217 255
191 217 255
191 217 255
191 217 255
191 217 255
191 217 255
191 217 255
191 217 255
191 217 255
191 217 255
191 217 255
204 204 204
201 207 217
203 206 211
203 206 211
201 207 217
199 209 223
203 206 211
204 204 204
201 207 217
203 206 211
203 206 211
203 206 211
201 207 217
203 206 211
201 207 217
198 211 230
203 206 211
203 206 211
204 204 204
203 206 211
203 206 211
201 207 217
201 207 217
203 206 211
201 207 217
204 204 204
203 206 211
201 207 217
201 207 217
204 204 204
203 206 211
201 207 217
204 204 204
203 206 211
204 204 204
203 206 211
204 204 204
203 206 211
199 209 223
201 207 217
201 207 217
204 204 204
199 209 223
203 206 211
204 204 204
201 207 217
203 206 211
201 207 217
203 206 211
204 204 204
203 206 211
201 207 217
204 204 204
203 206 211
203 206 211
203 206 211
201 207 217
206 183 188
220 73 83
230 25 25
230 25 25
230 25 25
230 25 25
230 25 25
230 25 25
230 25 25
230 25 25
230 25 25
230 25 25
230 25 25
230 25 25
230 25 25
230 25 25
230 25 25
230 25 25
230 25 25
230 25 25
230 25 25
230 25 25
230 25 25
230 25 25
230 25 25
230 25 25
230 25 25
230 25 25
230 25 25
230 25 25
230 25 25
230 25 25
230 25 25
230 25 25
230 25 25
230 25 25
230 25 25
230 25 25
230 25 25
230 25 25
230 25 25
230 25 25
230 25 25
230 25 25
230 25 25
230 25 25
230 25 25
230 25 25
230 25 25
230 25 25
230 25 25
230 25 25
230 25 25
230 25 25
230 25 25
230 25 25
230 25 25
230 25 25
230 25 25
212 139 143
203 206 211
204 204 204
204 204 204
203 206 211
203 206 211
203 206 211
203 206 211
203 206 211
204 204 204
203 206 211
204 204 204
203 206 211
201 207 217
201 207 217
204 204 204
204 204 204
201 207 217
199 209 223
204 204 204
204 204 204
204 204 204
201 207 217
203 206 211
204 204 204
204 204 204
204 204 204
203 206 211
204 204 204
203 206 211
203 206 211
201 207 217
186 192 201
184 184 184
184 184 184
184 184 184
194 105 109
207 23 23
207 23 23
207 23 23
207 23 23
207 23 23
207 23 23
207 23 23
207 23 23
201 63 63
182 185 190
184 184 184
184 184 184
184 184 184
184 184 184
184 184 184
184 184 184
184 184 184
184 184 184
182 185 190
184 184 184
184 184 184
184 184 184
184 184 184
184 184 184
184 184 184
182 185 190
184 184 184
184 184 184
184 184 184
182 185 190
184 184 184
184 184 184
184 184 184
184 184 184
184 184 184
184 184 184
184 184 184
184 184 184
184 184 184
184 184 184
182 185 190
184 184 184
184 184 184
184 184 184
184 184 184
184 184 184
184 184 184
182 185 190
184 184 184
184 184 184
184 184 184
184 184 184
184 184 184
184 184 184
184 184 184
184 184 184
184 184 184
184 184 184
184 184 184
184 184 184
184 184 184
184 184 184
184 184 184
184 184 184
184 184 184
182 185 190
184 184 184
184 184 184
184 184 184
184 184 184
184 184 184
184 184 184
182 185 190
184 184 184
184 184 184
182 185 190
184 184 184
184 184 184
184 184 184
184 184 184
184 184 184
184 184 184
184 184 184
184 184 184
184 184 184
182 185 190
184 184 184
184 184 184
184 184 184
184 184 184
184 184 184
184 184 184
184 184 184
184 184 184
184 184 184
184 184 184
184 184 184
184 184 184
189 189 189
201 207 217
201 207 217
204 204 204
201 207 217
204 204 204
203 206 211
204 204 204
204 204 204
204 204 204
204 204 204
204 204 204
203 206 211
203 206 211
204 204 204
204 204 204
201 207 217
199 209 223
201 207 217
203 206 211
203 206 211
201 207 217
203 206 211
199 209 223
201 207 217
201 207 217
204 204 204
203 206 211
203 206 211
204 204 204
204 204 204
203 206 211
203 206 211
204 204 204
203 206 211
204 204 204
203 206 211
204 204 204
204 204 204
203 206 211
204 204 204
204 204 204
203 206 211
203 206 211
203 206 211
204 204 204
198 211 230
203 206 211
201 207 217
204 204 204
203 206 211
204 204 204
204 204 204
203 206 211
201 207 217
204 204 204
203 206 211
204 204 204
203 206 211
204 204 204
204 204 204
201 207 217
203 206 211
204 204 204
204 204 204
201 207 217
204 204 204
203 206 211
203 206 211
203 206 211
203 206 211
204 204 204
204 204 204
201 207 217
201 207 217
203 206 211
204 204 204
204 204 204
203 206 211
203 206 211
204 204 204
203 206 211
199 209 223
204 204 204
204 204 204
203 206 211
204 204 204
204 204 204
203 206 211
203 206 211
203 206 211
203 206 211
201 207 217
203 206 211
203 206 211
204 204 204
203 206 211
204 204 204
201 207 217
203 206 211
203 206 211
203 206 211
198 211 230
201 207 217
203 206 211
203 206 211
204 204 204
203 206 211
203 206 211
204 204 204
203 206 211
201 207 217
204 204 204
201 207 217
203 206 211
203 206 211
198 211 230
204 204 204
201 207 217
203 206 211
203 206 211
201 207 217
204 204 204
201 207 217
199 209 223
201 207 217
201 207 217
204 204 204
203 206 211
203 206 211
201 207 217
198 211 230
204 204 204
201 207 217
204 204 204
201 207 217
204 204 204
204 204 204
204 204 204
203 206 211
200 209 223
203 206 211
201 207 217
204 204 204
203 206 211
200 209 223
201 207 217
198 211 230
203 206 211
204 204 204
204 204 204
204 204 204
204 204 204
204 204 204
204 204 204
204 204 204
204 204 204
204 204 204
204 204 204
204 204 204
204 204 204
204 204 204
204 204 204
204 204 204
204 204 204
204 204 204
204 204 204
204 204 204
204 204 204
204 204 204
204 204 204
204 204 204
204 204 204
204 204 204
204 204 204
204 204 204
204 204 204
204 204 204
204 204 204
204 204 204
204 204 204
204 204 204
204 204 204
204 204 204
204 204 204
204 204 204
204 204 204
204 204 204
204 204 204
204 204 204
204 204 204
204 204 204
204 204 204
204 204 204
204 204 204
204 204 204
204 204 204
204 204 204
204 204 204
204 204 204
204 204 204
204 204 204
204 204 204
204 204 204
204 204 204
211 159 159
230 25 25
230 25 25
230 25 25
230 25 25
230 25 25
230 25 25
230 25 25
230 25 25
230 25 25
230 25 25
230 25 25
230 25 25
230 25 25
230 25 25
230 25 25
230 25 25
230 25 25
230 25 25
230 25 25
230 25 25
230 25 25
230 25 25
230 25 25
230 25 25
230 25 25
230 25 25
230 25 25
230 25 25
230 25 25
230 25 25
230 25 25
230 25 25
230 25 25
230 25 25
230 25 25
230 25 25
230 25 25
230 25 25
230 25 25
230 25 25
230 25 25
230 25 25
230 25 25
230 25 25
230 25 25
230 25 25
230 25 25
230 25 25
230 25 25
230 25 25
230 25 25
230 25 25
230 25 25
230 25 25
230 25 25
230 25 25
230 25 25
230 25 25
230 25 25
230 25 25
211 159 159
204 204 204
204 204 204
204 204 204
204 204 204
204 204 204
204 204 204
204 204 204
204 204 204
204 204 204
204 204 204
204 204 204
204 204 204
204 204 204
204 204 204
204 204 204
204 204 204
204 204 204
204 204 204
204 204 204
204 204 204
204 204 204
204 204 204
204 204 204
204 204 204
204 204 204
204 204 204
204 204 204
204 204 204
204 204 204
204 204 204
194 194 194
184 184 184
184 184 184
184 184 184
198 83 83
207 23 23
207 23 23
207 23 23
207 23 23
207 23 23
207 23 23
207 23 23
207 23 23
207 23 23
187 164 164
184 184 184
184 184 184
184 184 184
184 184 184
184 184 184
184 184 184
184 184 184
184 184 184
184 184 184
184 184 184
184 184 184
184 184 184
184 184 184
184 184 184
184 184 184
184 184 184
184 184 184
184 184 184
184 184 184
184 184 184
184 184 184
184 184 184
184 184 184
184 184 184
184 184 184
184 184 184
184 184 184
184 184 184
184 184 184
184 184 184
184 184 184
184 184 184
184 184 184
184 184 184
184 184 184
184 184 184
184 184 184
184 184 184
184 184 184
184 184 184
184 184 184
184 184 184
184 184 184
184 184 184
184 184 184
184 184 184
184 184 184
184 184 184
184 184 184
184 184 184
184 184 184
184 184 184
184 184 184
184 184 184
184 184 184
184 184 184
184 184 184
184 184 184
184 184 184
184 184 184
184 184 184
184 184 184
184 184 184
184 184 184
184 184 184
184 184 184
184 184 184
184 184 184
184 184 184
184 184 184
184 184 184
184 184 184
184 184 184
184 184 184
184 184 184
184 184 184
184 184 184
184 184 184
184 184 184
184 184 184
184 184 184
184 184 184
184 184 184
184 184 184
184 184 184
184 184 184
184 184 184
184 184 184
191 191 191
204 204 204
204 204 204
204 204 204
204 204 204
204 204 204
204 204 204
204 204 204
204 204 204
204 204 204
204 204 204
204 204 204
204 204 204
204 204 204
204 204 204
204 204 204
204 204 204
204 204 204
204 204 204
204 204 204
204 204 204
204 204 204
204 204 204
204 204 204
204 204 204
204 204 204
204 204 204
204 204 204
204 204 204
204 204 204
204 204 204
204 204 204
204 204 204
204 204 204
204 204 204
204 204 204
204 204 204
204 204 204
204 204 204
204 204 204
204 204 204
204 204 204
204 204 204
204 204 204
204 204 204
204 204 204
204 204 204
204 204 204
204 204 204
204 204 204
204 204 204
204 204 204
204 204 204
204 204 204
204 204 204
204 204 204
204 204 204
204 204 204
204 204 204
204 204 204
204 204 204
204 204 204
204 204 204
204 204 204
204 204 204
204 204 204
204 204 204
204 204 204
204 204 204
204 204 204
204 204 204
204 204 204
204 204 204
204 204 204
204 204 204
204 204 204
204 204 204
204 204 204
204 204 204
204 204 204
204 204 204
204 204 204
204 204 204
204 204 204
204 204 204
204 204 204
204 204 204
204 204 204
204 204 204
204 204 204
204 204 204
204 204 204
204 204 204
204 204 204
204 204 204
204 204 204
204 204 204
204 204 204
204 204 204
204 204 204
204 204 204
204 204 204
204 204 204
204 204 204
204 204 204
204 204 204
204 204 204
204 204 204
204 204 204
204 204 204
204 204 204
204 204 204
204 204 204
204 204 204
204 204 204
204 204 204
204 204 204
204 204 204
204 204 204
204 204 204
204 204 204
204 204 204
204 204 204
204 204 204
204 204 204
204 204 204
204 204 204
204 204 204
204 204 204
204 204 204
204 204 204
204 204 204
204 204 204
204 204 204
204 204 204
204 204 204
204 204 204
204 204 204
204 204 204
204 204 204
204 204 204
204 204 204
204 204 204
204 204 204
204 204 204
204 204 204
204 204 204
204 204 204
204 204 204
204 204 204
204 204 204
204 204 204
204 204 204
204 204 204
204 204 204
204 204 204
204 204 204
204 204 204
204 204 204
204 204 204
204 204 204
204 204 204
204 204 204
204 204 204
204 204 204
204 204 204
204 204 204
204 204 204
204 204 204
204 204 204
204 204 204
204 204 204
204 204 204
204 204 204
204 204 204
204 204 204
204 204 204
204 204 204
204 204 204
204 204 204
204 204 204
204 204 204
204 204 204
204 204 204
204 204 204
204 204 204
204 204 204
204 204 204
204 204 204
204 204 204
204 204 204
204 204 204
204 204 204
204 204 204
204 204 204
204 204 204
204 204 204
204 204 204
204 204 204
204 204 204
204 204 204
204 204 204
204 204 204
204 204 204
204 204 204
230 25 25
230 25 25
230 25 25
230 25 25
230 25 25
230 25 25
230 25 25
230 25 25
230 25 25
230 25 25
230 25 25
230 25 25
230 25 25
230 25 25
230 25 25
230 25 25
230 25 25
230 25 25
230 25 25
230 25 25
230 25 25
230 25 25
230 25 25
230 25 25
230 25 25
230 25 25
230 25 25
230 25 25
230 25 25
230 25 25
230 25 25
230 25 25
230 25 25
230 25 25
230 25 25
230 25 25
230 25 25
230 25 25
230 25 25
230 25 25
230 25 25
230 25 25
230 25 25
230 25 25
230 25 25
230 25 25
230 25 25
230 25 25
230 25 25
230 25 25
230 25 25
230 25 25
230 25 25
230 25 25
230 25 25
230 25 25
230 25 25
230 25 25
230 25 25
230 25 25
230 25 25
230 25 25
204 204 204
204 204 204
204 204 204
204 204 204
204 204 204
204 204 204
204 204 204
204 204 204
204 204 204
204 204 204
204 204 204
204 204 204
204 204 204
204 204 204
204 204 204
204 204 204
204 204 204
204 204 204
204 204 204
204 204 204
204 204 204
204 204 204
204 204 204
204 204 204
204 204 204
204 204 204
204 204 204
204 204 204
204 204 204
204 204 204
194 194 194
184 184 184
184 184 184
184 184 184
198 83 83
207 23 23
207 23 23
207 23 23
207 23 23
207 23 23
207 23 23
207 23 23
207 23 23
207 23 23
192 123 123
184 184 184
184 184 184
184 184 184
184 184 184
184 184 184
184 184 184
184 184 184
184 184 184
184 184 184
184 184 184
184 184 184
184 184 184
184 184 184
184 184 184
184 184 184
184 184 184
184 184 184
184 184 184
184 184 184
184 184 184
184 184 184
184 184 184
184 184 184
184 184 184
184 184 184
184 184 184
184 184 184
184 184 184
184 184 184
184 184 184
184 184 184
184 184 184
184 184 184
184 184 184
184 184 184
184 184 184
184 184 184
184 184 184
184 184 184
184 184 184
184 184 184
184 184 184
184 184 184
184 184 184
184 184 184
184 184 184
184 184 184
184 184 184
184 184 184
184 184 184
184 184 184
184 184 184
184 184 184
184 184 184
184 184 184
184 184 184
184 184 184
184 184 184
184 184 184
184 184 184
184 184 184
184 184 184
184 184 184
184 184 184
184 184 184
184 184 184
184 184 184
184 184 184
184 184 184
184 184 184
184 184 184
184 184 184
184 184 184
184 184 184
184 184 184
184 184 184
184 184 184
184 184 184
184 184 184
184 184 184
184 184 184
184 184 184
184 184 184
184 184 184
184 184 184
184 184 184
184 184 184
184 184 184
194 194 194
204 204 204
204 204 204
204 204 204
204 204 204
204 204 204
204 204 204
204 204 204
204 204 204
204 204 204
204 204 204
204 204 204
204 204 204
204 204 204
204 204 204
204 204 204
204 204 204
204 204 204
204 204 204
204 204 204
204 204 204
204 204 204
204 204 204
204 204 204
204 204 204
204 204 204
204 204 204
204 204 204
204 204 204
204 204 204
204 204 204
204 204 204
204 204 204
204 204 204
204 204 204
204 204 204
204 204 204
204 204 204
204 204 204
204 204 204
204 204 204
204 204 204
204 204 204
204 204 204
204 204 204
204 204 204
204 204 204
204 204 204
204 204 204
204 204 204
204 204 204
204 204 204
204 204 204
204 204 204
204 204 204
204 204 204
204 204 204
204 204 204
204 204 204
204 204 204
204 204 204
204 204 204
204 204 204
204 204 204
204 204 204
204 204 204
204 204 204
204 204 204
204 204 204
204 204 204
204 204 204
204 204 204
204 204 204
204 204 204
204 204 204
204 204 204
204 204 204
204 204 204
204 204 204
204 204 204
204 204 204
204 204 204
204 204 204
204 204 204
204 204 204
204 204 204
204 204 204
204 204 204
204 204 204
204 204 204
204 204 204
204 204 204
204 204 204
204 204 204
204 204 204
204 204 204
204 204 204
204 204 204
204 204 204
204 204 204
204 204 204
204 204 204
204 204 204
204 204 204
204 204 204
204 204 204
204 204 204
204 204 204
204 204 204
204 204 204
204 204 204
204 204 204
204 204 204
204 204 204
204 204 204
204 204 204
204 204 204
204 204 204
204 204 204
204 204 204
204 204 204
204 204 204
204 204 204
204 204 204
204 204 204
204 204 204
204 204 204
204 204 204
204 204 204
204 204 204
204 204 204
204 204 204
204 204 204
204 204 204
204 204 204
204 204 204
204 204 204
204 204 204
204 204 204
204 204 204
204 204 204
204 204 204
204 204 204
204 204 204
204 204 204
204 204 204
204 204 204
204 204 204
204 204 204
204 204 204
204 204 204
204 204 204
204 204 204
204 204 204
204 204 204
204 204 204
204 204 204
204 204 204
204 204 204
204 204 204
204 204 204
204 204 204
204 204 204
204 204 204
204 204 204
204 204 204
204 204 204
204 204 204
204 204 204
204 204 204
204 204 204
204 204 204
204 204 204
204 204 204
204 204 204
204 204 204
204 204 204
204 204 204
204 204 204
204 204 204
204 204 204
204 204 204
204 204 204
204 204 204
204 204 204
204 204 204
204 204 204
204 204 204
204 204 204
204 204 204
204 204 204
204 204 204
204 204 204
204 204 204
204 204 204
204 204 204
204 204 204
204 204 204
204 204 204
204 204 204
204 204 204
204 204 204
204 204 204
207 182 182
230 25 25
230 25 25
230 25 25
230 25 25
230 25 25
230 25 25
230 25 25
230 25 25
230 25 25
230 25 25
230 25 25
230 25 25
230 25 25
230 25 25
230 25 25
230 25 25
230 25 25
230 25 25
230 25 25
230 25 25
230 25 25
230 25 25
230 25 25
230 25 25
230 25 25
230 25 25
230 25 25
230 25 25
230 25 25
230 25 25
230 25 25
230 25 25
230 25 25
230 25 25
230 25 25
230 25 25
230 25 25
230 25 25
230 25 25
230 25 25
230 25 25
230 25 25
230 25 25
230 25 25
230 25 25
230 25 25
230 25 25
230 25 25
230 25 25
230 25 25
230 25 25
230 25 25
230 25 25
230 25 25
230 25 25
230 25 25
230 25 25
230 25 25
230 25 25
230 25 25
230 25 25
230 25 25
230 25 25
220 92 92
204 204 204
204 204 204
204 204 204
204 204 204
204 204 204
204 204 204
204 204 204
204 204 204
204 204 204
204 204 204
204 204 204
204 204 204
204 204 204
204 204 204
204 204 204
204 204 204
204 204 204
204 204 204
204 204 204
204 204 204
204 204 204
204 204 204
204 204 204
204 204 204
204 204 204
204 204 204
204 204 204
204 204 204
204 204 204
197 197 197
184 184 184
184 184 184
184 184 184
207 23 23
207 23 23
207 23 23
207 23 23
207 23 23
207 23 23
207 23 23
207 23 23
207 23 23
207 23 23
207 23 23
184 184 184
184 184 184
184 184 184
184 184 184
184 184 184
184 184 184
184 184 184
184 184 184
184 184 184
184 184 184
184 184 184
184 184 184
184 184 184
184 184 184
184 184 184
184 184 184
184 184 184
184 184 184
184 184 184
184 184 184
184 184 184
184 184 184
184 184 184
184 184 184
184 184 184
184 184 184
184 184 184
184 184 184
184 184 184
184 184 184
184 184 184
184 184 184
184 184 184
184 184 184
184 184 184
184 184 184
184 184 184
184 184 184
184 184 184
184 184 184
184 184 184
184 184 184
184 184 184
184 184 184
184 184 184
184 184 184
184 184 184
184 184 184
184 184 184
184 184 184
184 184 184
184 184 184
184 184 184
184 184 184
184 184 184
184 184 184
184 184 184
184 184 184
184 184 184
184 184 184
184 184 184
184 184 184
184 184 184
184 184 184
184 184 184
184 184 184
184 184 184
184 184 184
184 184 184
184 184 184
184 184 184
184 184 184
184 184 184
184 184 184
184 184 184
184 184 184
184 184 184
184 184 184
184 184 184
184 184 184
184 184 184
184 184 184
184 184 184
184 184 184
184 184 184
184 184 184
184 184 184
184 184 184
189 189 189
204 204 204
204 204 204
204 204 204
204 204 204
204 204 204
204 204 204
204 204 204
204 204 204
204 204 204
204 204 204
204 204 204
204 204 204
204 204 204
204 204 204
204 204 204
204 204 204
204 204 204
204 204 204
204 204 204
204 204 204
204 204 204
204 204 204
204 204 204
204 204 204
204 204 204
204 204 204
204 204 204
204 204 204
204 204 204
204 204 204
204 204 204
204 204 204
204 204 204
204 204 204
204 204 204
204 204 204
204 204 204
204 204 204
204 204 204
204 204 204
204 204 204
204 204 204
204 204 204
204 204 204
204 204 204
204 204 204
204 204 204
204 204 204
204 204 204
204 204 204
204 204 204
204 204 204
204 204 204
204 204 204
204 204 204
204 204 204
204 204 204
204 204 204
204 204 204
204 204 204
204 204 204
204 204 204
204 204 204
204 204 204
204 204 204
204 204 204
204 204 204
204 204 204
204 204 204
204 204 204
204 204 204
204 204 204
204 204 204
204 204 204
204 204 204
204 204 204
204 204 204
204 204 204
204 204 204
204 204 204
204 204 204
204 204 204
204 204 204
204 204 204
204 204 204
204 204 204
204 204 204
204 204 204
204 204 204
204 204 204
204 204 204
204 204 204
204 204 204
204 204 204
204 204 204
204 204 204
204 204 204
204 204 204
204 204 204
204 204 204
204 204 204
204 204 204
204 204 204
204 204 204
204 204 204
204 204 204
204 204 204
204 204 204
204 204 204
204 204 204
204 204 204
204 204 204
204 204 204
204 204 204
204 204 204
204 204 204
204 204 204
204 204 204
204 204 204
204 204 204
204 204 204
204 204 204
204 204 204
204 204 204
204 204 204
204 204 204
204 204 204
204 204 204
204 204 204
204 204 204
204 204 204
204 204 204
204 204 204
204 204 204
204 204 204
204 204 204
204 204 204
204 204 204
204 204 204
204 204 204
204 204 204
204 204 204
204 204 204
204 204 204
204 204 204
204 204 204
204 204 204
204 204 204
204 204 204
204 204 204
204 204 204
204 204 204
204 204 204
204 204 204
204 204 204
204 204 204
204 204 204
204 204 204
204 204 204
204 204 204
204 204 204
204 204 204
204 204 204
204 204 204
204 204 204
204 204 204
204 204 204
204 204 204
204 204 204
204 204 204
204 204 204
204 204 204
204 204 204
204 204 204
204 204 204
204 204 204
204 204 204
204 204 204
204 204 204
204 204 204
204 204 204
204 204 204
204 204 204
204 204 204
204 204 204
204 204 204
204 204 204
204 204 204
204 204 204
204 204 204
204 204 204
204 204 204
204 204 204
204 204 204
204 204 204
204 204 204
204 204 204
204 204 204
204 204 204
204 204 204
204 204 204
204 204 204
227 47 47
230 25 25
230 25 25
230 25 25
230 25 25
230 25 25
230 25 25
230 25 25
230 25 25
230 25 25
230 25 25
230 25 25
230 25 25
230 25 25
230 25 25
230 25 25
230 25 25
230 25 25
230 25 25
230 25 25
230 25 25
230 25 25
230 25 25
230 25 25
230 25 25
230 25 25
230 25 25
230 25 25
230 25 25
230 25 25
230 25 25
230 25 25
230 25 25
230 25 25
230 25 25
230 25 25
230 25 25
230 25 25
230 25 25
230 25 25
230 25 25
230 25 25
230 25 25
230 25 25
230 25 25
230 25 25
230 25 25
230 25 25
230 25 25
230 25 25
230 25 25
230 25 25
230 25 25
230 25 25
230 25 25
230 25 25
230 25 25
230 25 25
230 25 25
230 25 25
230 25 25
230 25 25
230 25 25
230 25 25
230 25 25
214 137 137
204 204 204
204 204 204
204 204 204
204 204 204
204 204 204
204 204 204
204 204 204
204 204 204
204 204 204
204 204 204
204 204 204
204 204 204
204 204 204
204 204 204
204 204 204
204 204 204
204 204 204
204 204 204
204 204 204
204 204 204
204 204 204
204 204 204
204 204 204
204 204 204
204 204 204
204 204 204
204 204 204
204 204 204
197 197 197
184 184 184
184 184 184
184 184 184
207 23 23
207 23 23
207 23 23
207 23 23
207 23 23
207 23 23
207 23 23
207 23 23
207 23 23
207 23 23
207 23 23
190 143 143
184 184 184
184 184 184
184 184 184
184 184 184
184 184 184
184 184 184
184 184 184
184 184 184
184 184 184
184 184 184
184 184 184
184 184 184
184 184 184
184 184 184
184 184 184
184 184 184
184 184 184
184 184 184
184 184 184
184 184 184
184 184 184
184 184 184
184 184 184
184 184 184
184 184 184
184 184 184
184 184 184
184 184 184
184 184 184
184 184 184
184 184 184
184 184 184
184 184 184
184 184 184
184 184 184
184 184 184
184 184 184
184 184 184
184 184 184
184 184 184
184 184 184
184 184 184
184 184 184
184 184 184
184 184 184
184 184 184
184 184 184
184 184 184
184 184 184
184 184 184
184 184 184
184 184 184
184 184 184
184 184 184
184 184 184
184 184 184
184 184 184
184 184 184
184 184 184
184 184 184
184 184 184
184 184 184
184 184 184
184 184 184
184 184 184
184 184 184
184 184 184
184 184 184
184 184 184
184 184 184
184 184 184
184 184 184
184 184 184
184 184 184
164 187 164
83 198 83
23 207 23
63 201 63
143 190 143
184 184 184
184 184 184
184 184 184
184 184 184
184 184 184
184 184 184
184 184 184
184 184 184
202 202 202
204 204 204
204 204 204
204 204 204
204 204 204
204 204 204
204 204 204
204 204 204
204 204 204
204 204 204
204 204 204
204 204 204
204 204 204
204 204 204
204 204 204
204 204 204
204 204 204
204 204 204
204 204 204
204 204 204
204 204 204
204 204 204
204 204 204
204 204 204
204 204 204
204 204 204
204 204 204
204 204 204
204 204 204
204 204 204
204 204 204
204 204 204
204 204 204
204 204 204
204 204 204
204 204 204
204 204 204
204 204 204
204 204 204
204 204 204
204 204 204
204 204 204
204 204 204
204 204 204
204 204 204
204 204 204
204 204 204
204 204 204
204 204 204
204 204 204
204 204 204
204 204 204
204 204 204
204 204 204
204 204 204
204 204 204
204 204 204
204 204 204
204 204 204
204 204 204
204 204 204
204 204 204
204 204 204
204 204 204
204 204 204
204 204 204
204 204 204
204 204 204
204 204 204
204 204 204
204 204 204
204 204 204
204 204 204
204 204 204
204 204 204
204 204 204
204 204 204
204 204 204
204 204 204
204 204 204
204 204 204
204 204 204
204 204 204
204 204 204
204 204 204
204 204 204
204 204 204
204 204 204
204 204 204
204 204 204
204 204 204
204 204 204
204 204 204
204 204 204
204 204 204
204 204 204
204 204 204
204 204 204
204 204 204
204 204 204
204 204 204
204 204 204
204 204 204
204 204 204
204 204 204
204 204 204
204 204 204
204 204 204
204 204 204
204 204 204
204 204 204
204 204 204
204 204 204
204 204 204
204 204 204
204 204 204
204 204 204
204 204 204
204 204 204
204 204 204
204 204 204
204 204 204
204 204 204
204 204 204
204 204 204
204 204 204
204 204 204
204 204 204
204 204 204
204 204 204
204 204 204
204 204 204
204 204 204
204 204 204
204 204 204
204 204 204
204 204 204
204 204 204
204 204 204
204 204 204
204 204 204
204 204 204
204 204 204
204 204 204
204 204 204
204 204 204
204 204 204
204 204 204
204 204 204
204 204 204
204 204 204
204 204 204
204 204 204
204 204 204
204 204 204
204 204 204
204 204 204
204 204 204
204 204 204
204 204 204
204 204 204
204 204 204
204 204 204
204 204 204
204 204 204
204 204 204
204 204 204
204 204 204
204 204 204
204 204 204
204 204 204
204 204 204
204 204 204
204 204 204
204 204 204
204 204 204
204 204 204
204 204 204
204 204 204
204 204 204
204 204 204
204 204 204
204 204 204
204 204 204
204 204 204
204 204 204
204 204 204
204 204 204
204 204 204
204 204 204
204 204 204
204 204 204
204 204 204
204 204 204
204 204 204
204 204 204
204 204 204
204 204 204
204 204 204
204 204 204
204 204 204
204 204 204
223 70 70
230 25 25
230 25 25
230 25 25
230 25 25
230 25 25
230 25 25
230 25 25
230 25 25
230 25 25
230 25 25
230 25 25
230 25 25
230 25 25
230 25 25
230 25 25
230 25 25
230 25 25
230 25 25
230 25 25
230 25 25
230 25 25
230 25 25
230 25 25
230 25 25
230 25 25
230 25 25
230 25 25
230 25 25
230 25 25
230 25 25
230 25 25
230 25 25
230 25 25
230 25 25
230 25 25
230 25 25
230 25 25
230 25 25
230 25 25
230 25 25
230 25 25
230 25 25
230 25 25
230 25 25
230 25 25
230 25 25
230 25 25
230 25 25
230 25 25
230 25 25
230 25 25
230 25 25
230 25 25
230 25 25
230 25 25
230 25 25
230 25 25
230 25 25
230 25 25
230 25 25
230 25 25
230 25 25
230 25 25
230 25 25
230 25 25
230 25 25
207 182 182
204 204 204
204 204 204
204 204 204
204 204 204
204 204 204
204 204 204
204 204 204
204 204 204
204 204 204
204 204 204
204 204 204
204 204 204
204 204 204
204 204 204
204 204 204
204 204 204
204 204 204
204 204 204
204 204 204
204 204 204
204 204 204
204 204 204
204 204 204
204 204 204
204 204 204
204 204 204
204 204 204
194 194 194
184 184 184
184 184 184
184 184 184
207 23 23
207 23 23
207 23 23
207 23 23
207 23 23
207 23 23
207 23 23
207 23 23
207 23 23
207 23 23
207 23 23
195 103 103
184 184 184
184 184 184
184 184 184
184 184 184
184 184 184
184 184 184
184 184 184
184 184 184
184 184 184
184 184 184
184 184 184
184 184 184
184 184 184
184 184 184
184 184 184
184 184 184
184 184 184
184 184 184
184 184 184
184 184 184
184 184 184
184 184 184
184 184 184
184 184 184
184 184 184
184 184 184
184 184 184
184 184 184
184 184 184
184 184 184
184 184 184
184 184 184
184 184 184
184 184 184
184 184 184
184 184 184
184 184 184
184 184 184
184 184 184
184 184 184
184 184 184
184 184 184
184 184 184
184 184 184
184 184 184
184 184 184
184 184 184
184 184 184
184 184 184
184 184 184
184 184 184
184 184 184
184 184 184
184 184 184
184 184 184
184 184 184
184 184 184
184 184 184
184 184 184
184 184 184
184 184 184
184 184 184
184 184 184
184 184 184
184 184 184
184 184 184
184 184 184
184 184 184
184 184 184
184 184 184
184 184 184
184 184 184
184 184 184
164 187 164
43 204 43
23 207 23
23 207 23
23 207 23
43 204 43
184 184 184
184 184 184
184 184 184
184 184 184
184 184 184
184 184 184
184 184 184
184 184 184
194 194 194
204 204 204
204 204 204
204 204 204
204 204 204
204 204 204
204 204 204
204 204 204
204 204 204
204 204 204
204 204 204
204 204 204
204 204 204
204 204 204
204 204 204
204 204 204
204 204 204
204 204 204
204 204 204
204 204 204
204 204 204
204 204 204
204 204 204
204 204 204
204 204 204
204 204 204
204 204 204
204 204 204
204 204 204
204 204 204
204 204 204
204 204 204
204 204 204
204 204 204
204 204 204
204 204 204
204 204 204
204 204 204
204 204 204
204 204 204
204 204 204
204 204 204
204 204 204
204 204 204
204 204 204
204 204 204
204 204 204
204 204 204
204 204 204
204 204 204
204 204 204
204 204 204
204 204 204
204 204 204
204 204 204
204 204 204
204 204 204
204 204 204
204 204 204
204 204 204
204 204 204
204 204 204
204 204 204
204 204 204
204 204 204
204 204 204
204 204 204
204 204 204
204 204 204
204 204 204
204 204 204
204 204 204
204 204 204
204 204 204
204 204 204
204 204 204
204 204 204
204 204 204
204 204 204
204 204 204
204 204 204
204 204 204
204 204 204
204 204 204
204 204 204
204 204 204
204 204 204
204 204 204
204 204 204
204 204 204
204 204 204
204 204 204
204 204 204
204 204 204
204 204 204
204 204 204
204 204 204
204 204 204
204 204 204
204 204 204
204 204 204
204 204 204
204 204 204
204 204 204
204 204 204
204 204 204
204 204 204
204 204 204
204 204 204
204 204 204
204 204 204
204 204 204
204 204 204
204 204 204
204 204 204
204 204 204
204 204 204
204 204 204
204 204 204
204 204 204
204 204 204
204 204 204
204 204 204
204 204 204
204 204 204
204 204 204
204 204 204
204 204 204
204 204 204
204 204 204
204 204 204
204 204 204
204 204 204
204 204 204
204 204 204
204 204 204
204 204 204
204 204 204
204 204 204
204 204 204
204 204 204
204 204 204
204 204 204
204 204 204
204 204 204
204 204 204
204 204 204
204 204 204
204 204 204
204 204 204
204 204 204
204 204 204
204 204 204
204 204 204
204 204 204
204 204 204
204 204 204
204 204 204
204 204 204
204 204 204
204 204 204
204 204 204
204 204 204
204 204 204
204 204 204
204 204 204
204 204 204
204 204 204
204 204 204
204 204 204
204 204 204
204 204 204
204 204 204
204 204 204
204 204 204
204 204 204
204 204 204
204 204 204
204 204 204
204 204 204
204 204 204
204 204 204
204 204 204
204 204 204
204 204 204
204 204 204
204 204 204
204 204 204
204 204 204
204 204 204
204 204 204
204 204 204
204 204 204
204 204 204
204 204 204
204 204 204
204 204 204
204 204 204
204 204 204
204 204 204
204 204 204
207 182 182
230 25 25
230 25 25
230 25 25
230 25 25
230 25 25
230 25 25
230 25 25
230 25 25
230 25 25
230 25 25
230 25 25
230 25 25
230 25 25
230 25 25
230 25 25
230 25 25
230 25 25
230 25 25
230 25 25
230 25 25
230 25 25
230 25 25
230 25 25
230 25 25
230 25 25
230 25 25
230 25 25
230 25 25
230 25 25
230 25 25
230 25 25
230 25 25
230 25 25
230 25 25
230 25 25
230 25 25
230 25 25
230 25 25
230 25 25
230 25 25
230 25 25
230 25 25
230 25 25
230 25 25
230 25 25
230 25 25
230 25 25
230 25 25
230 25 25
230 25 25
230 25 25
230 25 25
230 25 25
230 25 25
230 25 25
230 25 25
230 25 25
230 25 25
230 25 25
230 25 25
230 25 25
230 25 25
230 25 25
230 25 25
230 25 25
230 25 25
230 25 25
220 92 92
204 204 204
204 204 204
204 204 204
204 204 204
204 204 204
204 204 204
204 204 204
204 204 204
204 204 204
204 204 204
204 204 204
204 204 204
204 204 204
204 204 204
204 204 204
204 204 204
204 204 204
204 204 204
204 204 204
204 204 204
204 204 204
204 204 204
204 204 204
204 204 204
204 204 204
204 204 204
204 204 204
197 197 197
184 184 184
184 184 184
184 184 184
207 23 23
207 23 23
207 23 23
207 23 23
207 23 23
207 23 23
207 23 23
207 23 23
207 23 23
207 23 23
207 23 23
201 63 63
184 184 184
184 184 184
184 184 184
184 184 184
184 184 184
184 184 184
184 184 184
184 184 184
184 184 184
184 184 184
184 184 184
184 184 184
184 184 184
184 184 184
184 184 184
184 184 184
184 184 184
184 184 184
184 184 184
184 184 184
184 184 184
184 184 184
184 184 184
184 184 184
184 184 184
184 184 184
184 184 184
184 184 184
184 184 184
184 184 184
184 184 184
184 184 184
184 184 184
184 184 184
184 184 184
184 184 184
184 184 184
184 184 184
184 184 184
184 184 184
184 184 184
184 184 184
184 184 184
184 184 184
184 184 184
184 184 184
184 184 184
184 184 184
184 184 184
184 184 184
184 184 184
184 184 184
184 184 184
184 184 184
184 184 184
184 184 184
184 184 184
184 184 184
184 184 184
184 184 184
184 184 184
184 184 184
184 184 184
184 184 184
184 184 184
184 184 184
184 184 184
184 184 184
184 184 184
184 184 184
184 184 184
184 184 184
184 184 184
63 201 63
23 207 23
23 207 23
23 207 23
23 207 23
23 207 23
123 192 123
184 184 184
184 184 184
184 184 184
184 184 184
184 184 184
184 184 184
184 184 184
202 202 202
204 204 204
204 204 204
204 204 204
204 204 204
204 204 204
204 204 204
204 204 204
204 204 204
204 204 204
204 204 204
204 204 204
204 204 204
204 204 204
204 204 204
204 204 204
204 204 204
204 204 204
204 204 204
204 204 204
204 204 204
204 204 204
204 204 204
204 204 204
204 204 204
204 204 204
204 204 204
204 204 204
204 204 204
204 204 204
204 204 204
204 204 204
204 204 204
204 204 204
204 204 204
204 204 204
204 204 204
204 204 204
204 204 204
204 204 204
204 204 204
204 204 204
204 204 204
204 204 204
204 204 204
204 204 204
204 204 204
204 204 204
204 204 204
204 204 204
204 204 204
204 204 204
204 204 204
204 204 204
204 204 204
204 204 204
204 204 204
204 204 204
204 204 204
204 204 204
204 204 204
204 204 204
204 204 204
204 204 204
204 204 204
204 204 204
204 204 204
204 204 204
204 204 204
204 204 204
204 204 204
204 204 204
204 204 204
204 204 204
204 204 204
204 204 204
204 204 204
204 204 204
204 204 204
204 204 204
204 204 204
204 204 204
204 204 204
204 204 204
204 204 204
204 204 204
204 204 204
204 204 204
204 204 204
204 204 204
204 204 204
204 204 204
204 204 204
204 204 204
204 204 204
204 204 204
204 204 204
204 204 204
204 204 204
204 204 204
204 204 204
204 204 204
204 204 204
204 204 204
204 204 204
204 204 204
204 204 204
204 204 204
204 204 204
204 204 204
204 204 204
204 204 204
204 204 204
204 204 204
204 204 204
204 204 204
204 204 204
204 204 204
204 204 204
204 204 204
204 204 204
204 204 204
204 204 204
204 204 204
204 204 204
204 204 204
204 204 204
204 204 204
204 204 204
204 204 204
204 204 204
204 204 204
204 204 204
204 204 204
204 204 204
204 204 204
204 204 204
204 204 204
204 204 204
204 204 204
204 204 204
204 204 204
204 204 204
204 204 204
204 204 204
204 204 204
204 204 204
204 204 204
204 204 204
204 204 204
204 204 204
204 204 204
204 204 204
204 204 204
204 204 204
204 204 204
204 204 204
204 204 204
204 204 204
204 204 204
204 204 204
204 204 204
204 204 204
204 204 204
204 204 204
204 204 204
204 204 204
204 204 204
204 204 204
204 204 204
204 204 204
204 204 204
204 204 204
204 204 204
204 204 204
204 204 204
204 204 204
204 204 204
204 204 204
204 204 204
204 204 204
204 204 204
204 204 204
204 204 204
204 204 204
204 204 204
204 204 204
204 204 204
204 204 204
204 204 204
204 204 204
204 204 204
204 204 204
204 204 204
204 204 204
204 204 204
204 204 204
204 204 204
204 204 204
204 204 204
207 182 182
227 47 47
230 25 25
230 25 25
230 25 25
230 25 25
230 25 25
230 25 25
230 25 25
230 25 25
230 25 25
230 25 25
230 25 25
230 25 25
230 25 25
230 25 25
230 25 25
230 25 25
230 25 25
230 25 25
230 25 25
230 25 25
230 25 25
230 25 25
230 25 25
230 25 25
230 25 25
230 25 25
230 25 25
230 25 25
230 25 25
230 25 25
230 25 25
230 25 25
230 25 25
230 25 25
230 25 25
230 25 25
230 25 25
230 25 25
230 25 25
230 25 25
230 25 25
230 25 25
230 25 25
230 25 25
230 25 25
230 25 25
230 25 25
230 25 25
230 25 25
230 25 25
230 25 25
230 25 25
230 25 25
230 25 25
230 25 25
230 25 25
230 25 25
230 25 25
230 25 25
230 25 25
230 25 25
230 25 25
230 25 25
230 25 25
230 25 25
230 25 25
230 25 25
230 25 25
211 159 159
204 204 204
204 204 204
204 204 204
204 204 204
204 204 204
204 204 204
204 204 204
204 204 204
204 204 204
204 204 204
204 204 204
204 204 204
204 204 204
204 204 204
204 204 204
204 204 204
204 204 204
204 204 204
204 204 204
204 204 204
204 204 204
204 204 204
204 204 204
204 204 204
204 204 204
204 204 204
202 202 202
184 184 184
184 184 184
184 184 184
195 103 103
207 23 23
207 23 23
207 23 23
207 23 23
207 23 23
207 23 23
207 23 23
207 23 23
207 23 23
207 23 23
207 23 23
184 184 184
184 184 184
184 184 184
184 184 184
184 184 184
184 184 184
184 184 184
184 184 184
184 184 184
184 184 184
184 184 184
184 184 184
184 184 184
184 184 184
184 184 184
184 184 184
184 184 184
184 184 184
184 184 184
184 184 184
184 184 184
184 184 184
184 184 184
184 184 184
184 184 184
184 184 184
184 184 184
184 184 184
184 184 184
184 184 184
184 184 184
184 184 184
184 184 184
184 184 184
184 184 184
184 184 184
184 184 184
184 184 184
184 184 184
184 184 184
184 184 184
184 184 184
184 184 184
184 184 184
184 184 184
184 184 184
184 184 184
184 184 184
184 184 184
184 184 184
184 184 184
184 184 184
184 184 184
184 184 184
184 184 184
184 184 184
184 184 184
184 184 184
184 184 184
184 184 184
184 184 184
184 184 184
184 184 184
184 184 184
184 184 184
184 184 184
184 184 184
184 184 184
184 184 184
184 184 184
184 184 184
184 184 184
103 195 103
23 207 23
23 207 23
23 207 23
23 207 23
23 207 23
23 207 23
123 192 123
184 184 184
184 184 184
184 184 184
184 184 184
184 184 184
184 184 184
184 184 184
204 204 204
204 204 204
204 204 204
204 204 204
204 204 204
204 204 204
204 204 204
204 204 204
204 204 204
204 204 204
204 204 204
204 204 204
204 204 204
204 204 204
204 204 204
204 204 204
204 204 204
204 204 204
204 204 204
204 204 204
204 204 204
204 204 204
204 204 204
204 204 204
204 204 204
204 204 204
204 204 204
204 204 204
204 204 204
204 204 204
204 204 204
204 204 204
204 204 204
204 204 204
204 204 204
204 204 204
204 204 204
204 204 204
204 204 204
204 204 204
204 204 204
204 204 204
204 204 204
204 204 204
204 204 204
204 204 204
204 204 204
204 204 204
204 204 204
204 204 204
204 204 204
204 204 204
204 204 204
204 204 204
204 204 204
204 204 204
204 204 204
204 204 204
204 204 204
204 204 204
204 204 204
204 204 204
204 204 204
204 204 204
204 204 204
204 204 204
204 204 204
204 204 204
204 204 204
204 204 204
204 204 204
204 204 204
204 204 204
204 204 204
204 204 204
204 204 204
204 204 204
204 204 204
204 204 204
204 204 204
204 204 204
204 204 204
204 204 204
204 204 204
204 204 204
204 204 204
204 204 204
204 204 204
204 204 204
204 204 204
204 204 204
204 204 204
204 204 204
204 204 204
204 204 204
204 204 204
204 204 204
204 204 204
204 204 204
204 204 204
204 204 204
204 204 204
204 204 204
204 204 204
204 204 204
204 204 204
204 204 204
204 204 204
204 204 204
204 204 204
204 204 204
204 204 204
204 204 204
204 204 204
204 204 204
204 204 204
204 204 204
204 204 204
204 204 204
204 204 204
204 204 204
204 204 204
204 204 204
204 204 204
204 204 204
204 204 204
204 204 204
204 204 204
204 204 204
204 204 204
204 204 204
204 204 204
204 204 204
204 204 204
204 204 204
204 204 204
204 204 204
204 204 204
204 204 204
204 204 204
204 204 204
204 204 204
204 204 204
204 204 204
204 204 204
204 204 204
204 204 204
204 204 204
204 204 204
204 204 204
204 204 204
204 204 204
204 204 204
204 204 204
204 204 204
204 204 204
204 204 204
204 204 204
204 204 204
204 204 204
204 204 204
204 204 204
204 204 204
204 204 204
204 204 204
204 204 204
204 204 204
204 204 204
204 204 204
204 204 204
204 204 204
204 204 204
204 204 204
204 204 204
204 204 204
204 204 204
204 204 204
204 204 204
204 204 204
204 204 204
204 204 204
204 204 204
204 204 204
204 204 204
204 204 204
204 204 204
204 204 204
204 204 204
204 204 204
204 204 204
204 204 204
204 204 204
204 204 204
204 204 204
204 204 204
204 204 204
204 204 204
204 204 204
204 204 204
204 204 204
214 137 137
230 25 25
230 25 25
230 25 25
230 25 25
230 25 25
230 25 25
230 25 25
230 25 25
230 25 25
230 25 25
230 25 25
230 25 25
230 25 25
230 25 25
230 25 25
230 25 25
230 25 25
230 25 25
230 25 25
230 25 25
230 25 25
230 25 25
230 25 25
230 25 25
230 25 25
230 25 25
230 25 25
230 25 25
230 25 25
230 25 25
230 25 25
230 25 25
230 25 25
230 25 25
230 25 25
230 25 25
230 25 25
230 25 25
230 25 25
230 25 25
230 25 25
230 25 25
230 25 25
230 25 25
230 25 25
230 25 25
230 25 25
230 25 25
230 25 25
230 25 25
230 25 25
230 25 25
230 25 25
230 25 25
230 25 25
230 25 25
230 25 25
230 25 25
230 25 25
230 25 25
230 25 25
230 25 25
230 25 25
230 25 25
230 25 25
230 25 25
230 25 25
230 25 25
230 25 25
220 92 92
204 204 204
204 204 204
204 204 204
204 204 204
204 204 204
204 204 204
204 204 204
204 204 204
204 204 204
204 204 204
204 204 204
204 204 204
204 204 204
204 204 204
204 204 204
204 204 204
204 204 204
204 204 204
204 204 204
204 204 204
204 204 204
204 204 204
204 204 204
204 204 204
204 204 204
204 204 204
204 204 204
184 184 184
184 184 184
184 184 184
192 123 123
207 23 23
207 23 23
207 23 23
207 23 23
207 23 23
207 23 23
207 23 23
207 23 23
207 23 23
207 23 23
207 23 23
187 164 164
184 184 184
184 184 184
184 184 184
184 184 184
184 184 184
184 184 184
184 184 184
184 184 184
184 184 184
184 184 184
184 184 184
184 184 184
184 184 184
184 184 184
184 184 184
184 184 184
184 184 184
184 184 184
184 184 184
184 184 184
184 184 184
184 184 184
184 184 184
184 184 184
184 184 184
184 184 184
184 184 184
184 184 184
184 184 184
184 184 184
184 184 184
184 184 184
184 184 184
184 184 184
184 184 184
184 184 184
184 184 184
184 184 184
184 184 184
184 184 184
184 184 184
184 184 184
184 184 184
184 184 184
184 184 184
184 184 184
184 184 184
184 184 184
184 184 184
184 184 184
184 184 184
184 184 184
184 184 184
184 184 184
184 184 184
184 184 184
184 184 184
184 184 184
184 184 184
184 184 184
184 184 184
184 184 184
184 184 184
184 184 184
184 184 184
184 184 184
184 184 184
184 184 184
184 184 184
184 184 184
184 184 184
23 207 23
23 207 23
23 207 23
23 207 23
23 207 23
23 207 23
23 207 23
43 204 43
184 184 184
184 184 184
184 184 184
184 184 184
184 184 184
184 184 184
184 184 184
204 204 204
204 204 204
204 204 204
204 204 204
204 204 204
204 204 204
204 204 204
204 204 204
204 204 204
204 204 204
204 204 204
204 204 204
204 204 204
204 204 204
204 204 204
204 204 204
204 204 204
204 204 204
204 204 204
204 204 204
204 204 204
204 204 204
204 204 204
204 204 204
204 204 204
204 204 204
204 204 204
204 204 204
204 204 204
204 204 204
204 204 204
204 204 204
204 204 204
204 204 204
204 204 204
204 204 204
204 204 204
204 204 204
204 204 204
204 204 204
204 204 204
204 204 204
204 204 204
204 204 204
204 204 204
204 204 204
204 204 204
204 204 204
204 204 204
204 204 204
204 204 204
204 204 204
204 204 204
204 204 204
204 204 204
204 204 204
204 204 204
204 204 204
204 204 204
204 204 204
204 204 204
204 204 204
204 204 204
204 204 204
204 204 204
204 204 204
204 204 204
204 204 204
204 204 204
204 204 204
204 204 204
204 204 204
204 204 204
204 204 204
204 204 204
204 204 204
204 204 204
204 204 204
204 204 204
204 204 204
204 204 204
204 204 204
204 204 204
204 204 204
204 204 204
204 204 204
204 204 204
204 204 204
204 204 204
204 204 204
204 204 204
204 204 204
204 204 204
204 204 204
204 204 204
204 204 204
204 204 204
204 204 204
204 204 204
204 204 204
204 204 204
204 204 204
204 204 204
204 204 204
204 204 204
204 204 204
204 204 204
204 204 204
204 204 204
204 204 204
204 204 204
204 204 204
204 204 204
204 204 204
204 204 204
204 204 204
204 204 204
204 204 204
204 204 204
204 204 204
204 204 204
204 204 204
204 204 204
204 204 204
204 204 204
204 204 204
204 204 204
204 204 204
204 204 204
204 204 204
204 204 204
204 204 204
204 204 204
204 204 204
204 204 204
204 204 204
204 204 204
204 204 204
204 204 204
204 204 204
204 204 204
204 204 204
204 204 204
204 204 204
204 204 204
204 204 204
204 204 204
204 204 204
204 204 204
204 204 204
204 204 204
204 204 204
204 204 204
204 204 204
204 204 204
204 204 204
204 204 204
204 204 204
204 204 204
204 204 204
204 204 204
204 204 204
204 204 204
204 204 204
204 204 204
204 204 204
204 204 204
204 204 204
204 204 204
204 204 204
204 204 204
204 204 204
204 204 204
204 204 204
204 204 204
204 204 204
204 204 204
204 204 204
204 204 204
204 204 204
204 204 204
204 204 204
204 204 204
204 204 204
204 204 204
204 204 204
204 204 204
204 204 204
204 204 204
204 204 204
204 204 204
204 204 204
204 204 204
204 204 204
204 204 204
204 204 204
204 204 204
204 204 204
204 204 204
207 182 182
230 25 25
230 25 25
230 25 25
230 25 25
230 25 25
230 25 25
230 25 25
230 25 25
230 25 25
230 25 25
230 25 25
230 25 25
230 25 25
230 25 25
230 25 25
230 25 25
230 25 25
230 25 25
230 25 25
230 25 25
230 25 25
230 25 25
230 25 25
230 25 25
230 25 25
230 25 25
230 25 25
230 25 25
230 25 25
230 25 25
230 25 25
230 25 25
230 25 25
230 25 25
230 25 25
230 25 25
230 25 25
230 25 25
230 25 25
230 25 25
230 25 25
230 25 25
230 25 25
230 25 25
230 25 25
230 25 25
230 25 25
230 25 25
230 25 25
230 25 25
230 25 25
230 25 25
230 25 25
230 25 25
230 25 25
230 25 25
230 25 25
230 25 25
230 25 25
230 25 25
230 25 25
230 25 25
230 25 25
230 25 25
230 25 25
230 25 25
230 25 25
230 25 25
230 25 25
230 25 25
230 25 25
211 159 159
204 204 204
204 204 204
204 204 204
204 204 204
204 204 204
204 204 204
204 204 204
204 204 204
204 204 204
204 204 204
204 204 204
204 204 204
204 204 204
204 204 204
204 204 204
204 204 204
204 204 204
204 204 204
204 204 204
204 204 204
204 204 204
204 204 204
204 204 204
204 204 204
204 204 204
204 204 204
186 186 186
184 184 184
184 184 184
192 123 123
207 23 23
207 23 23
207 23 23
207 23 23
207 23 23
207 23 23
207 23 23
207 23 23
207 23 23
207 23 23
207 23 23
198 83 83
184 184 184
184 184 184
184 184 184
184 184 184
184 184 184
184 184 184
184 184 184
184 184 184
184 184 184
184 184 184
184 184 184
184 184 184
184 184 184
184 184 184
184 184 184
184 184 184
184 184 184
184 184 184
184 184 184
184 184 184
184 184 184
184 184 184
184 184 184
184 184 184
184 184 184
184 184 184
184 184 184
184 184 184
184 184 184
184 184 184
184 184 184
184 184 184
184 184 184
184 184 184
184 184 184
184 184 184
184 184 184
184 184 184
184 184 184
184 184 184
184 184 184
184 184 184
184 184 184
184 184 184
184 184 184
184 184 184
184 184 184
184 184 184
184 184 184
184 184 184
184 184 184
184 184 184
184 184 184
184 184 184
184 184 184
184 184 184
184 184 184
184 184 184
184 184 184
184 184 184
184 184 184
184 184 184
184 184 184
184 184 184
184 184 184
184 184 184
184 184 184
184 184 184
184 184 184
184 184 184
123 192 123
23 207 23
23 207 23
23 207 23
23 207 23
23 207 23
23 207 23
23 207 23
103 195 103
184 184 184
184 184 184
184 184 184
184 184 184
184 184 184
184 184 184
186 186 186
204 204 204
204 204 204
204 204 204
204 204 204
204 204 204
204 204 204
204 204 204
204 204 204
204 204 204
204 204 204
204 204 204
204 204 204
204 204 204
204 204 204
204 204 204
204 204 204
204 204 204
204 204 204
204 204 204
204 204 204
204 204 204
204 204 204
204 204 204
204 204 204
204 204 204
204 204 204
204 204 204
204 204 204
204 204 204
204 204 204
204 204 204
204 204 204
204 204 204
204 204 204
204 204 204
204 204 204
204 204 204
204 204 204
204 204 204
204 204 204
204 204 204
204 204 204
204 204 204
204 204 204
204 204 204
204 204 204
204 204 204
204 204 204
204 204 204
204 204 204
204 204 204
204 204 204
204 204 204
204 204 204
204 204 204
204 204 204
204 204 204
204 204 204
204 204 204
204 204 204
204 204 204
204 204 204
204 204 204
204 204 204
204 204 204
204 204 204
204 204 204
204 204 204
204 204 204
204 204 204
204 204 204
204 204 204
204 204 204
204 204 204
204 204 204
204 204 204
204 204 204
204 204 204
204 204 204
204 204 204
204 204 204
204 204 204
204 204 204
204 204 204
204 204 204
204 204 204
204 204 204
204 204 204
204 204 204
204 204 204
204 204 204
204 204 204
204 204 204
204 204 204
204 204 204
204 204 204
204 204 204
204 204 204
204 204 204
204 204 204
204 204 204
204 204 204
204 204 204
204 204 204
204 204 204
204 204 204
204 204 204
204 204 204
204 204 204
204 204 204
204 204 204
204 204 204
204 204 204
204 204 204
204 204 204
204 204 204
204 204 204
204 204 204
204 204 204
204 204 204
204 204 204
204 204 204
204 204 204
204 204 204
204 204 204
204 204 204
204 204 204
204 204 204
204 204 204
204 204 204
204 204 204
204 204 204
204 204 204
204 204 204
204 204 204
204 204 204
204 204 204
204 204 204
204 204 204
204 204 204
204 204 204
204 204 204
204 204 204
204 204 204
204 204 204
204 204 204
204 204 204
204 204 204
204 204 204
204 204 204
204 204 204
204 204 204
204 204 204
204 204 204
204 204 204
204 204 204
204 204 204
204 204 204
204 204 204
204 204 204
204 204 204
204 204 204
204 204 204
204 204 204
204 204 204
204 204 204
204 204 204
204 204 204
204 204 204
204 204 204
204 204 204
204 204 204
204 204 204
204 204 204
204 204 204
204 204 204
204 204 204
204 204 204
204 204 204
204 204 204
204 204 204
204 204 204
204 204 204
204 204 204
204 204 204
204 204 204
204 204 204
204 204 204
204 204 204
204 204 204
204 204 204
204 204 204
204 204 204
204 204 204
204 204 204
204 204 204
204 204 204
204 204 204
204 204 204
220 92 92
230 25 25
230 25 25
230 25 25
230 25 25
230 25 25
230 25 25
230 25 25
230 25 25
230 25 25
230 25 25
230 25 25
230 25 25
230 25 25
230 25 25
230 25 25
230 25 25
230 25 25
230 25 25
230 25 25
230 25 25
230 25 25
230 25 25
230 25 25
230 25 25
230 25 25
230 25 25
230 25 25
230 25 25
230 25 25
230 25 25
230 25 25
230 25 25
230 25 25
230 25 25
230 25 25
230 25 25
230 25 25
230 25 25
230 25 25
230 25 25
230 25 25
230 25 25
230 25 25
230 25 25
230 25 25
230 25 25
230 25 25
230 25 25
230 25 25
230 25 25
230 25 25
230 25 25
230 25 25
230 25 25
230 25 25
230 25 25
230 25 25
230 25 25
230 25 25
230 25 25
230 25 25
230 25 25
230 25 25
230 25 25
230 25 25
230 25 25
230 25 25
230 25 25
230 25 25
230 25 25
230 25 25
214 137 137
204 204 204
204 204 204
204 204 204
204 204 204
204 204 204
204 204 204
204 204 204
204 204 204
204 204 204
204 204 204
204 204 204
204 204 204
204 204 204
204 204 204
204 204 204
204 204 204
204 204 204
204 204 204
204 204 204
204 204 204
204 204 204
204 204 204
204 204 204
204 204 204
204 204 204
204 204 204
197 197 197
184 184 184
184 184 184
190 143 143
207 23 23
207 23 23
207 23 23
207 23 23
207 23 23
207 23 23
207 23 23
207 23 23
207 23 23
207 23 23
207 23 23
190 143 143
184 184 184
184 184 184
184 184 184
184 184 184
184 184 184
184 184 184
184 184 184
184 184 184
184 184 184
184 184 184
184 184 184
184 184 184
184 184 184
184 184 184
184 184 184
184 184 184
184 184 184
184 184 184
184 184 184
184 184 184
184 184 184
184 184 184
184 184 184
184 184 184
184 184 184
184 184 184
184 184 184
184 184 184
184 184 184
184 184 184
184 184 184
184 184 184
184 184 184
184 184 184
184 184 184
184 184 184
184 184 184
184 184 184
184 184 184
184 184 184
184 184 184
184 184 184
184 184 184
184 184 184
184 184 184
184 184 184
184 184 184
184 184 184
184 184 184
184 184 184
184 184 184
184 184 184
184 184 184
184 184 184
184 184 184
184 184 184
184 184 184
184 184 184
184 184 184
184 184 184
184 184 184
184 184 184
184 184 184
184 184 184
184 184 184
184 184 184
184 184 184
184 184 184
184 184 184
184 184 184
103 195 103
23 207 23
23 207 23
23 207 23
23 207 23
23 207 23
23 207 23
23 207 23
103 195 103
184 184 184
184 184 184
184 184 184
184 184 184
184 184 184
184 184 184
191 191 191
204 204 204
204 204 204
204 204 204
204 204 204
204 204 204
204 204 204
204 204 204
204 204 204
204 204 204
204 204 204
204 204 204
204 204 204
204 204 204
204 204 204
204 204 204
204 204 204
204 204 204
204 204 204
204 204 204
204 204 204
204 204 204
204 204 204
204 204 204
204 204 204
204 204 204
204 204 204
204 204 204
204 204 204
204 204 204
204 204 204
204 204 204
204 204 204
204 204 204
204 204 204
204 204 204
204 204 204
204 204 204
204 204 204
204 204 204
204 204 204
204 204 204
204 204 204
204 204 204
204 204 204
204 204 204
204 204 204
204 204 204
204 204 204
204 204 204
204 204 204
204 204 204
204 204 204
204 204 204
204 204 204
204 204 204
204 204 204
204 204 204
204 204 204
204 204 204
204 204 204
204 204 204
204 204 204
204 204 204
204 204 204
204 204 204
204 204 204
204 204 204
204 204 204
204 204 204
204 204 204
204 204 204
204 204 204
204 204 204
204 204 204
204 204 204
204 204 204
204 204 204
204 204 204
204 204 204
204 204 204
204 204 204
204 204 204
204 204 204
204 204 204
204 204 204
204 204 204
204 204 204
204 204 204
204 204 204
204 204 204
204 204 204
204 204 204
204 204 204
204 204 204
204 204 204
204 204 204
204 204 204
204 204 204
204 204 204
204 204 204
204 204 204
204 204 204
204 204 204
204 204 204
204 204 204
204 204 204
204 204 204
204 204 204
204 204 204
204 204 204
204 204 204
204 204 204
204 204 204
204 204 204
204 204 204
204 204 204
204 204 204
204 204 204
204 204 204
204 204 204
204 204 204
204 204 204
204 204 204
204 204 204
204 204 204
204 204 204
204 204 204
204 204 204
204 204 204
204 204 204
204 204 204
204 204 204
204 204 204
204 204 204
204 204 204
204 204 204
204 204 204
204 204 204
204 204 204
204 204 204
204 204 204
204 204 204
204 204 204
204 204 204
204 204 204
204 204 204
204 204 204
204 204 204
204 204 204
204 204 204
204 204 204
204 204 204
204 204 204
204 204 204
204 204 204
204 204 204
204 204 204
204 204 204
204 204 204
204 204 204
204 204 204
204 204 204
204 204 204
204 204 204
204 204 204
204 204 204
204 204 204
204 204 204
204 204 204
204 204 204
204 204 204
204 204 204
204 204 204
204 204 204
204 204 204
204 204 204
204 204 204
204 204 204
204 204 204
204 204 204
204 204 204
204 204 204
204 204 204
204 204 204
204 204 204
204 204 204
204 204 204
204 204 204
204 204 204
204 204 204
204 204 204
204 204 204
204 204 204
204 204 204
204 204 204
204 204 204
204 204 204
204 204 204
204 204 204
230 25 25
230 25 25
230 25 25
230 25 25
230 25 25
230 25 25
230 25 25
230 25 25
230 25 25
230 25 25
230 25 25
230 25 25
230 25 25
230 25 25
230 25 25
230 25 25
230 25 25
230 25 25
230 25 25
230 25 25
230 25 25
230 25 25
230 25 25
230 25 25
230 25 25
230 25 25
230 25 25
230 25 25
230 25 25
230 25 25
230 25 25
230 25 25
230 25 25
230 25 25
230 25 25
230 25 25
230 25 25
230 25 25
230 25 25
230 25 25
230 25 25
230 25 25
230 25 25
230 25 25
230 25 25
230 25 25
230 25 25
230 25 25
230 25 25
230 25 25
230 25 25
230 25 25
230 25 25
230 25 25
230 25 25
230 25 25
230 25 25
230 25 25
230 25 25
230 25 25
230 25 25
230 25 25
230 25 25
230 25 25
230 25 25
230 25 25
230 25 25
230 25 25
230 25 25
230 25 25
230 25 25
230 25 25
230 25 25
204 204 204
204 204 204
204 204 204
204 204 204
204 204 204
204 204 204
204 204 204
204 204 204
204 204 204
204 204 204
204 204 204
204 204 204
204 204 204
204 204 204
204 204 204
204 204 204
204 204 204
204 204 204
204 204 204
204 204 204
204 204 204
204 204 204
204 204 204
204 204 204
204 204 204
204 204 204
199 199 199
184 184 184
184 184 184
184 184 184
201 63 63
207 23 23
207 23 23
207 23 23
207 23 23
207 23 23
207 23 23
207 23 23
207 23 23
207 23 23
207 23 23
190 143 143
184 184 184
184 184 184
184 184 184
184 184 184
184 184 184
184 184 184
184 184 184
184 184 184
184 184 184
184 184 184
184 184 184
184 184 184
184 184 184
184 184 184
184 184 184
184 184 184
184 184 184
184 184 184
184 184 184
184 184 184
184 184 184
184 184 184
184 184 184
184 184 184
184 184 184
184 184 184
184 184 184
184 184 184
184 184 184
184 184 184
184 184 184
184 184 184
184 184 184
184 184 184
184 184 184
184 184 184
184 184 184
184 184 184
184 184 184
184 184 184
184 184 184
184 184 184
184 184 184
184 184 184
184 184 184
184 184 184
184 184 184
184 184 184
184 184 184
184 184 184
184 184 184
184 184 184
184 184 184
184 184 184
184 184 184
184 184 184
184 184 184
184 184 184
184 184 184
184 184 184
184 184 184
184 184 184
184 184 184
184 184 184
184 184 184
184 184 184
184 184 184
184 184 184
184 184 184
184 184 184
43 204 43
23 207 23
23 207 23
23 207 23
23 207 23
23 207 23
23 207 23
23 207 23
103 195 103
184 184 184
184 184 184
184 184 184
184 184 184
184 184 184
184 184 184
199 199 199
204 204 204
204 204 204
204 204 204
204 204 204
204 204 204
204 204 204
204 204 204
204 204 204
204 204 204
204 204 204
204 204 204
204 204 204
204 204 204
204 204 204
204 204 204
204 204 204
204 204 204
204 204 204
204 204 204
204 204 204
204 204 204
204 204 204
204 204 204
204 204 204
204 204 204
204 204 204
204 204 204
204 204 204
204 204 204
204 204 204
204 204 204
204 204 204
204 204 204
204 204 204
204 204 204
204 204 204
204 204 204
204 204 204
204 204 204
204 204 204
204 204 204
204 204 204
204 204 204
204 204 204
204 204 204
204 204 204
204 204 204
204 204 204
204 204 204
204 204 204
204 204 204
204 204 204
204 204 204
204 204 204
204 204 204
204 204 204
204 204 204
204 204 204
204 204 204
204 204 204
204 204 204
204 204 204
159 211 159
204 204 204
159 211 159
159 211 159
137 214 137
159 211 159
159 211 159
204 204 204
204 204 204
204 204 204
204 204 204
204 204 204
204 204 204
204 204 204
204 204 204
204 204 204
204 204 204
204 204 204
204 204 204
204 204 204
204 204 204
204 204 204
204 204 204
204 204 204
204 204 204
204 204 204
204 204 204
204 204 204
204 204 204
204 204 204
204 204 204
204 204 204
204 204 204
204 204 204
204 204 204
204 204 204
204 204 204
204 204 204
204 204 204
204 204 204
204 204 204
204 204 204
204 204 204
204 204 204
204 204 204
204 204 204
204 204 204
204 204 204
204 204 204
204 204 204
204 204 204
204 204 204
204 204 204
204 204 204
204 204 204
204 204 204
204 204 204
204 204 204
204 204 204
204 204 204
204 204 204
204 204 204
204 204 204
204 204 204
204 204 204
204 204 204
204 204 204
204 204 204
204 204 204
204 204 204
204 204 204
204 204 204
204 204 204
204 204 204
204 204 204
204 204 204
204 204 204
204 204 204
204 204 204
204 204 204
204 204 204
204 204 204
204 204 204
204 204 204
204 204 204
204 204 204
204 204 204
204 204 204
204 204 204
204 204 204
204 204 204
204 204 204
204 204 204
204 204 204
204 204 204
204 204 204
204 204 204
204 204 204
204 204 204
204 204 204
204 204 204
204 204 204
204 204 204
204 204 204
204 204 204
204 204 204
204 204 204
204 204 204
204 204 204
204 204 204
204 204 204
204 204 204
204 204 204
204 204 204
204 204 204
204 204 204
204 204 204
204 204 204
204 204 204
204 204 204
204 204 204
204 204 204
204 204 204
204 204 204
204 204 204
204 204 204
204 204 204
204 204 204
204 204 204
204 204 204
204 204 204
204 204 204
204 204 204
204 204 204
204 204 204
204 204 204
220 92 92
230 25 25
230 25 25
230 25 25
230 25 25
230 25 25
230 25 25
230 25 25
230 25 25
230 25 25
230 25 25
230 25 25
230 25 25
230 25 25
230 25 25
230 25 25
230 25 25
230 25 25
230 25 25
230 25 25
230 25 25
230 25 25
230 25 25
230 25 25
230 25 25
230 25 25
230 25 25
230 25 25
230 25 25
230 25 25
230 25 25
230 25 25
230 25 25
230 25 25
230 25 25
230 25 25
230 25 25
230 25 25
230 25 25
230 25 25
230 25 25
230 25 25
230 25 25
230 25 25
230 25 25
230 25 25
230 25 25
230 25 25
230 25 25
230 25 25
230 25 25
230 25 25
230 25 25
230 25 25
230 25 25
230 25 25
230 25 25
230 25 25
230 25 25
230 25 25
230 25 25
230 25 25
230 25 25
230 25 25
230 25 25
230 25 25
230 25 25
230 25 25
230 25 25
230 25 25
230 25 25
230 25 25
230 25 25
230 25 25
211 159 159
204 204 204
204 204 204
204 204 204
204 204 204
204 204 204
204 204 204
204 204 204
204 204 204
204 204 204
204 204 204
204 204 204
204 204 204
204 204 204
204 204 204
204 204 204
204 204 204
204 204 204
204 204 204
204 204 204
204 204 204
204 204 204
204 204 204
204 204 204
204 204 204
204 204 204
199 199 199
184 184 184
184 184 184
184 184 184
204 43 43
207 23 23
207 23 23
207 23 23
207 23 23
207 23 23
207 23 23
207 23 23
207 23 23
207 23 23
207 23 23
190 143 143
184 184 184
184 184 184
184 184 184
184 184 184
184 184 184
184 184 184
184 184 184
184 184 184
184 184 184
184 184 184
184 184 184
184 184 184
184 184 184
184 184 184
184 184 184
184 184 184
184 184 184
184 184 184
184 184 184
184 184 184
184 184 184
184 184 184
184 184 184
184 184 184
184 184 184
184 184 184
184 184 184
184 184 184
184 184 184
184 184 184
184 184 184
184 184 184
184 184 184
184 184 184
184 184 184
184 184 184
184 184 184
184 184 184
184 184 184
184 184 184
184 184 184
184 184 184
184 184 184
184 184 184
184 184 184
184 184 184
184 184 184
184 184 184
184 184 184
184 184 184
184 184 184
184 184 184
184 184 184
184 184 184
184 184 184
184 184 184
184 184 184
184 184 184
184 184 184
184 184 184
184 184 184
184 184 184
184 184 184
184 184 184
184 184 184
184 184 184
184 184 184
184 184 184
184 184 184
184 184 184
23 207 23
23 207 23
23 207 23
23 207 23
23 207 23
23 207 23
23 207 23
23 207 23
143 190 143
184 184 184
184 184 184
184 184 184
184 184 184
184 184 184
184 184 184
204 204 204
204 204 204
204 204 204
204 204 204
204 204 204
204 204 204
204 204 204
204 204 204
204 204 204
204 204 204
204 204 204
204 204 204
204 204 204
204 204 204
204 204 204
204 204 204
204 204 204
204 204 204
204 204 204
204 204 204
204 204 204
204 204 204
204 204 204
204 204 204
204 204 204
204 204 204
204 204 204
204 204 204
204 204 204
204 204 204
204 204 204
204 204 204
204 204 204
204 204 204
204 204 204
204 204 204
204 204 204
204 204 204
204 204 204
204 204 204
204 204 204
204 204 204
204 204 204
204 204 204
204 204 204
204 204 204
204 204 204
204 204 204
204 204 204
204 204 204
204 204 204
204 204 204
204 204 204
204 204 204
204 204 204
204 204 204
204 204 204
204 204 204
204 204 204
115 217 115
115 217 115
25 230 25
25 230 25
25 230 25
25 230 25
25 230 25
25 230 25
25 230 25
25 230 25
25 230 25
25 230 25
92 220 92
92 220 92
70 223 70
182 207 182
159 211 159
204 204 204
204 204 204
204 204 204
204 204 204
204 204 204
204 204 204
204 204 204
204 204 204
204 204 204
204 204 204
204 204 204
204 204 204
204 204 204
204 204 204
204 204 204
204 204 204
204 204 204
204 204 204
204 204 204
204 204 204
204 204 204
204 204 204
204 204 204
204 204 204
204 204 204
204 204 204
204 204 204
204 204 204
204 204 204
204 204 204
204 204 204
204 204 204
204 204 204
204 204 204
204 204 204
204 204 204
204 204 204
204 204 204
204 204 204
204 204 204
204 204 204
204 204 204
204 204 204
204 204 204
204 204 204
204 204 204
204 204 204
204 204 204
204 204 204
204 204 204
204 204 204
204 204 204
204 204 204
204 204 204
204 204 204
204 204 204
204 204 204
204 204 204
204 204 204
204 204 204
204 204 204
204 204 204
204 204 204
204 204 204
204 204 204
204 204 204
204 204 204
204 204 204
204 204 204
204 204 204
204 204 204
204 204 204
204 204 204
204 204 204
204 204 204
204 204 204
204 204 204
204 204 204
204 204 204
204 204 204
204 204 204
204 204 204
204 204 204
204 204 204
204 204 204
204 204 204
204 204 204
204 204 204
204 204 204
204 204 204
204 204 204
204 204 204
204 204 204
204 204 204
204 204 204
204 204 204
204 204 204
204 204 204
204 204 204
204 204 204
204 204 204
204 204 204
204 204 204
204 204 204
204 204 204
204 204 204
204 204 204
204 204 204
204 204 204
204 204 204
204 204 204
204 204 204
204 204 204
204 204 204
204 204 204
204 204 204
204 204 204
204 204 204
204 204 204
204 204 204
204 204 204
204 204 204
204 204 204
227 47 47
230 25 25
230 25 25
230 25 25
230 25 25
230 25 25
230 25 25
230 25 25
230 25 25
230 25 25
230 25 25
230 25 25
230 25 25
230 25 25
230 25 25
230 25 25
230 25 25
230 25 25
230 25 25
230 25 25
230 25 25
230 25 25
230 25 25
230 25 25
230 25 25
230 25 25
230 25 25
230 25 25
230 25 25
230 25 25
230 25 25
230 25 25
230 25 25
230 25 25
230 25 25
230 25 25
230 25 25
230 25 25
230 25 25
230 25 25
230 25 25
230 25 25
230 25 25
230 25 25
230 25 25
230 25 25
230 25 25
230 25 25
230 25 25
230 25 25
230 25 25
230 25 25
230 25 25
230 25 25
230 25 25
230 25 25
230 25 25
230 25 25
230 25 25
230 25 25
230 25 25
230 25 25
230 25 25
230 25 25
230 25 25
230 25 25
230 25 25
230 25 25
230 25 25
230 25 25
230 25 25
230 25 25
230 25 25
230 25 25
220 92 92
204 204 204
204 204 204
204 204 204
204 204 204
204 204 204
204 204 204
204 204 204
204 204 204
204 204 204
204 204 204
204 204 204
204 204 204
204 204 204
204 204 204
204 204 204
204 204 204
204 204 204
204 204 204
204 204 204
204 204 204
204 204 204
204 204 204
204 204 204
204 204 204
204 204 204
204 204 204
186 186 186
184 184 184
184 184 184
192 123 123
207 23 23
207 23 23
207 23 23
207 23 23
207 23 23
207 23 23
207 23 23
207 23 23
207 23 23
207 23 23
198 83 83
184 184 184
184 184 184
184 184 184
184 184 184
184 184 184
184 184 184
184 184 184
184 184 184
184 184 184
184 184 184
184 184 184
184 184 184
184 184 184
184 184 184
184 184 184
184 184 184
184 184 184
184 184 184
184 184 184
184 184 184
184 184 184
184 184 184
184 184 184
184 184 184
184 184 184
184 184 184
184 184 184
184 184 184
184 184 184
184 184 184
184 184 184
184 184 184
184 184 184
184 184 184
184 184 184
184 184 184
184 184 184
184 184 184
184 184 184
184 184 184
184 184 184
184 184 184
184 184 184
184 184 184
184 184 184
184 184 184
184 184 184
184 184 184
184 184 184
184 184 184
184 184 184
184 184 184
184 184 184
184 184 184
184 184 184
184 184 184
184 184 184
184 184 184
184 184 184
184 184 184
184 184 184
184 184 184
184 184 184
184 184 184
184 184 184
184 184 184
184 184 184
184 184 184
184 184 184
143 190 143
23 207 23
23 207 23
23 207 23
23 207 23
23 207 23
23 207 23
23 207 23
83 198 83
184 184 184
184 184 184
184 184 184
184 184 184
184 184 184
184 184 184
184 184 184
204 204 204
204 204 204
204 204 204
204 204 204
204 204 204
204 204 204
204 204 204
204 204 204
204 204 204
204 204 204
204 204 204
204 204 204
204 204 204
204 204 204
204 204 204
204 204 204
204 204 204
204 204 204
204 204 204
204 204 204
204 204 204
204 204 204
204 204 204
204 204 204
204 204 204
204 204 204
204 204 204
204 204 204
204 204 204
204 204 204
204 204 204
204 204 204
204 204 204
204 204 204
204 204 204
204 204 204
204 204 204
204 204 204
204 204 204
204 204 204
204 204 204
204 204 204
204 204 204
204 204 204
204 204 204
204 204 204
204 204 204
204 204 204
204 204 204
204 204 204
204 204 204
204 204 204
204 204 204
204 204 204
204 204 204
204 204 204
159 211 159
47 227 47
25 230 25
25 230 25
25 230 25
25 230 25
25 230 25
25 230 25
25 230 25
25 230 25
25 230 25
25 230 25
25 230 25
25 230 25
25 230 25
25 230 25
25 230 25
25 230 25
25 230 25
25 230 25
70 223 70
47 227 47
204 204 204
204 204 204
204 204 204
204 204 204
204 204 204
204 204 204
204 204 204
204 204 204
204 204 204
204 204 204
204 204 204
204 204 204
204 204 204
204 204 204
204 204 204
204 204 204
204 204 204
204 204 204
204 204 204
204 204 204
204 204 204
204 204 204
204 204 204
204 204 204
204 204 204
204 204 204
204 204 204
204 204 204
204 204 204
204 204 204
204 204 204
204 204 204
204 204 204
204 204 204
204 204 204
204 204 204
204 204 204
204 204 204
204 204 204
204 204 204
204 204 204
204 204 204
204 204 204
204 204 204
204 204 204
204 204 204
204 204 204
204 204 204
204 204 204
204 204 204
204 204 204
204 204 204
204 204 204
204 204 204
204 204 204
204 204 204
204 204 204
204 204 204
204 204 204
204 204 204
204 204 204
204 204 204
204 204 204
204 204 204
204 204 204
204 204 204
204 204 204
204 204 204
204 204 204
204 204 204
204 204 204
204 204 204
204 204 204
204 204 204
204 204 204
204 204 204
204 204 204
204 204 204
204 204 204
204 204 204
204 204 204
204 204 204
204 204 204
204 204 204
204 204 204
204 204 204
204 204 204
204 204 204
204 204 204
204 204 204
204 204 204
204 204 204
204 204 204
204 204 204
204 204 204
204 204 204
204 204 204
204 204 204
204 204 204
204 204 204
204 204 204
204 204 204
204 204 204
204 204 204
204 204 204
204 204 204
204 204 204
204 204 204
204 204 204
204 204 204
204 204 204
204 204 204
204 204 204
204 204 204
204 204 204
204 204 204
204 204 204
204 204 204
204 204 204
204 204 204
214 137 137
230 25 25
230 25 25
230 25 25
230 25 25
230 25 25
230 25 25
230 25 25
230 25 25
230 25 25
230 25 25
230 25 25
230 25 25
230 25 25
230 25 25
230 25 25
230 25 25
230 25 25
230 25 25
230 25 25
230 25 25
230 25 25
230 25 25
230 25 25
230 25 25
230 25 25
230 25 25
230 25 25
230 25 25
230 25 25
230 25 25
230 25 25
230 25 25
230 25 25
230 25 25
230 25 25
230 25 25
230 25 25
230 25 25
230 25 25
230 25 25
230 25 25
230 25 25
230 25 25
230 25 25
230 25 25
230 25 25
230 25 25
230 25 25
230 25 25
230 25 25
230 25 25
230 25 25
230 25 25
230 25 25
230 25 25
230 25 25
230 25 25
230 25 25
230 25 25
230 25 25
230 25 25
230 25 25
230 25 25
230 25 25
230 25 25
230 25 25
230 25 25
230 25 25
230 25 25
230 25 25
230 25 25
230 25 25
230 25 25
230 25 25
223 70 70
204 204 204
204 204 204
204 204 204
204 204 204
204 204 204
204 204 204
204 204 204
204 204 204
204 204 204
204 204 204
204 204 204
204 204 204
204 204 204
204 204 204
204 204 204
204 204 204
204 204 204
204 204 204
204 204 204
204 204 204
204 204 204
204 204 204
204 204 204
204 204 204
204 204 204
204 204 204
194 194 194
184 184 184
184 184 184
184 184 184
201 63 63
207 23 23
207 23 23
207 23 23
207 23 23
207 23 23
207 23 23
207 23 23
207 23 23
207 23 23
195 103 103
184 184 184
184 184 184
184 184 184
184 184 184
184 184 184
184 184 184
184 184 184
184 184 184
184 184 184
184 184 184
184 184 184
184 184 184
184 184 184
184 184 184
184 184 184
184 184 184
184 184 184
184 184 184
184 184 184
184 184 184
184 184 184
184 184 184
184 184 184
184 184 184
184 184 184
184 184 184
184 184 184
184 184 184
184 184 184
184 184 184
184 184 184
184 184 184
184 184 184
184 184 184
184 184 184
184 184 184
184 184 184
184 184 184
184 184 184
184 184 184
184 184 184
184 184 184
184 184 184
184 184 184
184 184 184
184 184 184
184 184 184
184 184 184
184 184 184
184 184 184
184 184 184
184 184 184
184 184 184
184 184 184
184 184 184
184 184 184
184 184 184
184 184 184
184 184 184
184 184 184
184 184 184
184 184 184
184 184 184
184 184 184
184 184 184
184 184 184
184 184 184
184 184 184
184 184 184
103 195 103
23 207 23
23 207 23
23 207 23
23 207 23
23 207 23
23 207 23
23 207 23
143 190 143
184 184 184
184 184 184
184 184 184
184 184 184
184 184 184
184 184 184
197 197 197
204 204 204
204 204 204
204 204 204
204 204 204
204 204 204
204 204 204
204 204 204
204 204 204
204 204 204
204 204 204
204 204 204
204 204 204
204 204 204
204 204 204
204 204 204
204 204 204
204 204 204
204 204 204
204 204 204
204 204 204
204 204 204
204 204 204
204 204 204
204 204 204
204 204 204
204 204 204
204 204 204
204 204 204
204 204 204
204 204 204
204 204 204
204 204 204
204 204 204
204 204 204
204 204 204
204 204 204
204 204 204
204 204 204
204 204 204
204 204 204
204 204 204
204 204 204
204 204 204
204 204 204
204 204 204
204 204 204
204 204 204
204 204 204
204 204 204
204 204 204
204 204 204
204 204 204
204 204 204
204 204 204
70 223 70
25 230 25
25 230 25
25 230 25
25 230 25
25 230 25
25 230 25
25 230 25
25 230 25
25 230 25
25 230 25
25 230 25
25 230 25
25 230 25
25 230 25
25 230 25
25 230 25
25 230 25
25 230 25
25 230 25
25 230 25
25 230 25
25 230 25
25 230 25
25 230 25
47 227 47
204 204 204
204 204 204
204 204 204
204 204 204
204 204 204
204 204 204
204 204 204
204 204 204
204 204 204
204 204 204
204 204 204
204 204 204
204 204 204
204 204 204
204 204 204
204 204 204
204 204 204
204 204 204
204 204 204
204 204 204
204 204 204
204 204 204
204 204 204
204 204 204
204 204 204
204 204 204
204 204 204
204 204 204
204 204 204
204 204 204
204 204 204
204 204 204
204 204 204
204 204 204
204 204 204
204 204 204
204 204 204
204 204 204
204 204 204
204 204 204
204 204 204
204 204 204
204 204 204
204 204 204
204 204 204
204 204 204
204 204 204
204 204 204
204 204 204
204 204 204
204 204 204
204 204 204
204 204 204
204 204 204
204 204 204
204 204 204
204 204 204
204 204 204
204 204 204
204 204 204
204 204 204
204 204 204
204 204 204
204 204 204
204 204 204
204 204 204
204 204 204
204 204 204
204 204 204
204 204 204
204 204 204
204 204 204
204 204 204
204 204 204
204 204 204
204 204 204
204 204 204
204 204 204
204 204 204
204 204 204
204 204 204
204 204 204
204 204 204
204 204 204
204 204 204
204 204 204
204 204 204
204 204 204
204 204 204
204 204 204
204 204 204
204 204 204
204 204 204
204 204 204
204 204 204
204 204 204
204 204 204
204 204 204
204 204 204
204 204 204
204 204 204
204 204 204
204 204 204
204 204 204
204 204 204
204 204 204
204 204 204
204 204 204
204 204 204
204 204 204
204 204 204
204 204 204
204 204 204
204 204 204
204 204 204
204 204 204
204 204 204
204 204 204
217 115 115
230 25 25
230 25 25
230 25 25
230 25 25
230 25 25
230 25 25
230 25 25
230 25 25
230 25 25
230 25 25
230 25 25
230 25 25
230 25 25
230 25 25
230 25 25
230 25 25
230 25 25
230 25 25
230 25 25
230 25 25
230 25 25
230 25 25
230 25 25
230 25 25
230 25 25
230 25 25
230 25 25
230 25 25
230 25 25
230 25 25
230 25 25
230 25 25
230 25 25
230 25 25
230 25 25
230 25 25
230 25 25
230 25 25
230 25 25
230 25 25
230 25 25
230 25 25
230 25 25
230 25 25
230 25 25
230 25 25
230 25 25
230 25 25
230 25 25
230 25 25
230 25 25
230 25 25
230 25 25
230 25 25
230 25 25
230 25 25
230 25 25
230 25 25
230 25 25
230 25 25
230 25 25
230 25 25
230 25 25
230 25 25
230 25 25
230 25 25
230 25 25
230 25 25
230 25 25
230 25 25
230 25 25
230 25 25
230 25 25
230 25 25
223 70 70
204 204 204
204 204 204
204 204 204
204 204 204
204 204 204
204 204 204
204 204 204
204 204 204
204 204 204
204 204 204
204 204 204
204 204 204
204 204 204
204 204 204
204 204 204
204 204 204
204 204 204
204 204 204
204 204 204
204 204 204
204 204 204
204 204 204
204 204 204
204 204 204
204 204 204
204 204 204
197 197 197
184 184 184
184 184 184
184 184 184
201 63 63
207 23 23
207 23 23
207 23 23
207 23 23
207 23 23
207 23 23
207 23 23
207 23 23
207 23 23
190 143 143
184 184 184
184 184 184
184 184 184
184 184 184
184 184 184
184 184 184
184 184 184
184 184 184
184 184 184
184 184 184
184 184 184
184 184 184
184 184 184
184 184 184
184 184 184
184 184 184
184 184 184
184 184 184
184 184 184
184 184 184
184 184 184
184 184 184
184 184 184
184 184 184
184 184 184
184 184 184
184 184 184
184 184 184
184 184 184
184 184 184
184 184 184
184 184 184
184 184 184
184 184 184
184 184 184
184 184 184
184 184 184
184 184 184
184 184 184
184 184 184
184 184 184
184 184 184
184 184 184
184 184 184
184 184 184
184 184 184
184 184 184
184 184 184
184 184 184
184 184 184
184 184 184
184 184 184
184 184 184
184 184 184
184 184 184
184 184 184
184 184 184
184 184 184
184 184 184
184 184 184
184 184 184
184 184 184
184 184 184
184 184 184
184 184 184
184 184 184
184 184 184
184 184 184
184 184 184
123 192 123
23 207 23
23 207 23
23 207 23
23 207 23
23 207 23
23 207 23
63 201 63
143 190 143
184 184 184
184 184 184
184 184 184
184 184 184
184 184 184
184 184 184
194 194 194
204 204 204
204 204 204
204 204 204
204 204 204
204 204 204
204 204 204
204 204 204
204 204 204
204 204 204
204 204 204
204 204 204
204 204 204
204 204 204
204 204 204
204 204 204
204 204 204
204 204 204
204 204 204
204 204 204
204 204 204
204 204 204
204 204 204
204 204 204
204 204 204
204 204 204
204 204 204
204 204 204
204 204 204
204 204 204
204 204 204
204 204 204
204 204 204
204 204 204
204 204 204
204 204 204
204 204 204
204 204 204
204 204 204
204 204 204
204 204 204
204 204 204
204 204 204
204 204 204
204 204 204
204 204 204
204 204 204
204 204 204
204 204 204
204 204 204
204 204 204
204 204 204
182 207 182
115 217 115
25 230 25
25 230 25
25 230 25
25 230 25
25 230 25
25 230 25
25 230 25
25 230 25
25 230 25
25 230 25
25 230 25
25 230 25
25 230 25
25 230 25
25 230 25
25 230 25
25 230 25
25 230 25
25 230 25
25 230 25
25 230 25
25 230 25
25 230 25
25 230 25
25 230 25
25 230 25
25 230 25
25 230 25
92 220 92
137 214 137
204 204 204
204 204 204
204 204 204
204 204 204
204 204 204
204 204 204
204 204 204
204 204 204
204 204 204
204 204 204
204 204 204
204 204 204
204 204 204
204 204 204
204 204 204
204 204 204
204 204 204
204 204 204
204 204 204
204 204 204
204 204 204
204 204 204
204 204 204
204 204 204
204 204 204
204 204 204
204 204 204
204 204 204
204 204 204
204 204 204
204 204 204
204 204 204
204 204 204
204 204 204
204 204 204
204 204 204
204 204 204
204 204 204
204 204 204
204 204 204
204 204 204
204 204 204
204 204 204
204 204 204
204 204 204
204 204 204
204 204 204
204 204 204
204 204 204
204 204 204
204 204 204
204 204 204
204 204 204
204 204 204
204 204 204
204 204 204
204 204 204
204 204 204
204 204 204
204 204 204
204 204 204
204 204 204
204 204 204
204 204 204
204 204 204
204 204 204
204 204 204
204 204 204
204 204 204
204 204 204
204 204 204
204 204 204
204 204 204
204 204 204
204 204 204
204 204 204
204 204 204
204 204 204
204 204 204
204 204 204
204 204 204
204 204 204
204 204 204
204 204 204
204 204 204
204 204 204
204 204 204
204 204 204
204 204 204
204 204 204
204 204 204
204 204 204
204 204 204
204 204 204
204 204 204
204 204 204
204 204 204
204 204 204
204 204 204
204 204 204
204 204 204
204 204 204
204 204 204
204 204 204
204 204 204
204 204 204
204 204 204
204 204 204
204 204 204
204 204 204
204 204 204
204 204 204
204 204 204
204 204 204
204 204 204
227 47 47
230 25 25
230 25 25
230 25 25
230 25 25
230 25 25
230 25 25
230 25 25
230 25 25
230 25 25
230 25 25
230 25 25
230 25 25
230 25 25
230 25 25
230 25 25
230 25 25
230 25 25
230 25 25
230 25 25
230 25 25
230 25 25
230 25 25
230 25 25
230 25 25
230 25 25
230 25 25
230 25 25
230 25 25
230 25 25
230 25 25
230 25 25
230 25 25
230 25 25
230 25 25
230 25 25
230 25 25
230 25 25
230 25 25
230 25 25
230 25 25
230 25 25
230 25 25
230 25 25
230 25 25
230 25 25
230 25 25
230 25 25
230 25 25
230 25 25
230 25 25
230 25 25
230 25 25
230 25 25
230 25 25
230 25 25
230 25 25
230 25 25
230 25 25
230 25 25
230 25 25
230 25 25
230 25 25
230 25 25
230 25 25
230 25 25
230 25 25
230 25 25
230 25 25
230 25 25
230 25 25
230 25 25
230 25 25
230 25 25
230 25 25
230 25 25
204 204 204
204 204 204
204 204 204
204 204 204
204 204 204
204 204 204
204 204 204
204 204 204
204 204 204
204 204 204
204 204 204
204 204 204
204 204 204
204 204 204
204 204 204
204 204 204
204 204 204
204 204 204
204 204 204
204 204 204
204 204 204
204 204 204
204 204 204
204 204 204
204 204 204
204 204 204
204 204 204
184 184 184
184 184 184
184 184 184
184 184 184
204 43 43
207 23 23
207 23 23
207 23 23
207 23 23
207 23 23
207 23 23
207 23 23
207 23 23
187 164 164
184 184 184
184 184 184
184 184 184
184 184 184
184 184 184
184 184 184
184 184 184
184 184 184
184 184 184
184 184 184
184 184 184
184 184 184
184 184 184
184 184 184
184 184 184
184 184 184
184 184 184
184 184 184
184 184 184
184 184 184
184 184 184
184 184 184
184 184 184
184 184 184
184 184 184
184 184 184
184 184 184
184 184 184
184 184 184
184 184 184
184 184 184
184 184 184
184 184 184
184 184 184
184 184 184
184 184 184
184 184 184
184 184 184
184 184 184
184 184 184
184 184 184
184 184 184
184 184 184
184 184 184
184 184 184
184 184 184
184 184 184
184 184 184
184 184 184
184 184 184
184 184 184
184 184 184
184 184 184
184 184 184
184 184 184
184 184 184
184 184 184
184 184 184
184 184 184
184 184 184
184 184 184
184 184 184
184 184 184
184 184 184
184 184 184
184 184 184
184 184 184
184 184 184
184 184 184
184 184 184
23 207 23
23 207 23
23 207 23
23 207 23
23 207 23
23 207 23
63 201 63
184 184 184
184 184 184
184 184 184
184 184 184
184 184 184
184 184 184
189 189 189
204 204 204
204 204 204
204 204 204
204 204 204
204 204 204
204 204 204
204 204 204
204 204 204
204 204 204
204 204 204
204 204 204
204 204 204
204 204 204
204 204 204
204 204 204
204 204 204
204 204 204
204 204 204
204 204 204
204 204 204
204 204 204
204 204 204
204 204 204
204 204 204
204 204 204
204 204 204
204 204 204
204 204 204
204 204 204
204 204 204
204 204 204
204 204 204
204 204 204
204 204 204
204 204 204
204 204 204
204 204 204
204 204 204
204 204 204
204 204 204
204 204 204
204 204 204
204 204 204
204 204 204
204 204 204
204 204 204
204 204 204
204 204 204
204 204 204
204 204 204
204 204 204
182 207 182
70 223 70
25 230 25
25 230 25
25 230 25
25 230 25
25 230 25
25 230 25
25 230 25
25 230 25
25 230 25
25 230 25
25 230 25
25 230 25
25 230 25
25 230 25
25 230 25
25 230 25
25 230 25
25 230 25
25 230 25
25 230 25
25 230 25
25 230 25
25 230 25
25 230 25
25 230 25
25 230 25
25 230 25
25 230 25
25 230 25
25 230 25
25 230 25
70 223 70
159 211 159
204 204 204
204 204 204
204 204 204
204 204 204
204 204 204
204 204 204
204 204 204
204 204 204
204 204 204
204 204 204
204 204 204
204 204 204
204 204 204
204 204 204
204 204 204
204 204 204
204 204 204
204 204 204
204 204 204
204 204 204
204 204 204
204 204 204
204 204 204
204 204 204
204 204 204
204 204 204
204 204 204
204 204 204
204 204 204
204 204 204
204 204 204
204 204 204
204 204 204
204 204 204
204 204 204
204 204 204
204 204 204
204 204 204
204 204 204
204 204 204
204 204 204
204 204 204
204 204 204
204 204 204
204 204 204
204 204 204
204 204 204
204 204 204
204 204 204
204 204 204
204 204 204
204 204 204
204 204 204
204 204 204
204 204 204
204 204 204
204 204 204
204 204 204
204 204 204
204 204 204
204 204 204
204 204 204
204 204 204
204 204 204
204 204 204
204 204 204
204 204 204
204 204 204
204 204 204
204 204 204
204 204 204
204 204 204
204 204 204
204 204 204
204 204 204
204 204 204
204 204 204
204 204 204
204 204 204
204 204 204
204 204 204
204 204 204
204 204 204
204 204 204
204 204 204
204 204 204
204 204 204
204 204 204
204 204 204
204 204 204
204 204 204
204 204 204
204 204 204
204 204 204
204 204 204
204 204 204
204 204 204
204 204 204
204 204 204
204 204 204
204 204 204
204 204 204
204 204 204
204 204 204
204 204 204
204 204 204
204 204 204
204 204 204
204 204 204
204 204 204
204 204 204
204 204 204
211 159 159
230 25 25
230 25 25
230 25 25
230 25 25
230 25 25
230 25 25
230 25 25
230 25 25
230 25 25
230 25 25
230 25 25
230 25 25
230 25 25
230 25 25
230 25 25
230 25 25
230 25 25
230 25 25
230 25 25
230 25 25
230 25 25
230 25 25
230 25 25
230 25 25
230 25 25
230 25 25
230 25 25
230 25 25
230 25 25
230 25 25
230 25 25
230 25 25
230 25 25
230 25 25
230 25 25
230 25 25
230 25 25
230 25 25
230 25 25
230 25 25
230 25 25
230 25 25
230 25 25
230 25 25
230 25 25
230 25 25
230 25 25
230 25 25
230 25 25
230 25 25
230 25 25
230 25 25
230 25 25
230 25 25
230 25 25
230 25 25
230 25 25
230 25 25
230 25 25
230 25 25
230 25 25
230 25 25
230 25 25
230 25 25
230 25 25
230 25 25
230 25 25
230 25 25
230 25 25
230 25 25
230 25 25
230 25 25
230 25 25
230 25 25
230 25 25
230 25 25
207 182 182
204 204 204
204 204 204
204 204 204
204 204 204
204 204 204
204 204 204
204 204 204
204 204 204
204 204 204
204 204 204
204 204 204
204 204 204
204 204 204
204 204 204
204 204 204
204 204 204
204 204 204
204 204 204
204 204 204
204 204 204
204 204 204
204 204 204
204 204 204
204 204 204
204 204 204
204 204 204
191 191 191
184 184 184
184 184 184
184 184 184
192 123 123
207 23 23
207 23 23
207 23 23
207 23 23
207 23 23
207 23 23
207 23 23
207 23 23
184 184 184
184 184 184
184 184 184
184 184 184
184 184 184
184 184 184
184 184 184
184 184 184
184 184 184
184 184 184
184 184 184
184 184 184
184 184 184
184 184 184
184 184 184
184 184 184
184 184 184
184 184 184
184 184 184
184 184 184
184 184 184
184 184 184
184 184 184
184 184 184
184 184 184
184 184 184
184 184 184
184 184 184
184 184 184
184 184 184
184 184 184
184 184 184
184 184 184
184 184 184
184 184 184
184 184 184
184 184 184
184 184 184
184 184 184
184 184 184
184 184 184
184 184 184
184 184 184
184 184 184
184 184 184
184 184 184
184 184 184
184 184 184
184 184 184
184 184 184
184 184 184
184 184 184
184 184 184
184 184 184
184 184 184
184 184 184
184 184 184
184 184 184
184 184 184
184 184 184
184 184 184
184 184 184
184 184 184
184 184 184
184 184 184
184 184 184
184 184 184
184 184 184
184 184 184
184 184 184
184 184 184
63 201 63
23 207 23
23 207 23
23 207 23
23 207 23
103 195 103
184 184 184
184 184 184
184 184 184
184 184 184
184 184 184
184 184 184
184 184 184
194 194 194
204 204 204
204 204 204
204 204 204
204 204 204
204 204 204
204 204 204
204 204 204
204 204 204
204 204 204
204 204 204
204 204 204
204 204 204
204 204 204
204 204 204
204 204 204
204 204 204
204 204 204
204 204 204
204 204 204
204 204 204
204 204 204
204 204 204
204 204 204
204 204 204
204 204 204
204 204 204
204 204 204
204 204 204
204 204 204
204 204 204
204 204 204
204 204 204
204 204 204
204 204 204
204 204 204
204 204 204
204 204 204
204 204 204
204 204 204
204 204 204
204 204 204
204 204 204
204 204 204
204 204 204
204 204 204
204 204 204
204 204 204
204 204 204
204 204 204
204 204 204
137 214 137
25 230 25
25 230 25
25 230 25
25 230 25
25 230 25
25 230 25
25 230 25
25 230 25
25 230 25
25 230 25
25 230 25
25 230 25
25 230 25
25 230 25
25 230 25
25 230 25
25 230 25
25 230 25
25 230 25
25 230 25
25 230 25
25 230 25
25 230 25
25 230 25
25 230 25
25 230 25
25 230 25
25 230 25
25 230 25
25 230 25
25 230 25
25 230 25
25 230 25
25 230 25
47 227 47
159 211 159
204 204 204
204 204 204
204 204 204
204 204 204
204 204 204
204 204 204
204 204 204
204 204 204
204 204 204
204 204 204
204 204 204
204 204 204
204 204 204
204 204 204
204 204 204
204 204 204
204 204 204
204 204 204
204 204 204
204 204 204
204 204 204
204 204 204
204 204 204
204 204 204
204 204 204
204 204 204
204 204 204
204 204 204
204 204 204
204 204 204
204 204 204
204 204 204
204 204 204
204 204 204
204 204 204
204 204 204
204 204 204
204 204 204
204 204 204
204 204 204
204 204 204
204 204 204
204 204 204
204 204 204
204 204 204
204 204 204
204 204 204
204 204 204
204 204 204
204 204 204
204 204 204
204 204 204
204 204 204
204 204 204
204 204 204
204 204 204
204 204 204
204 204 204
204 204 204
204 204 204
204 204 204
204 204 204
204 204 204
204 204 204
204 204 204
204 204 204
204 204 204
204 204 204
204 204 204
204 204 204
204 204 204
204 204 204
204 204 204
204 204 204
204 204 204
204 204 204
204 204 204
204 204 204
204 204 204
204 204 204
204 204 204
204 204 204
204 204 204
204 204 204
204 204 204
204 204 204
204 204 204
204 204 204
204 204 204
204 204 204
204 204 204
204 204 204
204 204 204
204 204 204
204 204 204
204 204 204
204 204 204
204 204 204
204 204 204
204 204 204
204 204 204
204 204 204
204 204 204
204 204 204
204 204 204
204 204 204
204 204 204
204 204 204
204 204 204
204 204 204
204 204 204
214 137 137
230 25 25
230 25 25
230 25 25
230 25 25
230 25 25
230 25 25
230 25 25
230 25 25
230 25 25
230 25 25
230 25 25
230 25 25
230 25 25
230 25 25
230 25 25
230 25 25
230 25 25
230 25 25
230 25 25
230 25 25
230 25 25
230 25 25
230 25 25
230 25 25
230 25 25
230 25 25
230 25 25
230 25 25
230 25 25
230 25 25
230 25 25
230 25 25
230 25 25
230 25 25
230 25 25
230 25 25
230 25 25
230 25 25
230 25 25
230 25 25
230 25 25
230 25 25
230 25 25
230 25 25
230 25 25
230 25 25
230 25 25
230 25 25
230 25 25
230 25 25
230 25 25
230 25 25
230 25 25
230 25 25
230 25 25
230 25 25
230 25 25
230 25 25
230 25 25
230 25 25
230 25 25
230 25 25
230 25 25
230 25 25
230 25 25
230 25 25
230 25 25
230 25 25
230 25 25
230 25 25
230 25 25
230 25 25
230 25 25
230 25 25
230 25 25
230 25 25
214 137 137
204 204 204
204 204 204
204 204 204
204 204 204
204 204 204
204 204 204
204 204 204
204 204 204
204 204 204
204 204 204
204 204 204
204 204 204
204 204 204
204 204 204
204 204 204
204 204 204
204 204 204
204 204 204
204 204 204
204 204 204
204 204 204
204 204 204
204 204 204
204 204 204
204 204 204
204 204 204
199 199 199
184 184 184
184 184 184
184 184 184
184 184 184
195 103 103
207 23 23
207 23 23
207 23 23
207 23 23
207 23 23
207 23 23
198 83 83
184 184 184
184 184 184
184 184 184
184 184 184
184 184 184
184 184 184
184 184 184
184 184 184
184 184 184
184 184 184
184 184 184
184 184 184
184 184 184
184 184 184
184 184 184
184 184 184
184 184 184
184 184 184
184 184 184
184 184 184
184 184 184
184 184 184
184 184 184
184 184 184
184 184 184
184 184 184
184 184 184
184 184 184
184 184 184
184 184 184
184 184 184
184 184 184
184 184 184
184 184 184
184 184 184
184 184 184
184 184 184
184 184 184
184 184 184
184 184 184
184 184 184
184 184 184
184 184 184
184 184 184
184 184 184
184 184 184
184 184 184
184 184 184
184 184 184
184 184 184
184 184 184
184 184 184
184 184 184
184 184 184
184 184 184
184 184 184
184 184 184
184 184 184
184 184 184
184 184 184
184 184 184
184 184 184
184 184 184
184 184 184
184 184 184
184 184 184
184 184 184
184 184 184
184 184 184
184 184 184
184 184 184
123 192 123
23 207 23
23 207 23
23 207 23
63 201 63
184 184 184
184 184 184
184 184 184
184 184 184
184 184 184
184 184 184
184 184 184
184 184 184
202 202 202
204 204 204
204 204 204
204 204 204
204 204 204
204 204 204
204 204 204
204 204 204
204 204 204
204 204 204
204 204 204
204 204 204
204 204 204
204 204 204
204 204 204
204 204 204
204 204 204
204 204 204
204 204 204
204 204 204
204 204 204
204 204 204
204 204 204
204 204 204
204 204 204
204 204 204
204 204 204
204 204 204
204 204 204
204 204 204
204 204 204
204 204 204
204 204 204
204 204 204
204 204 204
204 204 204
204 204 204
204 204 204
204 204 204
204 204 204
204 204 204
204 204 204
204 204 204
204 204 204
204 204 204
204 204 204
204 204 204
204 204 204
204 204 204
204 204 204
115 217 115
25 230 25
25 230 25
25 230 25
25 230 25
25 230 25
25 230 25
25 230 25
25 230 25
25 230 25
25 230 25
25 230 25
25 230 25
25 230 25
25 230 25
25 230 25
25 230 25
25 230 25
25 230 25
25 230 25
25 230 25
25 230 25
25 230 25
25 230 25
25 230 25
25 230 25
25 230 25
25 230 25
25 230 25
25 230 25
25 230 25
25 230 25
25 230 25
25 230 25
25 230 25
25 230 25
25 230 25
25 230 25
137 214 137
204 204 204
204 204 204
204 204 204
204 204 204
204 204 204
204 204 204
204 204 204
204 204 204
204 204 204
204 204 204
204 204 204
204 204 204
204 204 204
204 204 204
204 204 204
204 204 204
204 204 204
204 204 204
204 204 204
204 204 204
204 204 204
204 204 204
204 204 204
204 204 204
204 204 204
204 204 204
204 204 204
204 204 204
204 204 204
204 204 204
204 204 204
204 204 204
204 204 204
204 204 204
204 204 204
204 204 204
204 204 204
204 204 204
204 204 204
204 204 204
204 204 204
204 204 204
204 204 204
204 204 204
204 204 204
204 204 204
204 204 204
204 204 204
204 204 204
204 204 204
204 204 204
204 204 204
204 204 204
204 204 204
204 204 204
204 204 204
204 204 204
204 204 204
204 204 204
204 204 204
204 204 204
204 204 204
204 204 204
204 204 204
204 204 204
204 204 204
204 204 204
204 204 204
204 204 204
204 204 204
204 204 204
204 204 204
204 204 204
204 204 204
204 204 204
204 204 204
204 204 204
204 204 204
204 204 204
204 204 204
204 204 204
204 204 204
204 204 204
204 204 204
204 204 204
204 204 204
204 204 204
204 204 204
204 204 204
204 204 204
204 204 204
204 204 204
204 204 204
204 204 204
204 204 204
204 204 204
204 204 204
204 204 204
204 204 204
204 204 204
204 204 204
204 204 204
204 204 204
204 204 204
204 204 204
204 204 204
204 204 204
204 204 204
204 204 204
204 204 204
217 115 115
230 25 25
230 25 25
230 25 25
230 25 25
230 25 25
230 25 25
230 25 25
230 25 25
230 25 25
230 25 25
230 25 25
230 25 25
230 25 25
230 25 25
230 25 25
230 25 25
230 25 25
230 25 25
230 25 25
230 25 25
230 25 25
230 25 25
230 25 25
230 25 25
230 25 25
230 25 25
230 25 25
230 25 25
230 25 25
230 25 25
230 25 25
230 25 25
230 25 25
230 25 25
230 25 25
230 25 25
230 25 25
230 25 25
230 25 25
230 25 25
230 25 25
230 25 25
230 25 25
230 25 25
230 25 25
230 25 25
230 25 25
230 25 25
230 25 25
230 25 25
230 25 25
230 25 25
230 25 25
230 25 25
230 25 25
230 25 25
230 25 25
230 25 25
230 25 25
230 25 25
230 25 25
230 25 25
230 25 25
230 25 25
230 25 25
230 25 25
230 25 25
230 25 25
230 25 25
230 25 25
230 25 25
230 25 25
230 25 25
230 25 25
230 25 25
230 25 25
214 137 137
204 204 204
204 204 204
204 204 204
204 204 204
204 204 204
204 204 204
204 204 204
204 204 204
204 204 204
204 204 204
204 204 204
204 204 204
204 204 204
204 204 204
204 204 204
204 204 204
204 204 204
204 204 204
204 204 204
204 204 204
204 204 204
204 204 204
204 204 204
204 204 204
204 204 204
204 204 204
204 204 204
189 189 189
184 184 184
184 184 184
184 184 184
184 184 184
192 123 123
204 43 43
207 23 23
207 23 23
207 23 23
204 43 43
184 184 184
184 184 184
184 184 184
184 184 184
184 184 184
184 184 184
184 184 184
184 184 184
184 184 184
184 184 184
184 184 184
184 184 184
184 184 184
184 184 184
184 184 184
184 184 184
184 184 184
184 184 184
184 184 184
184 184 184
184 184 184
184 184 184
184 184 184
184 184 184
184 184 184
184 184 184
184 184 184
184 184 184
184 184 184
184 184 184
184 184 184
184 184 184
184 184 184
184 184 184
184 184 184
184 184 184
184 184 184
184 184 184
184 184 184
184 184 184
184 184 184
184 184 184
184 184 184
184 184 184
184 184 184
184 184 184
184 184 184
184 184 184
184 184 184
184 184 184
184 184 184
184 184 184
184 184 184
184 184 184
184 184 184
184 184 184
184 184 184
184 184 184
184 184 184
184 184 184
184 184 184
184 184 184
184 184 184
184 184 184
184 184 184
184 184 184
184 184 184
184 184 184
184 184 184
184 184 184
184 184 184
184 184 184
184 184 184
143 190 143
143 190 143
143 190 143
184 184 184
184 184 184
184 184 184
184 184 184
184 184 184
184 184 184
184 184 184
184 184 184
184 184 184
204 204 204
204 204 204
204 204 204
204 204 204
204 204 204
204 204 204
204 204 204
204 204 204
204 204 204
204 204 204
204 204 204
204 204 204
204 204 204
204 204 204
204 204 204
204 204 204
204 204 204
204 204 204
204 204 204
204 204 204
204 204 204
204 204 204
204 204 204
204 204 204
204 204 204
204 204 204
204 204 204
204 204 204
204 204 204
204 204 204
204 204 204
204 204 204
204 204 204
204 204 204
204 204 204
204 204 204
204 204 204
204 204 204
204 204 204
204 204 204
204 204 204
204 204 204
204 204 204
204 204 204
204 204 204
204 204 204
204 204 204
204 204 204
204 204 204
115 217 115
25 230 25
25 230 25
25 230 25
25 230 25
25 230 25
25 230 25
25 230 25
25 230 25
25 230 25
25 230 25
25 230 25
25 230 25
25 230 25
25 230 25
25 230 25
25 230 25
25 230 25
25 230 25
25 230 25
25 230 25
25 230 25
25 230 25
25 230 25
25 230 25
25 230 25
25 230 25
25 230 25
25 230 25
25 230 25
25 230 25
25 230 25
25 230 25
25 230 25
25 230 25
25 230 25
25 230 25
25 230 25
25 230 25
25 230 25
47 227 47
159 211 159
204 204 204
204 204 204
204 204 204
204 204 204
204 204 204
204 204 204
204 204 204
204 204 204
204 204 204
204 204 204
204 204 204
204 204 204
204 204 204
204 204 204
204 204 204
204 204 204
204 204 204
204 204 204
204 204 204
204 204 204
204 204 204
204 204 204
204 204 204
204 204 204
204 204 204
204 204 204
204 204 204
204 204 204
204 204 204
204 204 204
204 204 204
204 204 204
204 204 204
204 204 204
204 204 204
204 204 204
204 204 204
204 204 204
204 204 204
204 204 204
204 204 204
204 204 204
204 204 204
204 204 204
204 204 204
204 204 204
204 204 204
204 204 204
204 204 204
204 204 204
204 204 204
204 204 204
204 204 204
204 204 204
204 204 204
204 204 204
204 204 204
204 204 204
204 204 204
204 204 204
204 204 204
204 204 204
204 204 204
204 204 204
204 204 204
204 204 204
204 204 204
204 204 204
204 204 204
204 204 204
204 204 204
204 204 204
204 204 204
204 204 204
204 204 204
204 204 204
204 204 204
204 204 204
204 204 204
204 204 204
204 204 204
204 204 204
204 204 204
204 204 204
204 204 204
204 204 204
204 204 204
204 204 204
204 204 204
204 204 204
204 204 204
204 204 204
204 204 204
204 204 204
204 204 204
204 204 204
204 204 204
204 204 204
204 204 204
204 204 204
204 204 204
204 204 204
204 204 204
204 204 204
204 204 204
204 204 204
204 204 204
204 204 204
220 92 92
230 25 25
230 25 25
230 25 25
230 25 25
230 25 25
230 25 25
230 25 25
230 25 25
230 25 25
230 25 25
230 25 25
230 25 25
230 25 25
230 25 25
230 25 25
230 25 25
230 25 25
230 25 25
230 25 25
230 25 25
230 25 25
230 25 25
230 25 25
230 25 25
230 25 25
230 25 25
230 25 25
230 25 25
230 25 25
230 25 25
230 25 25
230 25 25
230 25 25
230 25 25
230 25 25
230 25 25
230 25 25
230 25 25
230 25 25
230 25 25
230 25 25
230 25 25
230 25 25
230 25 25
230 25 25
230 25 25
230 25 25
230 25 25
230 25 25
230 25 25
230 25 25
230 25 25
230 25 25
230 25 25
230 25 25
230 25 25
230 25 25
230 25 25
230 25 25
230 25 25
230 25 25
230 25 25
230 25 25
230 25 25
230 25 25
230 25 25
230 25 25
230 25 25
230 25 25
230 25 25
230 25 25
230 25 25
230 25 25
230 25 25
230 25 25
230 25 25
211 159 159
204 204 204
204 204 204
204 204 204
204 204 204
204 204 204
204 204 204
204 204 204
204 204 204
204 204 204
204 204 204
204 204 204
204 204 204
204 204 204
204 204 204
204 204 204
204 204 204
204 204 204
204 204 204
204 204 204
204 204 204
204 204 204
204 204 204
204 204 204
204 204 204
204 204 204
204 204 204
204 204 204
189 189 189
184 184 184
184 184 184
184 184 184
184 184 184
184 184 184
190 143 143
195 103 103
207 23 23
195 103 103
190 143 143
184 184 184
184 184 184
184 184 184
184 184 184
184 184 184
184 184 184
184 184 184
184 184 184
184 184 184
184 184 184
184 184 184
184 184 184
184 184 184
184 184 184
184 184 184
184 184 184
184 184 184
184 184 184
184 184 184
184 184 184
184 184 184
184 184 184
184 184 184
184 184 184
184 184 184
184 184 184
184 184 184
184 184 184
184 184 184
184 184 184
184 184 184
184 184 184
184 184 184
184 184 184
184 184 184
184 184 184
184 184 184
184 184 184
184 184 184
184 184 184
184 184 184
184 184 184
184 184 184
184 184 184
184 184 184
184 184 184
184 184 184
184 184 184
184 184 184
184 184 184
184 184 184
184 184 184
184 184 184
184 184 184
184 184 184
184 184 184
184 184 184
184 184 184
184 184 184
184 184 184
184 184 184
184 184 184
184 184 184
184 184 184
184 184 184
184 184 184
184 184 184
184 184 184
184 184 184
184 184 184
184 184 184
184 184 184
184 184 184
184 184 184
184 184 184
184 184 184
184 184 184
184 184 184
184 184 184
184 184 184
184 184 184
184 184 184
184 184 184
184 184 184
202 202 202
204 204 204
204 204 204
204 204 204
204 204 204
204 204 204
204 204 204
204 204 204
204 204 204
204 204 204
204 204 204
204 204 204
204 204 204
204 204 204
204 204 204
204 204 204
204 204 204
204 204 204
204 204 204
204 204 204
204 204 204
204 204 204
204 204 204
204 204 204
204 204 204
204 204 204
204 204 204
204 204 204
204 204 204
204 204 204
204 204 204
204 204 204
204 204 204
204 204 204
204 204 204
204 204 204
204 204 204
204 204 204
204 204 204
204 204 204
204 204 204
204 204 204
204 204 204
204 204 204
204 204 204
204 204 204
204 204 204
204 204 204
204 204 204
92 220 92
25 230 25
25 230 25
25 230 25
25 230 25
25 230 25
25 230 25
25 230 25
25 230 25
25 230 25
25 230 25
25 230 25
25 230 25
25 230 25
25 230 25
25 230 25
25 230 25
25 230 25
25 230 25
25 230 25
25 230 25
25 230 25
25 230 25
25 230 25
25 230 25
25 230 25
25 230 25
25 230 25
25 230 25
25 230 25
25 230 25
25 230 25
25 230 25
25 230 25
25 230 25
25 230 25
25 230 25
25 230 25
25 230 25
25 230 25
25 230 25
25 230 25
70 223 70
159 211 159
204 204 204
204 204 204
204 204 204
204 204 204
204 204 204
204 204 204
204 204 204
204 204 204
204 204 204
204 204 204
204 204 204
204 204 204
204 204 204
204 204 204
204 204 204
204 204 204
204 204 204
204 204 204
204 204 204
204 204 204
204 204 204
204 204 204
204 204 204
204 204 204
204 204 204
204 204 204
204 204 204
204 204 204
204 204 204
204 204 204
204 204 204
204 204 204
204 204 204
204 204 204
204 204 204
204 204 204
204 204 204
204 204 204
204 204 204
204 204 204
204 204 204
204 204 204
204 204 204
204 204 204
204 204 204
204 204 204
204 204 204
204 204 204
204 204 204
204 204 204
204 204 204
204 204 204
204 204 204
204 204 204
204 204 204
204 204 204
204 204 204
204 204 204
204 204 204
204 204 204
204 204 204
204 204 204
204 204 204
204 204 204
204 204 204
204 204 204
204 204 204
204 204 204
204 204 204
204 204 204
204 204 204
204 204 204
204 204 204
204 204 204
204 204 204
204 204 204
204 204 204
204 204 204
204 204 204
204 204 204
204 204 204
204 204 204
204 204 204
204 204 204
204 204 204
204 204 204
204 204 204
204 204 204
204 204 204
204 204 204
204 204 204
204 204 204
204 204 204
204 204 204
204 204 204
204 204 204
204 204 204
204 204 204
204 204 204
204 204 204
204 204 204
204 204 204
204 204 204
204 204 204
204 204 204
204 204 204
204 204 204
223 70 70
230 25 25
230 25 25
230 25 25
230 25 25
230 25 25
230 25 25
230 25 25
230 25 25
230 25 25
230 25 25
230 25 25
230 25 25
230 25 25
230 25 25
230 25 25
230 25 25
230 25 25
230 25 25
230 25 25
230 25 25
230 25 25
230 25 25
230 25 25
230 25 25
230 25 25
230 25 25
230 25 25
230 25 25
230 25 25
230 25 25
230 25 25
230 25 25
230 25 25
230 25 25
230 25 25
230 25 25
230 25 25
230 25 25
230 25 25
230 25 25
230 25 25
230 25 25
230 25 25
230 25 25
230 25 25
230 25 25
230 25 25
230 25 25
230 25 25
230 25 25
230 25 25
230 25 25
230 25 25
230 25 25
230 25 25
230 25 25
230 25 25
230 25 25
230 25 25
230 25 25
230 25 25
230 25 25
230 25 25
230 25 25
230 25 25
230 25 25
230 25 25
230 25 25
230 25 25
230 25 25
230 25 25
230 25 25
230 25 25
230 25 25
230 25 25
230 25 25
220 92 92
204 204 204
204 204 204
204 204 204
204 204 204
204 204 204
204 204 204
204 204 204
204 204 204
204 204 204
204 204 204
204 204 204
204 204 204
204 204 204
204 204 204
204 204 204
204 204 204
204 204 204
204 204 204
204 204 204
204 204 204
204 204 204
204 204 204
204 204 204
204 204 204
204 204 204
204 204 204
204 204 204
202 202 202
184 184 184
184 184 184
184 184 184
184 184 184
184 184 184
184 184 184
184 184 184
184 184 184
184 184 184
184 184 184
184 184 184
184 184 184
184 184 184
184 184 184
184 184 184
184 184 184
184 184 184
184 184 184
184 184 184
184 184 184
184 184 184
184 184 184
184 184 184
184 184 184
184 184 184
184 184 184
184 184 184
184 184 184
184 184 184
184 184 184
184 184 184
184 184 184
184 184 184
184 184 184
184 184 184
184 184 184
184 184 184
184 184 184
184 184 184
184 184 184
184 184 184
184 184 184
184 184 184
184 184 184
184 184 184
184 184 184
184 184 184
184 184 184
184 184 184
184 184 184
184 184 184
184 184 184
184 184 184
184 184 184
184 184 184
184 184 184
184 184 184
184 184 184
184 184 184
184 184 184
184 184 184
184 184 184
184 184 184
184 184 184
184 184 184
184 184 184
184 184 184
184 184 184
184 184 184
184 184 184
184 184 184
184 184 184
184 184 184
184 184 184
184 184 184
184 184 184
184 184 184
184 184 184
184 184 184
184 184 184
184 184 184
184 184 184
184 184 184
184 184 184
184 184 184
184 184 184
184 184 184
184 184 184
184 184 184
184 184 184
184 184 184
184 184 184
184 184 184
186 186 186
204 204 204
204 204 204
204 204 204
204 204 204
204 204 204
204 204 204
204 204 204
204 204 204
204 204 204
204 204 204
204 204 204
204 204 204
204 204 204
204 204 204
204 204 204
204 204 204
204 204 204
204 204 204
204 204 204
204 204 204
204 204 204
204 204 204
204 204 204
204 204 204
204 204 204
204 204 204
204 204 204
204 204 204
204 204 204
204 204 204
204 204 204
204 204 204
204 204 204
204 204 204
204 204 204
204 204 204
204 204 204
204 204 204
204 204 204
204 204 204
204 204 204
204 204 204
204 204 204
204 204 204
204 204 204
204 204 204
204 204 204
204 204 204
137 214 137
25 230 25
25 230 25
25 230 25
25 230 25
25 230 25
25 230 25
25 230 25
25 230 25
25 230 25
25 230 25
25 230 25
25 230 25
25 230 25
25 230 25
25 230 25
25 230 25
25 230 25
25 230 25
25 230 25
25 230 25
25 230 25
25 230 25
25 230 25
25 230 25
25 230 25
25 230 25
25 230 25
25 230 25
25 230 25
25 230 25
25 230 25
25 230 25
25 230 25
25 230 25
25 230 25
25 230 25
25 230 25
25 230 25
25 230 25
25 230 25
25 230 25
25 230 25
25 230 25
25 230 25
182 207 182
204 204 204
204 204 204
204 204 204
204 204 204
204 204 204
204 204 204
204 204 204
204 204 204
204 204 204
204 204 204
204 204 204
204 204 204
204 204 204
204 204 204
204 204 204
204 204 204
204 204 204
204 204 204
204 204 204
204 204 204
204 204 204
204 204 204
204 204 204
204 204 204
204 204 204
204 204 204
204 204 204
204 204 204
204 204 204
204 204 204
204 204 204
204 204 204
204 204 204
204 204 204
204 204 204
204 204 204
204 204 204
204 204 204
204 204 204
204 204 204
204 204 204
204 204 204
204 204 204
204 204 204
204 204 204
204 204 204
204 204 204
204 204 204
204 204 204
204 204 204
204 204 204
204 204 204
204 204 204
204 204 204
204 204 204
204 204 204
204 204 204
204 204 204
204 204 204
204 204 204
204 204 204
204 204 204
204 204 204
204 204 204
204 204 204
204 204 204
204 204 204
204 204 204
204 204 204
204 204 204
204 204 204
204 204 204
204 204 204
204 204 204
204 204 204
204 204 204
204 204 204
204 204 204
204 204 204
204 204 204
204 204 204
204 204 204
204 204 204
204 204 204
204 204 204
204 204 204
204 204 204
204 204 204
204 204 204
204 204 204
204 204 204
204 204 204
204 204 204
204 204 204
204 204 204
204 204 204
204 204 204
204 204 204
204 204 204
204 204 204
204 204 204
204 204 204
204 204 204
204 204 204
204 204 204
204 204 204
230 25 25
230 25 25
230 25 25
230 25 25
230 25 25
230 25 25
230 25 25
230 25 25
230 25 25
230 25 25
230 25 25
230 25 25
230 25 25
230 25 25
230 25 25
230 25 25
230 25 25
230 25 25
230 25 25
230 25 25
230 25 25
230 25 25
230 25 25
230 25 25
230 25 25
230 25 25
230 25 25
230 25 25
230 25 25
230 25 25
230 25 25
230 25 25
230 25 25
230 25 25
230 25 25
230 25 25
230 25 25
230 25 25
230 25 25
230 25 25
230 25 25
230 25 25
230 25 25
230 25 25
230 25 25
230 25 25
230 25 25
230 25 25
230 25 25
230 25 25
230 25 25
230 25 25
230 25 25
230 25 25
230 25 25
230 25 25
230 25 25
230 25 25
230 25 25
230 25 25
230 25 25
230 25 25
230 25 25
230 25 25
230 25 25
230 25 25
230 25 25
230 25 25
230 25 25
230 25 25
230 25 25
230 25 25
230 25 25
230 25 25
230 25 25
230 25 25
230 25 25
217 115 115
204 204 204
204 204 204
204 204 204
204 204 204
204 204 204
204 204 204
204 204 204
204 204 204
204 204 204
204 204 204
204 204 204
204 204 204
204 204 204
204 204 204
204 204 204
204 204 204
204 204 204
204 204 204
204 204 204
204 204 204
204 204 204
204 204 204
204 204 204
204 204 204
204 204 204
204 204 204
204 204 204
204 204 204
197 197 197
184 184 184
184 184 184
184 184 184
184 184 184
184 184 184
184 184 184
184 184 184
184 184 184
184 184 184
184 184 184
184 184 184
184 184 184
184 184 184
184 184 184
184 184 184
184 184 184
184 184 184
184 184 184
184 184 184
184 184 184
184 184 184
184 184 184
184 184 184
184 184 184
184 184 184
184 184 184
184 184 184
184 184 184
184 184 184
184 184 184
184 184 184
184 184 184
184 184 184
184 184 184
184 184 184
184 184 184
184 184 184
184 184 184
184 184 184
184 184 184
184 184 184
184 184 184
184 184 184
184 184 184
184 184 184
184 184 184
184 184 184
184 184 184
184 184 184
184 184 184
184 184 184
184 184 184
184 184 184
184 184 184
184 184 184
184 184 184
184 184 184
184 184 184
184 184 184
184 184 184
184 184 184
184 184 184
184 184 184
184 184 184
184 184 184
184 184 184
184 184 184
184 184 184
184 184 184
184 184 184
184 184 184
184 184 184
184 184 184
184 184 184
184 184 184
184 184 184
184 184 184
184 184 184
184 184 184
184 184 184
184 184 184
184 184 184
184 184 184
184 184 184
184 184 184
184 184 184
184 184 184
184 184 184
184 184 184
184 184 184
184 184 184
184 184 184
194 194 194
204 204 204
204 204 204
204 204 204
204 204 204
204 204 204
204 204 204
204 204 204
204 204 204
204 204 204
204 204 204
204 204 204
204 204 204
204 204 204
204 204 204
204 204 204
204 204 204
204 204 204
204 204 204
204 204 204
204 204 204
204 204 204
204 204 204
204 204 204
204 204 204
204 204 204
204 204 204
204 204 204
204 204 204
204 204 204
204 204 204
204 204 204
204 204 204
204 204 204
204 204 204
204 204 204
204 204 204
204 204 204
204 204 204
204 204 204
204 204 204
204 204 204
204 204 204
204 204 204
204 204 204
204 204 204
204 204 204
204 204 204
182 207 182
70 223 70
25 230 25
25 230 25
25 230 25
25 230 25
25 230 25
25 230 25
25 230 25
25 230 25
25 230 25
25 230 25
25 230 25
25 230 25
25 230 25
25 230 25
25 230 25
25 230 25
25 230 25
25 230 25
25 230 25
25 230 25
25 230 25
25 230 25
25 230 25
25 230 25
25 230 25
25 230 25
25 230 25
25 230 25
25 230 25
25 230 25
25 230 25
25 230 25
25 230 25
25 230 25
25 230 25
25 230 25
25 230 25
25 230 25
25 230 25
25 230 25
25 230 25
25 230 25
25 230 25
25 230 25
70 223 70
204 204 204
204 204 204
204 204 204
204 204 204
204 204 204
204 204 204
204 204 204
204 204 204
204 204 204
204 204 204
204 204 204
204 204 204
204 204 204
204 204 204
204 204 204
204 204 204
204 204 204
204 204 204
204 204 204
204 204 204
204 204 204
204 204 204
204 204 204
204 204 204
204 204 204
204 204 204
204 204 204
204 204 204
204 204 204
204 204 204
204 204 204
204 204 204
204 204 204
204 204 204
204 204 204
204 204 204
204 204 204
204 204 204
204 204 204
204 204 204
204 204 204
204 204 204
204 204 204
204 204 204
204 204 204
204 204 204
204 204 204
204 204 204
204 204 204
204 204 204
204 204 204
204 204 204
204 204 204
204 204 204
204 204 204
204 204 204
204 204 204
204 204 204
204 204 204
204 204 204
204 204 204
204 204 204
204 204 204
204 204 204
204 204 204
204 204 204
204 204 204
204 204 204
204 204 204
204 204 204
204 204 204
204 204 204
204 204 204
204 204 204
204 204 204
204 204 204
204 204 204
204 204 204
204 204 204
204 204 204
204 204 204
204 204 204
204 204 204
204 204 204
204 204 204
204 204 204
204 204 204
204 204 204
204 204 204
204 204 204
204 204 204
204 204 204
204 204 204
204 204 204
204 204 204
204 204 204
204 204 204
204 204 204
204 204 204
204 204 204
204 204 204
204 204 204
204 204 204
204 204 204
204 204 204
207 182 182
230 25 25
230 25 25
230 25 25
230 25 25
230 25 25
230 25 25
230 25 25
230 25 25
230 25 25
230 25 25
230 25 25
230 25 25
230 25 25
230 25 25
230 25 25
230 25 25
230 25 25
230 25 25
230 25 25
230 25 25
230 25 25
230 25 25
230 25 25
230 25 25
230 25 25
230 25 25
230 25 25
230 25 25
230 25 25
230 25 25
230 25 25
230 25 25
230 25 25
230 25 25
230 25 25
230 25 25
230 25 25
230 25 25
230 25 25
230 25 25
230 25 25
230 25 25
230 25 25
230 25 25
230 25 25
230 25 25
230 25 25
230 25 25
230 25 25
230 25 25
230 25 25
230 25 25
230 25 25
230 25 25
230 25 25
230 25 25
230 25 25
230 25 25
230 25 25
230 25 25
230 25 25
230 25 25
230 25 25
230 25 25
230 25 25
230 25 25
230 25 25
230 25 25
230 25 25
230 25 25
230 25 25
230 25 25
230 25 25
230 25 25
230 25 25
230 25 25
230 25 25
220 92 92
204 204 204
204 204 204
204 204 204
204 204 204
204 204 204
204 204 204
204 204 204
204 204 204
204 204 204
204 204 204
204 204 204
204 204 204
204 204 204
204 204 204
204 204 204
204 204 204
204 204 204
204 204 204
204 204 204
204 204 204
204 204 204
204 204 204
204 204 204
204 204 204
204 204 204
204 204 204
204 204 204
204 204 204
202 202 202
184 184 184
184 184 184
184 184 184
184 184 184
184 184 184
184 184 184
184 184 184
184 184 184
184 184 184
184 184 184
184 184 184
184 184 184
184 184 184
184 184 184
184 184 184
184 184 184
184 184 184
184 184 184
184 184 184
184 184 184
184 184 184
184 184 184
184 184 184
184 184 184
184 184 184
184 184 184
184 184 184
184 184 184
184 184 184
184 184 184
184 184 184
184 184 184
184 184 184
184 184 184
184 184 184
184 184 184
184 184 184
184 184 184
184 184 184
184 184 184
184 184 184
184 184 184
184 184 184
184 184 184
184 184 184
184 184 184
184 184 184
184 184 184
184 184 184
184 184 184
184 184 184
184 184 184
184 184 184
184 184 184
184 184 184
184 184 184
184 184 184
184 184 184
184 184 184
184 184 184
184 184 184
184 184 184
184 184 184
184 184 184
184 184 184
184 184 184
184 184 184
184 184 184
184 184 184
184 184 184
184 184 184
184 184 184
184 184 184
184 184 184
184 184 184
184 184 184
184 184 184
184 184 184
184 184 184
184 184 184
184 184 184
184 184 184
184 184 184
184 184 184
184 184 184
184 184 184
184 184 184
184 184 184
184 184 184
184 184 184
184 184 184
186 186 186
204 204 204
204 204 204
204 204 204
204 204 204
204 204 204
204 204 204
204 204 204
204 204 204
204 204 204
204 204 204
204 204 204
204 204 204
204 204 204
204 204 204
204 204 204
204 204 204
204 204 204
204 204 204
204 204 204
204 204 204
204 204 204
204 204 204
204 204 204
204 204 204
204 204 204
204 204 204
204 204 204
204 204 204
204 204 204
204 204 204
204 204 204
204 204 204
204 204 204
204 204 204
204 204 204
204 204 204
204 204 204
204 204 204
204 204 204
204 204 204
204 204 204
204 204 204
204 204 204
204 204 204
204 204 204
204 204 204
204 204 204
204 204 204
137 214 137
25 230 25
25 230 25
25 230 25
25 230 25
25 230 25
25 230 25
25 230 25
25 230 25
25 230 25
25 230 25
25 230 25
25 230 25
25 230 25
25 230 25
25 230 25
25 230 25
25 230 25
25 230 25
25 230 25
25 230 25
25 230 25
25 230 25
25 230 25
25 230 25
25 230 25
25 230 25
25 230 25
25 230 25
25 230 25
25 230 25
25 230 25
25 230 25
25 230 25
25 230 25
25 230 25
25 230 25
25 230 25
25 230 25
25 230 25
25 230 25
25 230 25
25 230 25
25 230 25
25 230 25
25 230 25
25 230 25
92 220 92
204 204 204
204 204 204
204 204 204
204 204 204
204 204 204
204 204 204
204 204 204
204 204 204
204 204 204
204 204 204
204 204 204
204 204 204
204 204 204
204 204 204
204 204 204
204 204 204
204 204 204
204 204 204
204 204 204
204 204 204
204 204 204
204 204 204
204 204 204
204 204 204
204 204 204
204 204 204
204 204 204
204 204 204
204 204 204
204 204 204
204 204 204
204 204 204
204 204 204
204 204 204
204 204 204
204 204 204
204 204 204
204 204 204
204 204 204
204 204 204
204 204 204
204 204 204
204 204 204
204 204 204
204 204 204
204 204 204
204 204 204
204 204 204
204 204 204
204 204 204
204 204 204
204 204 204
204 204 204
204 204 204
204 204 204
204 204 204
204 204 204
204 204 204
204 204 204
204 204 204
204 204 204
204 204 204
204 204 204
204 204 204
204 204 204
204 204 204
204 204 204
204 204 204
204 204 204
204 204 204
204 204 204
204 204 204
204 204 204
204 204 204
204 204 204
204 204 204
204 204 204
204 204 204
204 204 204
204 204 204
204 204 204
204 204 204
204 204 204
204 204 204
204 204 204
204 204 204
204 204 204
204 204 204
204 204 204
204 204 204
204 204 204
204 204 204
204 204 204
204 204 204
204 204 204
204 204 204
204 204 204
204 204 204
204 204 204
204 204 204
204 204 204
204 204 204
204 204 204
204 204 204
207 182 182
230 25 25
230 25 25
230 25 25
230 25 25
230 25 25
230 25 25
230 25 25
230 25 25
230 25 25
230 25 25
230 25 25
230 25 25
230 25 25
230 25 25
230 25 25
230 25 25
230 25 25
230 25 25
230 25 25
230 25 25
230 25 25
230 25 25
230 25 25
230 25 25
230 25 25
230 25 25
230 25 25
230 25 25
230 25 25
230 25 25
230 25 25
230 25 25
230 25 25
230 25 25
230 25 25
230 25 25
230 25 25
230 25 25
230 25 25
230 25 25
230 25 25
230 25 25
230 25 25
230 25 25
230 25 25
230 25 25
230 25 25
230 25 25
230 25 25
230 25 25
230 25 25
230 25 25
230 25 25
230 25 25
230 25 25
230 25 25
230 25 25
230 25 25
230 25 25
230 25 25
230 25 25
230 25 25
230 25 25
230 25 25
230 25 25
230 25 25
230 25 25
230 25 25
230 25 25
230 25 25
230 25 25
230 25 25
230 25 25
230 25 25
230 25 25
230 25 25
230 25 25
223 70 70
204 204 204
204 204 204
204 204 204
204 204 204
204 204 204
204 204 204
204 204 204
204 204 204
204 204 204
204 204 204
204 204 204
204 204 204
204 204 204
204 204 204
204 204 204
204 204 204
204 204 204
204 204 204
204 204 204
204 204 204
204 204 204
204 204 204
204 204 204
204 204 204
204 204 204
204 204 204
204 204 204
204 204 204
204 204 204
194 194 194
184 184 184
184 184 184
184 184 184
184 184 184
184 184 184
184 184 184
184 184 184
184 184 184
184 184 184
184 184 184
184 184 184
184 184 184
184 184 184
184 184 184
184 184 184
184 184 184
184 184 184
184 184 184
184 184 184
184 184 184
184 184 184
184 184 184
184 184 184
184 184 184
184 184 184
184 184 184
184 184 184
184 184 184
184 184 184
184 184 184
184 184 184
184 184 184
184 184 184
184 184 184
184 184 184
184 184 184
184 184 184
184 184 184
184 184 184
184 184 184
184 184 184
184 184 184
184 184 184
184 184 184
184 184 184
184 184 184
184 184 184
184 184 184
184 184 184
184 184 184
184 184 184
184 184 184
184 184 184
184 184 184
184 184 184
184 184 184
184 184 184
184 184 184
184 184 184
184 184 184
184 184 184
184 184 184
184 184 184
184 184 184
184 184 184
184 184 184
184 184 184
184 184 184
184 184 184
184 184 184
184 184 184
184 184 184
184 184 184
184 184 184
184 184 184
184 184 184
184 184 184
184 184 184
184 184 184
184 184 184
184 184 184
184 184 184
184 184 184
184 184 184
184 184 184
184 184 184
184 184 184
184 184 184
184 184 184
184 184 184
199 199 199
204 204 204
204 204 204
204 204 204
204 204 204
204 204 204
204 204 204
204 204 204
204 204 204
204 204 204
204 204 204
204 204 204
204 204 204
204 204 204
204 204 204
204 204 204
204 204 204
204 204 204
204 204 204
204 204 204
204 204 204
204 204 204
204 204 204
204 204 204
204 204 204
204 204 204
204 204 204
204 204 204
204 204 204
204 204 204
204 204 204
204 204 204
204 204 204
204 204 204
204 204 204
204 204 204
204 204 204
204 204 204
204 204 204
204 204 204
204 204 204
204 204 204
204 204 204
204 204 204
204 204 204
204 204 204
204 204 204
204 204 204
204 204 204
47 227 47
25 230 25
25 230 25
25 230 25
25 230 25
25 230 25
25 230 25
25 230 25
25 230 25
25 230 25
25 230 25
25 230 25
25 230 25
25 230 25
25 230 25
25 230 25
25 230 25
25 230 25
25 230 25
25 230 25
25 230 25
25 230 25
25 230 25
25 230 25
25 230 25
25 230 25
25 230 25
25 230 25
25 230 25
25 230 25
25 230 25
25 230 25
25 230 25
25 230 25
25 230 25
25 230 25
25 230 25
25 230 25
25 230 25
25 230 25
25 230 25
25 230 25
25 230 25
25 230 25
25 230 25
25 230 25
25 230 25
25 230 25
115 217 115
204 204 204
204 204 204
204 204 204
204 204 204
204 204 204
204 204 204
204 204 204
204 204 204
204 204 204
204 204 204
204 204 204
204 204 204
204 204 204
204 204 204
204 204 204
204 204 204
204 204 204
204 204 204
204 204 204
204 204 204
204 204 204
204 204 204
204 204 204
204 204 204
204 204 204
204 204 204
204 204 204
204 204 204
204 204 204
204 204 204
204 204 204
204 204 204
204 204 204
204 204 204
204 204 204
204 204 204
204 204 204
204 204 204
204 204 204
204 204 204
204 204 204
204 204 204
204 204 204
204 204 204
204 204 204
204 204 204
204 204 204
204 204 204
204 204 204
204 204 204
204 204 204
204 204 204
204 204 204
204 204 204
204 204 204
204 204 204
204 204 204
204 204 204
204 204 204
204 204 204
204 204 204
204 204 204
204 204 204
204 204 204
204 204 204
204 204 204
204 204 204
204 204 204
204 204 204
204 204 204
204 204 204
204 204 204
204 204 204
204 204 204
204 204 204
204 204 204
204 204 204
204 204 204
204 204 204
204 204 204
204 204 204
204 204 204
204 204 204
204 204 204
204 204 204
204 204 204
204 204 204
204 204 204
204 204 204
204 204 204
204 204 204
204 204 204
204 204 204
204 204 204
204 204 204
204 204 204
204 204 204
204 204 204
204 204 204
204 204 204
204 204 204
204 204 204
204 204 204
204 204 204
230 25 25
230 25 25
230 25 25
230 25 25
230 25 25
230 25 25
230 25 25
230 25 25
230 25 25
230 25 25
230 25 25
230 25 25
230 25 25
230 25 25
230 25 25
230 25 25
230 25 25
230 25 25
230 25 25
230 25 25
230 25 25
230 25 25
230 25 25
230 25 25
230 25 25
230 25 25
230 25 25
230 25 25
230 25 25
230 25 25
230 25 25
230 25 25
230 25 25
230 25 25
230 25 25
230 25 25
230 25 25
230 25 25
230 25 25
230 25 25
230 25 25
230 25 25
230 25 25
230 25 25
230 25 25
230 25 25
230 25 25
230 25 25
230 25 25
230 25 25
230 25 25
230 25 25
230 25 25
230 25 25
230 25 25
230 25 25
230 25 25
230 25 25
230 25 25
230 25 25
230 25 25
230 25 25
230 25 25
230 25 25
230 25 25
230 25 25
230 25 25
230 25 25
230 25 25
230 25 25
230 25 25
230 25 25
230 25 25
230 25 25
230 25 25
230 25 25
230 25 25
207 182 182
204 204 204
204 204 204
204 204 204
204 204 204
204 204 204
204 204 204
204 204 204
204 204 204
204 204 204
204 204 204
204 204 204
204 204 204
204 204 204
204 204 204
204 204 204
204 204 204
204 204 204
204 204 204
204 204 204
204 204 204
204 204 204
204 204 204
204 204 204
204 204 204
204 204 204
204 204 204
204 204 204
204 204 204
204 204 204
204 204 204
184 184 184
184 184 184
184 184 184
184 184 184
184 184 184
184 184 184
184 184 184
184 184 184
184 184 184
184 184 184
184 184 184
184 184 184
184 184 184
184 184 184
184 184 184
184 184 184
184 184 184
184 184 184
184 184 184
184 184 184
184 184 184
184 184 184
184 184 184
184 184 184
184 184 184
184 184 184
184 184 184
184 184 184
184 184 184
184 184 184
184 184 184
184 184 184
184 184 184
184 184 184
184 184 184
184 184 184
184 184 184
184 184 184
184 184 184
184 184 184
184 184 184
184 184 184
184 184 184
184 184 184
184 184 184
184 184 184
184 184 184
184 184 184
184 184 184
184 184 184
184 184 184
184 184 184
184 184 184
184 184 184
184 184 184
184 184 184
184 184 184
184 184 184
184 184 184
184 184 184
184 184 184
184 184 184
184 184 184
184 184 184
184 184 184
184 184 184
184 184 184
184 184 184
184 184 184
184 184 184
184 184 184
184 184 184
184 184 184
184 184 184
184 184 184
184 184 184
184 184 184
184 184 184
184 184 184
184 184 184
184 184 184
184 184 184
184 184 184
184 184 184
184 184 184
184 184 184
184 184 184
184 184 184
184 184 184
186 186 186
202 202 202
204 204 204
204 204 204
204 204 204
204 204 204
204 204 204
204 204 204
204 204 204
204 204 204
204 204 204
204 204 204
204 204 204
204 204 204
204 204 204
204 204 204
204 204 204
204 204 204
204 204 204
204 204 204
204 204 204
204 204 204
204 204 204
204 204 204
204 204 204
204 204 204
204 204 204
204 204 204
204 204 204
204 204 204
204 204 204
204 204 204
204 204 204
204 204 204
204 204 204
204 204 204
204 204 204
204 204 204
204 204 204
204 204 204
204 204 204
204 204 204
204 204 204
204 204 204
204 204 204
204 204 204
204 204 204
204 204 204
204 204 204
92 220 92
25 230 25
25 230 25
25 230 25
25 230 25
25 230 25
25 230 25
25 230 25
25 230 25
25 230 25
25 230 25
25 230 25
25 230 25
25 230 25
25 230 25
25 230 25
25 230 25
25 230 25
25 230 25
25 230 25
25 230 25
25 230 25
25 230 25
25 230 25
25 230 25
25 230 25
25 230 25
25 230 25
25 230 25
25 230 25
25 230 25
25 230 25
25 230 25
25 230 25
25 230 25
25 230 25
25 230 25
25 230 25
25 230 25
25 230 25
25 230 25
25 230 25
25 230 25
25 230 25
25 230 25
25 230 25
25 230 25
25 230 25
25 230 25
47 227 47
204 204 204
204 204 204
204 204 204
204 204 204
204 204 204
204 204 204
204 204 204
204 204 204
204 204 204
204 204 204
204 204 204
204 204 204
204 204 204
204 204 204
204 204 204
204 204 204
204 204 204
204 204 204
204 204 204
204 204 204
204 204 204
204 204 204
204 204 204
204 204 204
204 204 204
204 204 204
204 204 204
204 204 204
204 204 204
204 204 204
204 204 204
204 204 204
204 204 204
204 204 204
204 204 204
204 204 204
204 204 204
204 204 204
204 204 204
204 204 204
204 204 204
204 204 204
204 204 204
204 204 204
204 204 204
204 204 204
204 204 204
204 204 204
204 204 204
204 204 204
204 204 204
204 204 204
204 204 204
204 204 204
204 204 204
204 204 204
204 204 204
204 204 204
204 204 204
204 204 204
204 204 204
204 204 204
204 204 204
204 204 204
204 204 204
204 204 204
204 204 204
204 204 204
204 204 204
204 204 204
204 204 204
204 204 204
204 204 204
204 204 204
204 204 204
204 204 204
204 204 204
204 204 204
204 204 204
204 204 204
204 204 204
204 204 204
204 204 204
204 204 204
204 204 204
204 204 204
204 204 204
204 204 204
204 204 204
204 204 204
204 204 204
204 204 204
204 204 204
204 204 204
204 204 204
204 204 204
204 204 204
204 204 204
204 204 204
204 204 204
204 204 204
204 204 204
204 204 204
204 204 204
230 25 25
230 25 25
230 25 25
230 25 25
230 25 25
230 25 25
230 25 25
230 25 25
230 25 25
230 25 25
230 25 25
230 25 25
230 25 25
230 25 25
230 25 25
230 25 25
230 25 25
230 25 25
230 25 25
230 25 25
230 25 25
230 25 25
230 25 25
230 25 25
230 25 25
230 25 25
230 25 25
230 25 25
230 25 25
230 25 25
230 25 25
230 25 25
230 25 25
230 25 25
230 25 25
230 25 25
230 25 25
230 25 25
230 25 25
230 25 25
230 25 25
230 25 25
230 25 25
230 25 25
230 25 25
230 25 25
230 25 25
230 25 25
230 25 25
230 25 25
230 25 25
230 25 25
230 25 25
230 25 25
230 25 25
230 25 25
230 25 25
230 25 25
230 25 25
230 25 25
230 25 25
230 25 25
230 25 25
230 25 25
230 25 25
230 25 25
230 25 25
230 25 25
230 25 25
230 25 25
230 25 25
230 25 25
230 25 25
230 25 25
230 25 25
230 25 25
230 25 25
204 204 204
204 204 204
204 204 204
204 204 204
204 204 204
204 204 204
204 204 204
204 204 204
204 204 204
204 204 204
204 204 204
204 204 204
204 204 204
204 204 204
204 204 204
204 204 204
204 204 204
204 204 204
204 204 204
204 204 204
204 204 204
204 204 204
204 204 204
204 204 204
204 204 204
204 204 204
204 204 204
204 204 204
204 204 204
204 204 204
204 204 204
199 199 199
184 184 184
184 184 184
184 184 184
184 184 184
184 184 184
184 184 184
184 184 184
184 184 184
184 184 184
184 184 184
184 184 184
184 184 184
184 184 184
184 184 184
184 184 184
184 184 184
184 184 184
184 184 184
184 184 184
184 184 184
184 184 184
184 184 184
184 184 184
184 184 184
184 184 184
184 184 184
184 184 184
184 184 184
184 184 184
184 184 184
184 184 184
184 184 184
184 184 184
184 184 184
184 184 184
184 184 184
184 184 184
184 184 184
184 184 184
184 184 184
184 184 184
184 184 184
184 184 184
184 184 184
184 184 184
184 184 184
184 184 184
184 184 184
184 184 184
184 184 184
184 184 184
184 184 184
184 184 184
184 184 184
184 184 184
184 184 184
184 184 184
184 184 184
184 184 184
184 184 184
184 184 184
184 184 184
184 184 184
184 184 184
184 184 184
184 184 184
184 184 184
184 184 184
184 184 184
184 184 184
184 184 184
184 184 184
184 184 184
184 184 184
184 184 184
184 184 184
184 184 184
184 184 184
184 184 184
184 184 184
184 184 184
184 184 184
184 184 184
184 184 184
184 184 184
184 184 184
184 184 184
184 184 184
197 197 197
204 204 204
204 204 204
204 204 204
204 204 204
204 204 204
204 204 204
204 204 204
204 204 204
204 204 204
204 204 204
204 204 204
204 204 204
204 204 204
204 204 204
204 204 204
204 204 204
204 204 204
204 204 204
204 204 204
204 204 204
204 204 204
204 204 204
204 204 204
204 204 204
204 204 204
204 204 204
204 204 204
204 204 204
204 204 204
204 204 204
204 204 204
204 204 204
204 204 204
204 204 204
204 204 204
204 204 204
204 204 204
204 204 204
204 204 204
204 204 204
204 204 204
204 204 204
204 204 204
204 204 204
204 204 204
204 204 204
204 204 204
204 204 204
25 230 25
25 230 25
25 230 25
25 230 25
25 230 25
25 230 25
25 230 25
25 230 25
25 230 25
25 230 25
25 230 25
25 230 25
25 230 25
25 230 25
25 230 25
25 230 25
25 230 25
25 230 25
25 230 25
25 230 25
25 230 25
25 230 25
25 230 25
25 230 25
25 230 25
25 230 25
25 230 25
25 230 25
25 230 25
25 230 25
25 230 25
25 230 25
25 230 25
25 230 25
25 230 25
25 230 25
25 230 25
25 230 25
25 230 25
25 230 25
25 230 25
25 230 25
25 230 25
25 230 25
25 230 25
25 230 25
25 230 25
25 230 25
25 230 25
25 230 25
70 223 70
204 204 204
204 204 204
204 204 204
204 204 204
204 204 204
204 204 204
204 204 204
204 204 204
204 204 204
204 204 204
204 204 204
204 204 204
204 204 204
204 204 204
204 204 204
204 204 204
204 204 204
204 204 204
204 204 204
204 204 204
204 204 204
204 204 204
204 204 204
204 204 204
204 204 204
204 204 204
204 204 204
204 204 204
204 204 204
204 204 204
204 204 204
204 204 204
204 204 204
204 204 204
204 204 204
204 204 204
204 204 204
204 204 204
204 204 204
204 204 204
204 204 204
204 204 204
204 204 204
204 204 204
204 204 204
204 204 204
204 204 204
204 204 204
204 204 204
204 204 204
204 204 204
204 204 204
204 204 204
204 204 204
204 204 204
204 204 204
204 204 204
204 204 204
204 204 204
204 204 204
204 204 204
204 204 204
204 204 204
204 204 204
204 204 204
204 204 204
204 204 204
204 204 204
204 204 204
204 204 204
204 204 204
204 204 204
204 204 204
204 204 204
204 204 204
204 204 204
204 204 204
204 204 204
204 204 204
204 204 204
204 204 204
204 204 204
204 204 204
204 204 204
204 204 204
204 204 204
204 204 204
204 204 204
204 204 204
204 204 204
204 204 204
204 204 204
204 204 204
204 204 204
204 204 204
204 204 204
204 204 204
204 204 204
204 204 204
204 204 204
204 204 204
204 204 204
204 204 204
227 47 47
230 25 25
230 25 25
230 25 25
230 25 25
230 25 25
230 25 25
230 25 25
230 25 25
230 25 25
230 25 25
230 25 25
230 25 25
230 25 25
230 25 25
230 25 25
230 25 25
230 25 25
230 25 25
230 25 25
230 25 25
230 25 25
230 25 25
230 25 25
230 25 25
230 25 25
230 25 25
230 25 25
230 25 25
230 25 25
230 25 25
230 25 25
230 25 25
230 25 25
230 25 25
230 25 25
230 25 25
230 25 25
230 25 25
230 25 25
230 25 25
230 25 25
230 25 25
230 25 25
230 25 25
230 25 25
230 25 25
230 25 25
230 25 25
230 25 25
230 25 25
230 25 25
230 25 25
230 25 25
230 25 25
230 25 25
230 25 25
230 25 25
230 25 25
230 25 25
230 25 25
230 25 25
230 25 25
230 25 25
230 25 25
230 25 25
230 25 25
230 25 25
230 25 25
230 25 25
230 25 25
230 25 25
230 25 25
230 25 25
230 25 25
230 25 25
223 70 70
204 204 204
204 204 204
204 204 204
204 204 204
204 204 204
204 204 204
204 204 204
204 204 204
204 204 204
204 204 204
204 204 204
204 204 204
204 204 204
204 204 204
204 204 204
204 204 204
204 204 204
204 204 204
204 204 204
204 204 204
204 204 204
204 204 204
204 204 204
204 204 204
204 204 204
204 204 204
204 204 204
204 204 204
204 204 204
204 204 204
204 204 204
204 204 204
191 191 191
184 184 184
184 184 184
184 184 184
184 184 184
184 184 184
184 184 184
184 184 184
184 184 184
184 184 184
184 184 184
184 184 184
184 184 184
184 184 184
184 184 184
184 184 184
184 184 184
184 184 184
184 184 184
184 184 184
184 184 184
184 184 184
184 184 184
184 184 184
184 184 184
184 184 184
184 184 184
184 184 184
184 184 184
184 184 184
184 184 184
184 184 184
184 184 184
184 184 184
184 184 184
184 184 184
184 184 184
184 184 184
184 184 184
184 184 184
184 184 184
184 184 184
184 184 184
184 184 184
184 184 184
184 184 184
184 184 184
184 184 184
184 184 184
184 184 184
184 184 184
184 184 184
184 184 184
184 184 184
184 184 184
184 184 184
184 184 184
184 184 184
184 184 184
184 184 184
184 184 184
184 184 184
184 184 184
184 184 184
184 184 184
184 184 184
184 184 184
184 184 184
184 184 184
184 184 184
184 184 184
184 184 184
184 184 184
184 184 184
184 184 184
184 184 184
184 184 184
184 184 184
184 184 184
184 184 184
184 184 184
184 184 184
184 184 184
184 184 184
184 184 184
184 184 184
184 184 184
189 189 189
204 204 204
204 204 204
204 204 204
204 204 204
204 204 204
204 204 204
204 204 204
204 204 204
204 204 204
204 204 204
204 204 204
204 204 204
204 204 204
204 204 204
204 204 204
204 204 204
204 204 204
204 204 204
204 204 204
204 204 204
204 204 204
204 204 204
204 204 204
204 204 204
204 204 204
204 204 204
204 204 204
204 204 204
204 204 204
204 204 204
204 204 204
204 204 204
204 204 204
204 204 204
204 204 204
204 204 204
204 204 204
204 204 204
204 204 204
204 204 204
204 204 204
204 204 204
204 204 204
204 204 204
204 204 204
204 204 204
204 204 204
204 204 204
182 207 182
25 230 25
25 230 25
25 230 25
25 230 25
25 230 25
25 230 25
25 230 25
25 230 25
25 230 25
25 230 25
25 230 25
25 230 25
25 230 25
25 230 25
25 230 25
25 230 25
25 230 25
25 230 25
25 230 25
25 230 25
25 230 25
25 230 25
25 230 25
25 230 25
25 230 25
25 230 25
25 230 25
25 230 25
25 230 25
25 230 25
25 230 25
25 230 25
25 230 25
25 230 25
25 230 25
25 230 25
25 230 25
25 230 25
25 230 25
25 230 25
25 230 25
25 230 25
25 230 25
25 230 25
25 230 25
25 230 25
25 230 25
25 230 25
25 230 25
25 230 25
25 230 25
204 204 204
204 204 204
204 204 204
204 204 204
204 204 204
204 204 204
204 204 204
204 204 204
204 204 204
204 204 204
204 204 204
204 204 204
204 204 204
204 204 204
204 204 204
204 204 204
204 204 204
204 204 204
204 204 204
204 204 204
204 204 204
204 204 204
204 204 204
204 204 204
204 204 204
204 204 204
204 204 204
204 204 204
204 204 204
204 204 204
204 204 204
204 204 204
204 204 204
204 204 204
204 204 204
204 204 204
204 204 204
204 204 204
204 204 204
204 204 204
204 204 204
204 204 204
204 204 204
204 204 204
204 204 204
204 204 204
204 204 204
204 204 204
204 204 204
204 204 204
204 204 204
204 204 204
204 204 204
204 204 204
204 204 204
204 204 204
204 204 204
204 204 204
204 204 204
204 204 204
204 204 204
204 204 204
204 204 204
204 204 204
204 204 204
204 204 204
204 204 204
204 204 204
204 204 204
204 204 204
204 204 204
204 204 204
204 204 204
204 204 204
204 204 204
204 204 204
204 204 204
204 204 204
204 204 204
204 204 204
204 204 204
204 204 204
204 204 204
204 204 204
204 204 204
204 204 204
204 204 204
204 204 204
204 204 204
204 204 204
204 204 204
204 204 204
204 204 204
204 204 204
204 204 204
204 204 204
204 204 204
204 204 204
204 204 204
204 204 204
204 204 204
204 204 204
204 204 204
223 70 70
230 25 25
230 25 25
230 25 25
230 25 25
230 25 25
230 25 25
230 25 25
230 25 25
230 25 25
230 25 25
230 25 25
230 25 25
230 25 25
230 25 25
230 25 25
230 25 25
230 25 25
230 25 25
230 25 25
230 25 25
230 25 25
230 25 25
230 25 25
230 25 25
230 25 25
230 25 25
230 25 25
230 25 25
230 25 25
230 25 25
230 25 25
230 25 25
230 25 25
230 25 25
230 25 25
230 25 25
230 25 25
230 25 25
230 25 25
230 25 25
230 25 25
230 25 25
230 25 25
230 25 25
230 25 25
230 25 25
230 25 25
230 25 25
230 25 25
230 25 25
230 25 25
230 25 25
230 25 25
230 25 25
230 25 25
230 25 25
230 25 25
230 25 25
230 25 25
230 25 25
230 25 25
230 25 25
230 25 25
230 25 25
230 25 25
230 25 25
230 25 25
230 25 25
230 25 25
230 25 25
230 25 25
230 25 25
230 25 25
230 25 25
230 25 25
214 137 137
204 204 204
204 204 204
204 204 204
204 204 204
204 204 204
204 204 204
204 204 204
204 204 204
204 204 204
204 204 204
204 204 204
204 204 204
204 204 204
204 204 204
204 204 204
204 204 204
204 204 204
204 204 204
204 204 204
204 204 204
204 204 204
204 204 204
204 204 204
204 204 204
204 204 204
204 204 204
204 204 204
204 204 204
204 204 204
204 204 204
204 204 204
204 204 204
199 199 199
184 184 184
184 184 184
184 184 184
184 184 184
184 184 184
184 184 184
184 184 184
184 184 184
184 184 184
184 184 184
184 184 184
184 184 184
184 184 184
184 184 184
184 184 184
184 184 184
184 184 184
184 184 184
184 184 184
184 184 184
184 184 184
184 184 184
184 184 184
184 184 184
184 184 184
184 184 184
184 184 184
184 184 184
184 184 184
184 184 184
184 184 184
184 184 184
184 184 184
184 184 184
184 184 184
184 184 184
184 184 184
184 184 184
184 184 184
184 184 184
184 184 184
184 184 184
184 184 184
184 184 184
184 184 184
184 184 184
184 184 184
184 184 184
184 184 184
184 184 184
184 184 184
184 184 184
184 184 184
184 184 184
184 184 184
184 184 184
184 184 184
184 184 184
184 184 184
184 184 184
184 184 184
184 184 184
184 184 184
184 184 184
184 184 184
184 184 184
184 184 184
184 184 184
184 184 184
184 184 184
184 184 184
184 184 184
184 184 184
184 184 184
184 184 184
184 184 184
184 184 184
184 184 184
184 184 184
184 184 184
184 184 184
184 184 184
184 184 184
184 184 184
184 184 184
184 184 184
202 202 202
204 204 204
204 204 204
204 204 204
204 204 204
204 204 204
204 204 204
204 204 204
204 204 204
204 204 204
204 204 204
204 204 204
204 204 204
204 204 204
204 204 204
204 204 204
204 204 204
204 204 204
204 204 204
204 204 204
204 204 204
204 204 204
204 204 204
204 204 204
204 204 204
204 204 204
204 204 204
204 204 204
204 204 204
204 204 204
204 204 204
204 204 204
204 204 204
204 204 204
204 204 204
204 204 204
204 204 204
204 204 204
204 204 204
204 204 204
204 204 204
204 204 204
204 204 204
204 204 204
204 204 204
204 204 204
204 204 204
204 204 204
204 204 204
92 220 92
25 230 25
25 230 25
25 230 25
25 230 25
25 230 25
25 230 25
25 230 25
25 230 25
25 230 25
25 230 25
25 230 25
25 230 25
25 230 25
25 230 25
25 230 25
25 230 25
25 230 25
25 230 25
25 230 25
25 230 25
25 230 25
25 230 25
25 230 25
25 230 25
25 230 25
25 230 25
25 230 25
25 230 25
25 230 25
25 230 25
25 230 25
25 230 25
25 230 25
25 230 25
25 230 25
25 230 25
25 230 25
25 230 25
25 230 25
25 230 25
25 230 25
25 230 25
25 230 25
25 230 25
25 230 25
25 230 25
25 230 25
25 230 25
25 230 25
25 230 25
25 230 25
70 223 70
204 204 204
204 204 204
204 204 204
204 204 204
204 204 204
204 204 204
204 204 204
204 204 204
204 204 204
204 204 204
204 204 204
204 204 204
204 204 204
204 204 204
204 204 204
204 204 204
204 204 204
204 204 204
204 204 204
204 204 204
204 204 204
204 204 204
204 204 204
204 204 204
204 204 204
204 204 204
204 204 204
204 204 204
204 204 204
204 204 204
204 204 204
204 204 204
204 204 204
204 204 204
204 204 204
204 204 204
204 204 204
204 204 204
204 204 204
204 204 204
204 204 204
204 204 204
204 204 204
204 204 204
204 204 204
204 204 204
204 204 204
204 204 204
204 204 204
204 204 204
204 204 204
204 204 204
204 204 204
204 204 204
204 204 204
204 204 204
204 204 204
204 204 204
204 204 204
204 204 204
204 204 204
204 204 204
204 204 204
204 204 204
204 204 204
204 204 204
204 204 204
204 204 204
204 204 204
204 204 204
204 204 204
204 204 204
204 204 204
204 204 204
204 204 204
204 204 204
204 204 204
204 204 204
204 204 204
204 204 204
204 204 204
204 204 204
204 204 204
204 204 204
204 204 204
204 204 204
204 204 204
204 204 204
204 204 204
204 204 204
204 204 204
204 204 204
204 204 204
204 204 204
204 204 204
204 204 204
204 204 204
204 204 204
204 204 204
204 204 204
204 204 204
204 204 204
220 92 92
230 25 25
230 25 25
230 25 25
230 25 25
230 25 25
230 25 25
230 25 25
230 25 25
230 25 25
230 25 25
230 25 25
230 25 25
230 25 25
230 25 25
230 25 25
230 25 25
230 25 25
230 25 25
230 25 25
230 25 25
230 25 25
230 25 25
230 25 25
230 25 25
230 25 25
230 25 25
230 25 25
230 25 25
230 25 25
230 25 25
230 25 25
230 25 25
230 25 25
230 25 25
230 25 25
230 25 25
230 25 25
230 25 25
230 25 25
230 25 25
230 25 25
230 25 25
230 25 25
230 25 25
230 25 25
230 25 25
230 25 25
230 25 25
230 25 25
230 25 25
230 25 25
230 25 25
230 25 25
230 25 25
230 25 25
230 25 25
230 25 25
230 25 25
230 25 25
230 25 25
230 25 25
230 25 25
230 25 25
230 25 25
230 25 25
230 25 25
230 25 25
230 25 25
230 25 25
230 25 25
230 25 25
230 25 25
230 25 25
230 25 25
230 25 25
211 159 159
204 204 204
204 204 204
204 204 204
204 204 204
204 204 204
204 204 204
204 204 204
204 204 204
204 204 204
204 204 204
204 204 204
204 204 204
204 204 204
204 204 204
204 204 204
204 204 204
204 204 204
204 204 204
204 204 204
204 204 204
204 204 204
204 204 204
204 204 204
204 204 204
204 204 204
204 204 204
204 204 204
204 204 204
204 204 204
204 204 204
204 204 204
204 204 204
204 204 204
199 199 199
184 184 184
184 184 184
184 184 184
184 184 184
184 184 184
184 184 184
184 184 184
184 184 184
184 184 184
184 184 184
184 184 184
184 184 184
184 184 184
184 184 184
184 184 184
184 184 184
184 184 184
184 184 184
184 184 184
184 184 184
184 184 184
184 184 184
184 184 184
184 184 184
184 184 184
184 184 184
184 184 184
184 184 184
184 184 184
184 184 184
184 184 184
184 184 184
184 184 184
184 184 184
184 184 184
184 184 184
184 184 184
184 184 184
184 184 184
184 184 184
184 184 184
184 184 184
184 184 184
184 184 184
184 184 184
184 184 184
184 184 184
184 184 184
184 184 184
184 184 184
184 184 184
184 184 184
184 184 184
184 184 184
184 184 184
184 184 184
184 184 184
184 184 184
184 184 184
184 184 184
184 184 184
184 184 184
184 184 184
184 184 184
184 184 184
184 184 184
184 184 184
184 184 184
184 184 184
184 184 184
184 184 184
184 184 184
184 184 184
184 184 184
184 184 184
184 184 184
184 184 184
184 184 184
184 184 184
184 184 184
184 184 184
184 184 184
184 184 184
184 184 184
194 194 194
204 204 204
204 204 204
204 204 204
204 204 204
204 204 204
204 204 204
204 204 204
204 204 204
204 204 204
204 204 204
204 204 204
204 204 204
204 204 204
204 204 204
204 204 204
204 204 204
204 204 204
204 204 204
204 204 204
204 204 204
204 204 204
204 204 204
204 204 204
204 204 204
204 204 204
204 204 204
204 204 204
204 204 204
204 204 204
204 204 204
204 204 204
204 204 204
204 204 204
204 204 204
204 204 204
204 204 204
204 204 204
204 204 204
204 204 204
204 204 204
204 204 204
204 204 204
204 204 204
204 204 204
204 204 204
204 204 204
204 204 204
204 204 204
204 204 204
115 217 115
25 230 25
25 230 25
25 230 25
25 230 25
25 230 25
25 230 25
25 230 25
25 230 25
25 230 25
25 230 25
25 230 25
25 230 25
25 230 25
25 230 25
25 230 25
25 230 25
25 230 25
25 230 25
25 230 25
25 230 25
25 230 25
25 230 25
25 230 25
25 230 25
25 230 25
25 230 25
25 230 25
25 230 25
25 230 25
25 230 25
25 230 25
25 230 25
25 230 25
25 230 25
25 230 25
25 230 25
25 230 25
25 230 25
25 230 25
25 230 25
25 230 25
25 230 25
25 230 25
25 230 25
25 230 25
25 230 25
25 230 25
25 230 25
25 230 25
25 230 25
25 230 25
25 230 25
159 211 159
204 204 204
204 204 204
204 204 204
204 204 204
204 204 204
204 204 204
204 204 204
204 204 204
204 204 204
204 204 204
204 204 204
204 204 204
204 204 204
204 204 204
204 204 204
204 204 204
204 204 204
204 204 204
204 204 204
204 204 204
204 204 204
204 204 204
204 204 204
204 204 204
204 204 204
204 204 204
204 204 204
204 204 204
204 204 204
204 204 204
204 204 204
204 204 204
204 204 204
204 204 204
204 204 204
204 204 204
204 204 204
204 204 204
204 204 204
204 204 204
204 204 204
204 204 204
204 204 204
204 204 204
204 204 204
204 204 204
204 204 204
204 204 204
204 204 204
204 204 204
204 204 204
204 204 204
204 204 204
204 204 204
204 204 204
204 204 204
204 204 204
204 204 204
204 204 204
204 204 204
204 204 204
204 204 204
204 204 204
204 204 204
204 204 204
204 204 204
204 204 204
204 204 204
204 204 204
204 204 204
204 204 204
204 204 204
204 204 204
204 204 204
204 204 204
204 204 204
204 204 204
204 204 204
204 204 204
204 204 204
204 204 204
204 204 204
204 204 204
204 204 204
204 204 204
204 204 204
204 204 204
204 204 204
204 204 204
204 204 204
204 204 204
204 204 204
204 204 204
204 204 204
204 204 204
204 204 204
204 204 204
204 204 204
204 204 204
204 204 204
204 204 204
220 92 92
230 25 25
230 25 25
230 25 25
230 25 25
230 25 25
230 25 25
230 25 25
230 25 25
230 25 25
230 25 25
230 25 25
230 25 25
230 25 25
230 25 25
230 25 25
230 25 25
230 25 25
230 25 25
230 25 25
230 25 25
230 25 25
230 25 25
230 25 25
230 25 25
230 25 25
230 25 25
230 25 25
230 25 25
230 25 25
230 25 25
230 25 25
230 25 25
230 25 25
230 25 25
230 25 25
230 25 25
230 25 25
230 25 25
230 25 25
230 25 25
230 25 25
230 25 25
230 25 25
230 25 25
230 25 25
230 25 25
230 25 25
230 25 25
230 25 25
230 25 25
230 25 25
230 25 25
230 25 25
230 25 25
230 25 25
230 25 25
230 25 25
230 25 25
230 25 25
230 25 25
230 25 25
230 25 25
230 25 25
230 25 25
230 25 25
230 25 25
230 25 25
230 25 25
230 25 25
230 25 25
230 25 25
230 25 25
230 25 25
230 25 25
227 47 47
204 204 204
204 204 204
204 204 204
204 204 204
204 204 204
204 204 204
204 204 204
204 204 204
204 204 204
204 204 204
204 204 204
204 204 204
204 204 204
204 204 204
204 204 204
204 204 204
204 204 204
204 204 204
204 204 204
204 204 204
204 204 204
204 204 204
204 204 204
204 204 204
204 204 204
204 204 204
204 204 204
204 204 204
204 204 204
204 204 204
204 204 204
204 204 204
204 204 204
204 204 204
204 204 204
194 194 194
184 184 184
184 184 184
184 184 184
184 184 184
184 184 184
184 184 184
184 184 184
184 184 184
184 184 184
184 184 184
184 184 184
184 184 184
184 184 184
184 184 184
184 184 184
184 184 184
184 184 184
184 184 184
184 184 184
184 184 184
184 184 184
184 184 184
184 184 184
184 184 184
184 184 184
184 184 184
184 184 184
184 184 184
184 184 184
184 184 184
184 184 184
184 184 184
184 184 184
184 184 184
184 184 184
184 184 184
184 184 184
184 184 184
184 184 184
184 184 184
184 184 184
184 184 184
184 184 184
184 184 184
184 184 184
184 184 184
184 184 184
184 184 184
184 184 184
184 184 184
184 184 184
184 184 184
184 184 184
184 184 184
184 184 184
184 184 184
184 184 184
184 184 184
184 184 184
184 184 184
184 184 184
184 184 184
184 184 184
184 184 184
184 184 184
184 184 184
184 184 184
184 184 184
184 184 184
184 184 184
184 184 184
184 184 184
184 184 184
184 184 184
184 184 184
184 184 184
184 184 184
184 184 184
184 184 184
184 184 184
184 184 184
184 184 184
194 194 194
204 204 204
204 204 204
204 204 204
204 204 204
204 204 204
204 204 204
204 204 204
204 204 204
204 204 204
204 204 204
204 204 204
204 204 204
204 204 204
204 204 204
204 204 204
204 204 204
204 204 204
204 204 204
204 204 204
204 204 204
204 204 204
204 204 204
204 204 204
204 204 204
204 204 204
204 204 204
204 204 204
204 204 204
204 204 204
204 204 204
204 204 204
204 204 204
204 204 204
204 204 204
204 204 204
204 204 204
204 204 204
204 204 204
204 204 204
204 204 204
204 204 204
204 204 204
204 204 204
204 204 204
204 204 204
204 204 204
204 204 204
204 204 204
204 204 204
204 204 204
25 230 25
25 230 25
25 230 25
25 230 25
25 230 25
25 230 25
25 230 25
25 230 25
25 230 25
25 230 25
25 230 25
25 230 25
25 230 25
25 230 25
25 230 25
25 230 25
25 230 25
25 230 25
25 230 25
25 230 25
25 230 25
25 230 25
25 230 25
25 230 25
25 230 25
25 230 25
25 230 25
25 230 25
25 230 25
25 230 25
25 230 25
25 230 25
25 230 25
25 230 25
25 230 25
25 230 25
25 230 25
25 230 25
25 230 25
25 230 25
25 230 25
25 230 25
25 230 25
25 230 25
25 230 25
25 230 25
25 230 25
25 230 25
25 230 25
25 230 25
25 230 25
25 230 25
25 230 25
115 217 115
204 204 204
204 204 204
204 204 204
204 204 204
204 204 204
204 204 204
204 204 204
204 204 204
204 204 204
204 204 204
204 204 204
204 204 204
204 204 204
204 204 204
204 204 204
204 204 204
204 204 204
204 204 204
204 204 204
204 204 204
204 204 204
204 204 204
204 204 204
204 204 204
204 204 204
204 204 204
204 204 204
204 204 204
204 204 204
204 204 204
204 204 204
204 204 204
204 204 204
204 204 204
204 204 204
204 204 204
204 204 204
204 204 204
204 204 204
204 204 204
204 204 204
204 204 204
204 204 204
204 204 204
204 204 204
204 204 204
204 204 204
204 204 204
204 204 204
204 204 204
204 204 204
204 204 204
204 204 204
204 204 204
204 204 204
204 204 204
204 204 204
204 204 204
204 204 204
204 204 204
204 204 204
204 204 204
204 204 204
204 204 204
204 204 204
204 204 204
204 204 204
204 204 204
204 204 204
204 204 204
204 204 204
204 204 204
204 204 204
204 204 204
204 204 204
204 204 204
204 204 204
204 204 204
204 204 204
204 204 204
204 204 204
204 204 204
204 204 204
204 204 204
204 204 204
204 204 204
204 204 204
204 204 204
204 204 204
204 204 204
204 204 204
204 204 204
204 204 204
204 204 204
204 204 204
204 204 204
204 204 204
204 204 204
204 204 204
204 204 204
204 204 204
207 182 182
230 25 25
230 25 25
230 25 25
230 25 25
230 25 25
230 25 25
230 25 25
230 25 25
230 25 25
230 25 25
230 25 25
230 25 25
230 25 25
230 25 25
230 25 25
230 25 25
230 25 25
230 25 25
230 25 25
230 25 25
230 25 25
230 25 25
230 25 25
230 25 25
230 25 25
230 25 25
230 25 25
230 25 25
230 25 25
230 25 25
230 25 25
230 25 25
230 25 25
230 25 25
230 25 25
230 25 25
230 25 25
230 25 25
230 25 25
230 25 25
230 25 25
230 25 25
230 25 25
230 25 25
230 25 25
230 25 25
230 25 25
230 25 25
230 25 25
230 25 25
230 25 25
230 25 25
230 25 25
230 25 25
230 25 25
230 25 25
230 25 25
230 25 25
230 25 25
230 25 25
230 25 25
230 25 25
230 25 25
230 25 25
230 25 25
230 25 25
230 25 25
230 25 25
230 25 25
230 25 25
230 25 25
230 25 25
230 25 25
230 25 25
227 47 47
204 204 204
204 204 204
204 204 204
204 204 204
204 204 204
204 204 204
204 204 204
204 204 204
204 204 204
204 204 204
204 204 204
204 204 204
204 204 204
204 204 204
204 204 204
204 204 204
204 204 204
204 204 204
204 204 204
204 204 204
204 204 204
204 204 204
204 204 204
204 204 204
204 204 204
204 204 204
204 204 204
204 204 204
204 204 204
204 204 204
204 204 204
204 204 204
204 204 204
204 204 204
204 204 204
202 202 202
189 189 189
184 184 184
184 184 184
184 184 184
184 184 184
184 184 184
184 184 184
184 184 184
184 184 184
184 184 184
184 184 184
184 184 184
184 184 184
184 184 184
184 184 184
184 184 184
184 184 184
184 184 184
184 184 184
184 184 184
184 184 184
184 184 184
184 184 184
184 184 184
184 184 184
184 184 184
184 184 184
184 184 184
184 184 184
184 184 184
184 184 184
184 184 184
184 184 184
184 184 184
184 184 184
184 184 184
184 184 184
184 184 184
184 184 184
184 184 184
184 184 184
184 184 184
184 184 184
184 184 184
184 184 184
184 184 184
184 184 184
184 184 184
184 184 184
184 184 184
184 184 184
184 184 184
184 184 184
184 184 184
184 184 184
184 184 184
184 184 184
184 184 184
184 184 184
184 184 184
184 184 184
184 184 184
184 184 184
184 184 184
184 184 184
184 184 184
184 184 184
184 184 184
184 184 184
184 184 184
184 184 184
184 184 184
184 184 184
184 184 184
184 184 184
184 184 184
184 184 184
184 184 184
184 184 184
184 184 184
184 184 184
184 184 184
204 204 204
204 204 204
204 204 204
204 204 204
204 204 204
204 204 204
204 204 204
204 204 204
204 204 204
204 204 204
204 204 204
204 204 204
204 204 204
204 204 204
204 204 204
204 204 204
204 204 204
204 204 204
204 204 204
204 204 204
204 204 204
204 204 204
204 204 204
204 204 204
204 204 204
204 204 204
204 204 204
204 204 204
204 204 204
204 204 204
204 204 204
204 204 204
204 204 204
204 204 204
204 204 204
204 204 204
204 204 204
204 204 204
204 204 204
204 204 204
204 204 204
204 204 204
204 204 204
204 204 204
204 204 204
204 204 204
204 204 204
204 204 204
204 204 204
204 204 204
182 207 182
25 230 25
25 230 25
25 230 25
25 230 25
25 230 25
25 230 25
25 230 25
25 230 25
25 230 25
25 230 25
25 230 25
25 230 25
25 230 25
25 230 25
25 230 25
25 230 25
25 230 25
25 230 25
25 230 25
25 230 25
25 230 25
25 230 25
25 230 25
25 230 25
25 230 25
25 230 25
25 230 25
25 230 25
25 230 25
25 230 25
25 230 25
25 230 25
25 230 25
25 230 25
25 230 25
25 230 25
25 230 25
25 230 25
25 230 25
25 230 25
25 230 25
25 230 25
25 230 25
25 230 25
25 230 25
25 230 25
25 230 25
25 230 25
25 230 25
25 230 25
25 230 25
25 230 25
25 230 25
47 227 47
204 204 204
204 204 204
204 204 204
204 204 204
204 204 204
204 204 204
204 204 204
204 204 204
204 204 204
204 204 204
204 204 204
204 204 204
204 204 204
204 204 204
204 204 204
204 204 204
204 204 204
204 204 204
204 204 204
204 204 204
204 204 204
204 204 204
204 204 204
204 204 204
204 204 204
204 204 204
204 204 204
204 204 204
204 204 204
204 204 204
204 204 204
204 204 204
204 204 204
204 204 204
204 204 204
204 204 204
204 204 204
204 204 204
204 204 204
204 204 204
204 204 204
204 204 204
204 204 204
204 204 204
204 204 204
204 204 204
204 204 204
204 204 204
204 204 204
204 204 204
204 204 204
204 204 204
204 204 204
204 204 204
204 204 204
204 204 204
204 204 204
204 204 204
204 204 204
204 204 204
204 204 204
204 204 204
204 204 204
204 204 204
204 204 204
204 204 204
204 204 204
204 204 204
204 204 204
204 204 204
204 204 204
204 204 204
204 204 204
204 204 204
204 204 204
204 204 204
204 204 204
204 204 204
204 204 204
204 204 204
204 204 204
204 204 204
204 204 204
204 204 204
204 204 204
204 204 204
204 204 204
204 204 204
204 204 204
204 204 204
204 204 204
204 204 204
204 204 204
204 204 204
204 204 204
204 204 204
204 204 204
204 204 204
204 204 204
204 204 204
204 204 204
207 182 182
230 25 25
230 25 25
230 25 25
230 25 25
230 25 25
230 25 25
230 25 25
230 25 25
230 25 25
230 25 25
230 25 25
230 25 25
230 25 25
230 25 25
230 25 25
230 25 25
230 25 25
230 25 25
230 25 25
230 25 25
230 25 25
230 25 25
230 25 25
230 25 25
230 25 25
230 25 25
230 25 25
230 25 25
230 25 25
230 25 25
230 25 25
230 25 25
230 25 25
230 25 25
230 25 25
230 25 25
230 25 25
230 25 25
230 25 25
230 25 25
230 25 25
230 25 25
230 25 25
230 25 25
230 25 25
230 25 25
230 25 25
230 25 25
230 25 25
230 25 25
230 25 25
230 25 25
230 25 25
230 25 25
230 25 25
230 25 25
230 25 25
230 25 25
230 25 25
230 25 25
230 25 25
230 25 25
230 25 25
230 25 25
230 25 25
230 25 25
230 25 25
230 25 25
230 25 25
230 25 25
230 25 25
230 25 25
230 25 25
230 25 25
211 159 159
204 204 204
204 204 204
204 204 204
204 204 204
204 204 204
204 204 204
204 204 204
204 204 204
204 204 204
204 204 204
204 204 204
204 204 204
204 204 204
204 204 204
204 204 204
204 204 204
204 204 204
204 204 204
204 204 204
204 204 204
204 204 204
204 204 204
204 204 204
204 204 204
204 204 204
204 204 204
204 204 204
204 204 204
204 204 204
204 204 204
204 204 204
204 204 204
204 204 204
204 204 204
204 204 204
204 204 204
202 202 202
189 189 189
184 184 184
184 184 184
184 184 184
184 184 184
184 184 184
184 184 184
184 184 184
184 184 184
184 184 184
184 184 184
184 184 184
184 184 184
184 184 184
184 184 184
184 184 184
184 184 184
184 184 184
184 184 184
184 184 184
184 184 184
184 184 184
184 184 184
184 184 184
184 184 184
184 184 184
184 184 184
184 184 184
184 184 184
184 184 184
184 184 184
184 184 184
184 184 184
184 184 184
184 184 184
184 184 184
184 184 184
184 184 184
184 184 184
184 184 184
184 184 184
184 184 184
184 184 184
184 184 184
184 184 184
184 184 184
184 184 184
184 184 184
184 184 184
184 184 184
184 184 184
184 184 184
184 184 184
184 184 184
184 184 184
184 184 184
184 184 184
184 184 184
184 184 184
184 184 184
184 184 184
184 184 184
184 184 184
184 184 184
184 184 184
184 184 184
184 184 184
184 184 184
184 184 184
184 184 184
184 184 184
184 184 184
184 184 184
184 184 184
184 184 184
184 184 184
184 184 184
184 184 184
184 184 184
184 184 184
204 204 204
204 204 204
204 204 204
204 204 204
204 204 204
204 204 204
204 204 204
204 204 204
204 204 204
204 204 204
204 204 204
204 204 204
204 204 204
204 204 204
204 204 204
204 204 204
204 204 204
204 204 204
204 204 204
204 204 204
204 204 204
204 204 204
204 204 204
204 204 204
204 204 204
204 204 204
204 204 204
204 204 204
204 204 204
204 204 204
204 204 204
204 204 204
204 204 204
204 204 204
204 204 204
204 204 204
204 204 204
204 204 204
204 204 204
204 204 204
204 204 204
204 204 204
204 204 204
204 204 204
204 204 204
204 204 204
204 204 204
204 204 204
204 204 204
204 204 204
204 204 204
182 207 182
25 230 25
25 230 25
25 230 25
25 230 25
25 230 25
25 230 25
25 230 25
25 230 25
25 230 25
25 230 25
25 230 25
25 230 25
25 230 25
25 230 25
25 230 25
25 230 25
25 230 25
25 230 25
25 230 25
25 230 25
25 230 25
25 230 25
25 230 25
25 230 25
25 230 25
25 230 25
25 230 25
25 230 25
25 230 25
25 230 25
25 230 25
25 230 25
25 230 25
25 230 25
25 230 25
25 230 25
25 230 25
25 230 25
25 230 25
25 230 25
25 230 25
25 230 25
25 230 25
25 230 25
25 230 25
25 230 25
25 230 25
25 230 25
25 230 25
25 230 25
25 230 25
25 230 25
25 230 25
25 230 25
159 211 159
204 204 204
204 204 204
204 204 204
204 204 204
204 204 204
204 204 204
204 204 204
204 204 204
204 204 204
204 204 204
204 204 204
204 204 204
204 204 204
204 204 204
204 204 204
204 204 204
204 204 204
204 204 204
204 204 204
204 204 204
204 204 204
204 204 204
204 204 204
204 204 204
204 204 204
204 204 204
204 204 204
204 204 204
204 204 204
204 204 204
204 204 204
204 204 204
204 204 204
204 204 204
204 204 204
204 204 204
204 204 204
204 204 204
204 204 204
204 204 204
204 204 204
204 204 204
204 204 204
204 204 204
204 204 204
204 204 204
204 204 204
204 204 204
204 204 204
204 204 204
204 204 204
204 204 204
204 204 204
204 204 204
204 204 204
204 204 204
204 204 204
204 204 204
204 204 204
204 204 204
204 204 204
204 204 204
204 204 204
204 204 204
204 204 204
204 204 204
204 204 204
204 204 204
204 204 204
204 204 204
204 204 204
204 204 204
204 204 204
204 204 204
204 204 204
204 204 204
204 204 204
204 204 204
204 204 204
204 204 204
204 204 204
204 204 204
204 204 204
204 204 204
204 204 204
204 204 204
204 204 204
204 204 204
204 204 204
204 204 204
204 204 204
204 204 204
204 204 204
204 204 204
204 204 204
204 204 204
204 204 204
204 204 204
204 204 204
204 204 204
204 204 204
227 47 47
230 25 25
230 25 25
230 25 25
230 25 25
230 25 25
230 25 25
230 25 25
230 25 25
230 25 25
230 25 25
230 25 25
230 25 25
230 25 25
230 25 25
230 25 25
230 25 25
230 25 25
230 25 25
230 25 25
230 25 25
230 25 25
230 25 25
230 25 25
230 25 25
230 25 25
230 25 25
230 25 25
230 25 25
230 25 25
230 25 25
230 25 25
230 25 25
230 25 25
230 25 25
230 25 25
230 25 25
230 25 25
230 25 25
230 25 25
230 25 25
230 25 25
230 25 25
230 25 25
230 25 25
230 25 25
230 25 25
230 25 25
230 25 25
230 25 25
230 25 25
230 25 25
230 25 25
230 25 25
230 25 25
230 25 25
230 25 25
230 25 25
230 25 25
230 25 25
230 25 25
230 25 25
230 25 25
230 25 25
230 25 25
230 25 25
230 25 25
230 25 25
230 25 25
230 25 25
230 25 25
230 25 25
230 25 25
217 115 115
204 204 204
204 204 204
204 204 204
204 204 204
204 204 204
204 204 204
204 204 204
204 204 204
204 204 204
204 204 204
204 204 204
204 204 204
204 204 204
204 204 204
204 204 204
204 204 204
204 204 204
204 204 204
204 204 204
204 204 204
204 204 204
204 204 204
204 204 204
204 204 204
204 204 204
204 204 204
204 204 204
204 204 204
204 204 204
204 204 204
204 204 204
204 204 204
204 204 204
204 204 204
204 204 204
204 204 204
204 204 204
204 204 204
204 204 204
184 184 184
184 184 184
184 184 184
184 184 184
184 184 184
184 184 184
184 184 184
184 184 184
184 184 184
184 184 184
184 184 184
184 184 184
184 184 184
184 184 184
184 184 184
184 184 184
184 184 184
184 184 184
184 184 184
184 184 184
184 184 184
184 184 184
184 184 184
184 184 184
184 184 184
184 184 184
184 184 184
184 184 184
184 184 184
184 184 184
184 184 184
184 184 184
184 184 184
184 184 184
184 184 184
184 184 184
184 184 184
184 184 184
184 184 184
184 184 184
184 184 184
184 184 184
184 184 184
184 184 184
184 184 184
184 184 184
184 184 184
184 184 184
184 184 184
184 184 184
184 184 184
184 184 184
184 184 184
184 184 184
184 184 184
184 184 184
184 184 184
184 184 184
184 184 184
184 184 184
184 184 184
184 184 184
184 184 184
184 184 184
184 184 184
184 184 184
184 184 184
184 184 184
184 184 184
184 184 184
184 184 184
184 184 184
184 184 184
184 184 184
184 184 184
184 184 184
184 184 184
186 186 186
197 197 197
204 204 204
204 204 204
204 204 204
204 204 204
204 204 204
204 204 204
204 204 204
204 204 204
204 204 204
204 204 204
204 204 204
204 204 204
204 204 204
204 204 204
204 204 204
204 204 204
204 204 204
204 204 204
204 204 204
204 204 204
204 204 204
204 204 204
204 204 204
204 204 204
204 204 204
204 204 204
204 204 204
204 204 204
204 204 204
204 204 204
204 204 204
204 204 204
204 204 204
204 204 204
204 204 204
204 204 204
204 204 204
204 204 204
204 204 204
204 204 204
204 204 204
204 204 204
204 204 204
204 204 204
204 204 204
204 204 204
204 204 204
204 204 204
204 204 204
204 204 204
204 204 204
137 214 137
25 230 25
25 230 25
25 230 25
25 230 25
25 230 25
25 230 25
25 230 25
25 230 25
25 230 25
25 230 25
25 230 25
25 230 25
25 230 25
25 230 25
25 230 25
25 230 25
25 230 25
25 230 25
25 230 25
25 230 25
25 230 25
25 230 25
25 230 25
25 230 25
25 230 25
25 230 25
25 230 25
25 230 25
25 230 25
25 230 25
25 230 25
25 230 25
25 230 25
25 230 25
25 230 25
25 230 25
25 230 25
25 230 25
25 230 25
25 230 25
25 230 25
25 230 25
25 230 25
25 230 25
25 230 25
25 230 25
25 230 25
25 230 25
25 230 25
25 230 25
25 230 25
25 230 25
25 230 25
25 230 25
159 211 159
204 204 204
204 204 204
204 204 204
204 204 204
204 204 204
204 204 204
204 204 204
204 204 204
204 204 204
204 204 204
204 204 204
204 204 204
204 204 204
204 204 204
204 204 204
204 204 204
204 204 204
204 204 204
204 204 204
204 204 204
204 204 204
204 204 204
204 204 204
204 204 204
204 204 204
204 204 204
204 204 204
204 204 204
204 204 204
204 204 204
204 204 204
204 204 204
204 204 204
204 204 204
204 204 204
204 204 204
204 204 204
204 204 204
204 204 204
204 204 204
204 204 204
204 204 204
204 204 204
204 204 204
204 204 204
204 204 204
204 204 204
204 204 204
204 204 204
204 204 204
204 204 204
204 204 204
204 204 204
204 204 204
204 204 204
204 204 204
204 204 204
204 204 204
204 204 204
204 204 204
204 204 204
204 204 204
204 204 204
204 204 204
204 204 204
204 204 204
204 204 204
204 204 204
204 204 204
204 204 204
204 204 204
204 204 204
204 204 204
204 204 204
204 204 204
204 204 204
204 204 204
204 204 204
204 204 204
204 204 204
204 204 204
204 204 204
204 204 204
204 204 204
204 204 204
204 204 204
204 204 204
204 204 204
204 204 204
204 204 204
204 204 204
204 204 204
204 204 204
204 204 204
204 204 204
204 204 204
204 204 204
204 204 204
204 204 204
204 204 204
204 204 204
220 92 92
230 25 25
230 25 25
230 25 25
230 25 25
230 25 25
230 25 25
230 25 25
230 25 25
230 25 25
230 25 25
230 25 25
230 25 25
230 25 25
230 25 25
230 25 25
230 25 25
230 25 25
230 25 25
230 25 25
230 25 25
230 25 25
230 25 25
230 25 25
230 25 25
230 25 25
230 25 25
230 25 25
230 25 25
230 25 25
230 25 25
230 25 25
230 25 25
230 25 25
230 25 25
230 25 25
230 25 25
230 25 25
230 25 25
230 25 25
230 25 25
230 25 25
230 25 25
230 25 25
230 25 25
230 25 25
230 25 25
230 25 25
230 25 25
230 25 25
230 25 25
230 25 25
230 25 25
230 25 25
230 25 25
230 25 25
230 25 25
230 25 25
230 25 25
230 25 25
230 25 25
230 25 25
230 25 25
230 25 25
230 25 25
230 25 25
230 25 25
230 25 25
230 25 25
230 25 25
230 25 25
230 25 25
230 25 25
211 159 159
204 204 204
204 204 204
204 204 204
204 204 204
204 204 204
204 204 204
204 204 204
204 204 204
204 204 204
204 204 204
204 204 204
204 204 204
204 204 204
204 204 204
204 204 204
204 204 204
204 204 204
204 204 204
204 204 204
204 204 204
204 204 204
204 204 204
204 204 204
204 204 204
204 204 204
204 204 204
204 204 204
204 204 204
204 204 204
204 204 204
204 204 204
204 204 204
204 204 204
204 204 204
204 204 204
204 204 204
204 204 204
204 204 204
204 204 204
197 197 197
184 184 184
184 184 184
184 184 184
184 184 184
184 184 184
184 184 184
184 184 184
184 184 184
184 184 184
184 184 184
184 184 184
184 184 184
184 184 184
184 184 184
184 184 184
184 184 184
184 184 184
184 184 184
184 184 184
184 184 184
184 184 184
184 184 184
184 184 184
184 184 184
184 184 184
184 184 184
184 184 184
184 184 184
184 184 184
184 184 184
184 184 184
184 184 184
184 184 184
184 184 184
184 184 184
184 184 184
184 184 184
184 184 184
184 184 184
184 184 184
184 184 184
184 184 184
184 184 184
184 184 184
184 184 184
184 184 184
184 184 184
184 184 184
184 184 184
184 184 184
184 184 184
184 184 184
184 184 184
184 184 184
184 184 184
184 184 184
184 184 184
184 184 184
184 184 184
184 184 184
184 184 184
184 184 184
184 184 184
184 184 184
184 184 184
184 184 184
184 184 184
184 184 184
184 184 184
184 184 184
184 184 184
184 184 184
184 184 184
184 184 184
184 184 184
184 184 184
197 197 197
204 204 204
204 204 204
204 204 204
204 204 204
204 204 204
204 204 204
204 204 204
204 204 204
204 204 204
204 204 204
204 204 204
204 204 204
204 204 204
204 204 204
204 204 204
204 204 204
204 204 204
204 204 204
204 204 204
204 204 204
204 204 204
204 204 204
204 204 204
204 204 204
204 204 204
204 204 204
204 204 204
204 204 204
204 204 204
204 204 204
204 204 204
204 204 204
204 204 204
204 204 204
204 204 204
204 204 204
204 204 204
204 204 204
204 204 204
204 204 204
204 204 204
204 204 204
204 204 204
204 204 204
204 204 204
204 204 204
204 204 204
204 204 204
204 204 204
204 204 204
204 204 204
204 204 204
137 214 137
25 230 25
25 230 25
25 230 25
25 230 25
25 230 25
25 230 25
25 230 25
25 230 25
25 230 25
25 230 25
25 230 25
25 230 25
25 230 25
25 230 25
25 230 25
25 230 25
25 230 25
25 230 25
25 230 25
25 230 25
25 230 25
25 230 25
25 230 25
25 230 25
25 230 25
25 230 25
25 230 25
25 230 25
25 230 25
25 230 25
25 230 25
25 230 25
25 230 25
25 230 25
25 230 25
25 230 25
25 230 25
25 230 25
25 230 25
25 230 25
25 230 25
25 230 25
25 230 25
25 230 25
25 230 25
25 230 25
25 230 25
25 230 25
25 230 25
25 230 25
25 230 25
25 230 25
25 230 25
25 230 25
25 230 25
204 204 204
204 204 204
204 204 204
204 204 204
204 204 204
204 204 204
204 204 204
204 204 204
204 204 204
204 204 204
204 204 204
204 204 204
204 204 204
204 204 204
204 204 204
204 204 204
204 204 204
204 204 204
204 204 204
204 204 204
204 204 204
204 204 204
204 204 204
204 204 204
204 204 204
204 204 204
204 204 204
204 204 204
204 204 204
204 204 204
204 204 204
204 204 204
204 204 204
204 204 204
204 204 204
204 204 204
204 204 204
204 204 204
204 204 204
204 204 204
204 204 204
204 204 204
204 204 204
204 204 204
204 204 204
204 204 204
204 204 204
204 204 204
204 204 204
204 204 204
204 204 204
204 204 204
204 204 204
204 204 204
204 204 204
204 204 204
204 204 204
204 204 204
204 204 204
204 204 204
204 204 204
204 204 204
204 204 204
204 204 204
204 204 204
204 204 204
204 204 204
204 204 204
204 204 204
204 204 204
204 204 204
204 204 204
204 204 204
204 204 204
204 204 204
204 204 204
204 204 204
204 204 204
204 204 204
204 204 204
204 204 204
204 204 204
204 204 204
204 204 204
204 204 204
204 204 204
204 204 204
204 204 204
204 204 204
204 204 204
204 204 204
204 204 204
204 204 204
204 204 204
204 204 204
204 204 204
204 204 204
204 204 204
204 204 204
204 204 204
204 204 204
207 182 182
230 25 25
230 25 25
230 25 25
230 25 25
230 25 25
230 25 25
230 25 25
230 25 25
230 25 25
230 25 25
230 25 25
230 25 25
230 25 25
230 25 25
230 25 25
230 25 25
230 25 25
230 25 25
230 25 25
230 25 25
230 25 25
230 25 25
230 25 25
230 25 25
230 25 25
230 25 25
230 25 25
230 25 25
230 25 25
230 25 25
230 25 25
230 25 25
230 25 25
230 25 25
230 25 25
230 25 25
230 25 25
230 25 25
230 25 25
230 25 25
230 25 25
230 25 25
230 25 25
230 25 25
230 25 25
230 25 25
230 25 25
230 25 25
230 25 25
230 25 25
230 25 25
230 25 25
230 25 25
230 25 25
230 25 25
230 25 25
230 25 25
230 25 25
230 25 25
230 25 25
230 25 25
230 25 25
230 25 25
230 25 25
230 25 25
230 25 25
230 25 25
230 25 25
230 25 25
230 25 25
230 25 25
230 25 25
204 204 204
204 204 204
204 204 204
204 204 204
204 204 204
204 204 204
204 204 204
204 204 204
204 204 204
204 204 204
204 204 204
204 204 204
204 204 204
204 204 204
204 204 204
204 204 204
204 204 204
204 204 204
204 204 204
204 204 204
204 204 204
204 204 204
204 204 204
204 204 204
204 204 204
204 204 204
204 204 204
204 204 204
204 204 204
204 204 204
204 204 204
204 204 204
204 204 204
204 204 204
204 204 204
204 204 204
204 204 204
204 204 204
204 204 204
204 204 204
204 204 204
197 197 197
184 184 184
184 184 184
184 184 184
184 184 184
184 184 184
184 184 184
184 184 184
184 184 184
184 184 184
184 184 184
184 184 184
184 184 184
184 184 184
184 184 184
184 184 184
184 184 184
184 184 184
184 184 184
184 184 184
184 184 184
184 184 184
184 184 184
184 184 184
184 184 184
184 184 184
184 184 184
184 184 184
184 184 184
184 184 184
184 184 184
184 184 184
184 184 184
184 184 184
184 184 184
184 184 184
184 184 184
184 184 184
184 184 184
184 184 184
184 184 184
184 184 184
184 184 184
184 184 184
184 184 184
184 184 184
184 184 184
184 184 184
184 184 184
184 184 184
184 184 184
184 184 184
184 184 184
184 184 184
184 184 184
184 184 184
184 184 184
184 184 184
184 184 184
184 184 184
184 184 184
184 184 184
184 184 184
184 184 184
184 184 184
184 184 184
184 184 184
184 184 184
184 184 184
184 184 184
184 184 184
184 184 184
184 184 184
184 184 184
184 184 184
189 189 189
204 204 204
204 204 204
204 204 204
204 204 204
204 204 204
204 204 204
204 204 204
204 204 204
204 204 204
204 204 204
204 204 204
204 204 204
204 204 204
204 204 204
204 204 204
204 204 204
204 204 204
204 204 204
204 204 204
204 204 204
204 204 204
204 204 204
204 204 204
204 204 204
204 204 204
204 204 204
204 204 204
204 204 204
204 204 204
204 204 204
204 204 204
204 204 204
204 204 204
204 204 204
204 204 204
204 204 204
204 204 204
204 204 204
204 204 204
204 204 204
204 204 204
204 204 204
204 204 204
204 204 204
204 204 204
204 204 204
204 204 204
204 204 204
204 204 204
204 204 204
204 204 204
204 204 204
204 204 204
159 211 159
25 230 25
25 230 25
25 230 25
25 230 25
25 230 25
25 230 25
25 230 25
25 230 25
25 230 25
25 230 25
25 230 25
25 230 25
25 230 25
25 230 25
25 230 25
25 230 25
25 230 25
25 230 25
25 230 25
25 230 25
25 230 25
25 230 25
25 230 25
25 230 25
25 230 25
25 230 25
25 230 25
25 230 25
25 230 25
25 230 25
25 230 25
25 230 25
25 230 25
25 230 25
25 230 25
25 230 25
25 230 25
25 230 25
25 230 25
25 230 25
25 230 25
25 230 25
25 230 25
25 230 25
25 230 25
25 230 25
25 230 25
25 230 25
25 230 25
25 230 25
25 230 25
25 230 25
25 230 25
25 230 25
70 223 70
204 204 204
204 204 204
204 204 204
204 204 204
204 204 204
204 204 204
204 204 204
204 204 204
204 204 204
204 204 204
204 204 204
204 204 204
204 204 204
204 204 204
204 204 204
204 204 204
204 204 204
204 204 204
204 204 204
204 204 204
204 204 204
204 204 204
204 204 204
204 204 204
204 204 204
204 204 204
204 204 204
204 204 204
204 204 204
204 204 204
204 204 204
204 204 204
204 204 204
204 204 204
204 204 204
204 204 204
204 204 204
204 204 204
204 204 204
204 204 204
204 204 204
204 204 204
204 204 204
204 204 204
204 204 204
204 204 204
204 204 204
204 204 204
204 204 204
204 204 204
204 204 204
204 204 204
204 204 204
204 204 204
204 204 204
204 204 204
204 204 204
204 204 204
204 204 204
204 204 204
204 204 204
204 204 204
204 204 204
204 204 204
204 204 204
204 204 204
204 204 204
204 204 204
204 204 204
204 204 204
204 204 204
204 204 204
204 204 204
204 204 204
204 204 204
204 204 204
204 204 204
204 204 204
204 204 204
204 204 204
204 204 204
204 204 204
204 204 204
204 204 204
204 204 204
204 204 204
204 204 204
204 204 204
204 204 204
204 204 204
204 204 204
204 204 204
204 204 204
204 204 204
204 204 204
204 204 204
204 204 204
204 204 204
204 204 204
204 204 204
204 204 204
204 204 204
227 47 47
230 25 25
230 25 25
230 25 25
230 25 25
230 25 25
230 25 25
230 25 25
230 25 25
230 25 25
230 25 25
230 25 25
230 25 25
230 25 25
230 25 25
230 25 25
230 25 25
230 25 25
230 25 25
230 25 25
230 25 25
230 25 25
230 25 25
230 25 25
230 25 25
230 25 25
230 25 25
230 25 25
230 25 25
230 25 25
230 25 25
230 25 25
230 25 25
230 25 25
230 25 25
230 25 25
230 25 25
230 25 25
230 25 25
230 25 25
230 25 25
230 25 25
230 25 25
230 25 25
230 25 25
230 25 25
230 25 25
230 25 25
230 25 25
230 25 25
230 25 25
230 25 25
230 25 25
230 25 25
230 25 25
230 25 25
230 25 25
230 25 25
230 25 25
230 25 25
230 25 25
230 25 25
230 25 25
230 25 25
230 25 25
230 25 25
230 25 25
230 25 25
230 25 25
230 25 25
230 25 25
214 137 137
204 204 204
204 204 204
204 204 204
204 204 204
204 204 204
204 204 204
204 204 204
204 204 204
204 204 204
204 204 204
204 204 204
204 204 204
204 204 204
204 204 204
204 204 204
204 204 204
204 204 204
204 204 204
204 204 204
204 204 204
204 204 204
204 204 204
204 204 204
204 204 204
204 204 204
204 204 204
204 204 204
204 204 204
204 204 204
204 204 204
204 204 204
204 204 204
204 204 204
204 204 204
204 204 204
204 204 204
204 204 204
204 204 204
204 204 204
204 204 204
204 204 204
204 204 204
194 194 194
184 184 184
184 184 184
184 184 184
184 184 184
184 184 184
184 184 184
184 184 184
184 184 184
184 184 184
184 184 184
184 184 184
184 184 184
184 184 184
184 184 184
184 184 184
184 184 184
184 184 184
184 184 184
184 184 184
184 184 184
184 184 184
184 184 184
184 184 184
184 184 184
184 184 184
184 184 184
184 184 184
184 184 184
184 184 184
184 184 184
184 184 184
184 184 184
184 184 184
184 184 184
184 184 184
184 184 184
184 184 184
184 184 184
184 184 184
184 184 184
184 184 184
184 184 184
184 184 184
184 184 184
184 184 184
184 184 184
184 184 184
184 184 184
184 184 184
184 184 184
184 184 184
184 184 184
184 184 184
184 184 184
184 184 184
184 184 184
184 184 184
184 184 184
184 184 184
184 184 184
184 184 184
184 184 184
184 184 184
184 184 184
184 184 184
184 184 184
184 184 184
184 184 184
184 184 184
184 184 184
184 184 184
184 184 184
194 194 194
204 204 204
204 204 204
204 204 204
204 204 204
204 204 204
204 204 204
204 204 204
204 204 204
204 204 204
204 204 204
204 204 204
204 204 204
204 204 204
204 204 204
204 204 204
204 204 204
204 204 204
204 204 204
204 204 204
204 204 204
204 204 204
204 204 204
204 204 204
204 204 204
204 204 204
204 204 204
204 204 204
204 204 204
204 204 204
204 204 204
204 204 204
204 204 204
204 204 204
204 204 204
204 204 204
204 204 204
204 204 204
204 204 204
204 204 204
204 204 204
204 204 204
204 204 204
204 204 204
204 204 204
204 204 204
204 204 204
204 204 204
204 204 204
204 204 204
204 204 204
204 204 204
204 204 204
204 204 204
204 204 204
204 204 204
25 230 25
25 230 25
25 230 25
25 230 25
25 230 25
25 230 25
25 230 25
25 230 25
25 230 25
25 230 25
25 230 25
25 230 25
25 230 25
25 230 25
25 230 25
25 230 25
25 230 25
25 230 25
25 230 25
25 230 25
25 230 25
25 230 25
25 230 25
25 230 25
25 230 25
25 230 25
25 230 25
25 230 25
25 230 25
25 230 25
25 230 25
25 230 25
25 230 25
25 230 25
25 230 25
25 230 25
25 230 25
25 230 25
25 230 25
25 230 25
25 230 25
25 230 25
25 230 25
25 230 25
25 230 25
25 230 25
25 230 25
25 230 25
25 230 25
25 230 25
25 230 25
25 230 25
25 230 25
25 230 25
47 227 47
204 204 204
204 204 204
204 204 204
204 204 204
204 204 204
204 204 204
204 204 204
204 204 204
204 204 204
204 204 204
204 204 204
204 204 204
204 204 204
204 204 204
204 204 204
204 204 204
204 204 204
204 204 204
204 204 204
204 204 204
204 204 204
204 204 204
204 204 204
204 204 204
204 204 204
204 204 204
204 204 204
204 204 204
204 204 204
204 204 204
204 204 204
204 204 204
204 204 204
204 204 204
204 204 204
204 204 204
204 204 204
204 204 204
204 204 204
204 204 204
204 204 204
204 204 204
204 204 204
204 204 204
204 204 204
204 204 204
204 204 204
204 204 204
204 204 204
204 204 204
204 204 204
204 204 204
204 204 204
204 204 204
204 204 204
204 204 204
204 204 204
204 204 204
204 204 204
204 204 204
204 204 204
204 204 204
204 204 204
204 204 204
204 204 204
204 204 204
204 204 204
204 204 204
204 204 204
204 204 204
204 204 204
204 204 204
204 204 204
204 204 204
204 204 204
204 204 204
204 204 204
204 204 204
204 204 204
204 204 204
204 204 204
204 204 204
204 204 204
204 204 204
204 204 204
204 204 204
204 204 204
204 204 204
204 204 204
204 204 204
204 204 204
204 204 204
204 204 204
204 204 204
204 204 204
204 204 204
204 204 204
204 204 204
204 204 204
204 204 204
204 204 204
204 204 204
211 159 159
230 25 25
230 25 25
230 25 25
230 25 25
230 25 25
230 25 25
230 25 25
230 25 25
230 25 25
230 25 25
230 25 25
230 25 25
230 25 25
230 25 25
230 25 25
230 25 25
230 25 25
230 25 25
230 25 25
230 25 25
230 25 25
230 25 25
230 25 25
230 25 25
230 25 25
230 25 25
230 25 25
230 25 25
230 25 25
230 25 25
230 25 25
230 25 25
230 25 25
230 25 25
230 25 25
230 25 25
230 25 25
230 25 25
230 25 25
230 25 25
230 25 25
230 25 25
230 25 25
230 25 25
230 25 25
230 25 25
230 25 25
230 25 25
230 25 25
230 25 25
230 25 25
230 25 25
230 25 25
230 25 25
230 25 25
230 25 25
230 25 25
230 25 25
230 25 25
230 25 25
230 25 25
230 25 25
230 25 25
230 25 25
230 25 25
230 25 25
230 25 25
230 25 25
230 25 25
227 47 47
207 182 182
204 204 204
204 204 204
204 204 204
204 204 204
204 204 204
204 204 204
204 204 204
204 204 204
204 204 204
204 204 204
204 204 204
204 204 204
204 204 204
204 204 204
204 204 204
204 204 204
204 204 204
204 204 204
204 204 204
204 204 204
204 204 204
204 204 204
204 204 204
204 204 204
204 204 204
204 204 204
204 204 204
204 204 204
204 204 204
204 204 204
204 204 204
204 204 204
204 204 204
204 204 204
204 204 204
204 204 204
204 204 204
204 204 204
204 204 204
204 204 204
204 204 204
204 204 204
204 204 204
189 189 189
184 184 184
184 184 184
184 184 184
184 184 184
184 184 184
184 184 184
184 184 184
184 184 184
184 184 184
184 184 184
184 184 184
184 184 184
184 184 184
184 184 184
184 184 184
184 184 184
184 184 184
184 184 184
184 184 184
184 184 184
184 184 184
184 184 184
184 184 184
184 184 184
184 184 184
184 184 184
184 184 184
184 184 184
184 184 184
184 184 184
184 184 184
184 184 184
184 184 184
184 184 184
184 184 184
184 184 184
184 184 184
184 184 184
184 184 184
184 184 184
184 184 184
184 184 184
184 184 184
184 184 184
184 184 184
184 184 184
184 184 184
184 184 184
184 184 184
184 184 184
184 184 184
184 184 184
184 184 184
184 184 184
184 184 184
184 184 184
184 184 184
184 184 184
184 184 184
184 184 184
184 184 184
184 184 184
184 184 184
184 184 184
184 184 184
184 184 184
184 184 184
184 184 184
184 184 184
184 184 184
199 199 199
204 204 204
204 204 204
204 204 204
204 204 204
204 204 204
204 204 204
204 204 204
204 204 204
204 204 204
204 204 204
204 204 204
204 204 204
204 204 204
204 204 204
204 204 204
204 204 204
204 204 204
204 204 204
204 204 204
204 204 204
204 204 204
204 204 204
204 204 204
204 204 204
204 204 204
204 204 204
204 204 204
204 204 204
204 204 204
204 204 204
204 204 204
204 204 204
204 204 204
204 204 204
204 204 204
204 204 204
204 204 204
204 204 204
204 204 204
204 204 204
204 204 204
204 204 204
204 204 204
204 204 204
204 204 204
204 204 204
204 204 204
204 204 204
204 204 204
204 204 204
204 204 204
204 204 204
204 204 204
204 204 204
204 204 204
204 204 204
47 227 47
25 230 25
25 230 25
25 230 25
25 230 25
25 230 25
25 230 25
25 230 25
25 230 25
25 230 25
25 230 25
25 230 25
25 230 25
25 230 25
25 230 25
25 230 25
25 230 25
25 230 25
25 230 25
25 230 25
25 230 25
25 230 25
25 230 25
25 230 25
25 230 25
25 230 25
25 230 25
25 230 25
25 230 25
25 230 25
25 230 25
25 230 25
25 230 25
25 230 25
25 230 25
25 230 25
25 230 25
25 230 25
25 230 25
25 230 25
25 230 25
25 230 25
25 230 25
25 230 25
25 230 25
25 230 25
25 230 25
25 230 25
25 230 25
25 230 25
25 230 25
25 230 25
25 230 25
25 230 25
47 227 47
204 204 204
204 204 204
204 204 204
204 204 204
204 204 204
204 204 204
204 204 204
204 204 204
204 204 204
204 204 204
204 204 204
204 204 204
204 204 204
204 204 204
204 204 204
204 204 204
204 204 204
204 204 204
204 204 204
204 204 204
204 204 204
204 204 204
204 204 204
204 204 204
204 204 204
204 204 204
204 204 204
204 204 204
204 204 204
204 204 204
204 204 204
204 204 204
204 204 204
204 204 204
204 204 204
204 204 204
204 204 204
204 204 204
204 204 204
204 204 204
204 204 204
204 204 204
204 204 204
204 204 204
204 204 204
204 204 204
204 204 204
204 204 204
204 204 204
204 204 204
204 204 204
204 204 204
204 204 204
204 204 204
204 204 204
204 204 204
204 204 204
204 204 204
204 204 204
204 204 204
204 204 204
204 204 204
204 204 204
204 204 204
204 204 204
204 204 204
204 204 204
204 204 204
204 204 204
204 204 204
204 204 204
204 204 204
204 204 204
204 204 204
204 204 204
204 204 204
204 204 204
204 204 204
204 204 204
204 204 204
204 204 204
204 204 204
204 204 204
204 204 204
204 204 204
204 204 204
204 204 204
204 204 204
204 204 204
204 204 204
204 204 204
204 204 204
204 204 204
204 204 204
204 204 204
204 204 204
204 204 204
204 204 204
204 204 204
204 204 204
204 204 204
204 204 204
204 204 204
227 47 47
230 25 25
230 25 25
230 25 25
230 25 25
230 25 25
230 25 25
230 25 25
230 25 25
230 25 25
230 25 25
230 25 25
230 25 25
230 25 25
230 25 25
230 25 25
230 25 25
230 25 25
230 25 25
230 25 25
230 25 25
230 25 25
230 25 25
230 25 25
230 25 25
230 25 25
230 25 25
230 25 25
230 25 25
230 25 25
230 25 25
230 25 25
230 25 25
230 25 25
230 25 25
230 25 25
230 25 25
230 25 25
230 25 25
230 25 25
230 25 25
230 25 25
230 25 25
230 25 25
230 25 25
230 25 25
230 25 25
230 25 25
230 25 25
230 25 25
230 25 25
230 25 25
230 25 25
230 25 25
230 25 25
230 25 25
230 25 25
230 25 25
230 25 25
230 25 25
230 25 25
230 25 25
230 25 25
230 25 25
230 25 25
230 25 25
230 25 25
230 25 25
227 47 47
217 115 115
204 204 204
204 204 204
204 204 204
204 204 204
204 204 204
204 204 204
204 204 204
204 204 204
204 204 204
204 204 204
204 204 204
204 204 204
204 204 204
204 204 204
204 204 204
204 204 204
204 204 204
204 204 204
204 204 204
204 204 204
204 204 204
204 204 204
204 204 204
204 204 204
204 204 204
204 204 204
204 204 204
204 204 204
204 204 204
204 204 204
204 204 204
204 204 204
204 204 204
204 204 204
204 204 204
204 204 204
204 204 204
204 204 204
204 204 204
204 204 204
204 204 204
204 204 204
204 204 204
204 204 204
204 204 204
197 197 197
184 184 184
184 184 184
184 184 184
184 184 184
184 184 184
184 184 184
184 184 184
184 184 184
184 184 184
184 184 184
184 184 184
184 184 184
184 184 184
184 184 184
184 184 184
184 184 184
184 184 184
184 184 184
184 184 184
184 184 184
184 184 184
184 184 184
184 184 184
184 184 184
184 184 184
184 184 184
184 184 184
184 184 184
184 184 184
184 184 184
184 184 184
184 184 184
184 184 184
184 184 184
184 184 184
184 184 184
184 184 184
184 184 184
184 184 184
184 184 184
184 184 184
184 184 184
184 184 184
184 184 184
184 184 184
184 184 184
184 184 184
184 184 184
184 184 184
184 184 184
184 184 184
184 184 184
184 184 184
184 184 184
184 184 184
184 184 184
184 184 184
184 184 184
184 184 184
184 184 184
184 184 184
184 184 184
184 184 184
184 184 184
184 184 184
184 184 184
184 184 184
184 184 184
197 197 197
204 204 204
204 204 204
204 204 204
204 204 204
204 204 204
204 204 204
204 204 204
204 204 204
204 204 204
204 204 204
204 204 204
204 204 204
204 204 204
204 204 204
204 204 204
204 204 204
204 204 204
204 204 204
204 204 204
204 204 204
204 204 204
204 204 204
204 204 204
204 204 204
204 204 204
204 204 204
204 204 204
204 204 204
204 204 204
204 204 204
204 204 204
204 204 204
204 204 204
204 204 204
204 204 204
204 204 204
204 204 204
204 204 204
204 204 204
204 204 204
204 204 204
204 204 204
204 204 204
204 204 204
204 204 204
204 204 204
204 204 204
204 204 204
204 204 204
204 204 204
204 204 204
204 204 204
204 204 204
204 204 204
204 204 204
204 204 204
204 204 204
70 223 70
25 230 25
25 230 25
25 230 25
25 230 25
25 230 25
25 230 25
25 230 25
25 230 25
25 230 25
25 230 25
25 230 25
25 230 25
25 230 25
25 230 25
25 230 25
25 230 25
25 230 25
25 230 25
25 230 25
25 230 25
25 230 25
25 230 25
25 230 25
25 230 25
25 230 25
25 230 25
25 230 25
25 230 25
25 230 25
25 230 25
25 230 25
25 230 25
25 230 25
25 230 25
25 230 25
25 230 25
25 230 25
25 230 25
25 230 25
25 230 25
25 230 25
25 230 25
25 230 25
25 230 25
25 230 25
25 230 25
25 230 25
25 230 25
25 230 25
25 230 25
25 230 25
25 230 25
25 230 25
25 230 25
204 204 204
204 204 204
204 204 204
204 204 204
204 204 204
204 204 204
204 204 204
204 204 204
204 204 204
204 204 204
204 204 204
204 204 204
204 204 204
204 204 204
204 204 204
204 204 204
204 204 204
204 204 204
204 204 204
204 204 204
204 204 204
204 204 204
204 204 204
204 204 204
204 204 204
204 204 204
204 204 204
204 204 204
204 204 204
204 204 204
204 204 204
204 204 204
204 204 204
204 204 204
204 204 204
204 204 204
204 204 204
204 204 204
204 204 204
204 204 204
204 204 204
204 204 204
204 204 204
204 204 204
204 204 204
204 204 204
204 204 204
204 204 204
204 204 204
204 204 204
204 204 204
204 204 204
204 204 204
204 204 204
204 204 204
204 204 204
204 204 204
204 204 204
204 204 204
204 204 204
204 204 204
204 204 204
204 204 204
204 204 204
204 204 204
204 204 204
204 204 204
204 204 204
204 204 204
204 204 204
204 204 204
204 204 204
204 204 204
204 204 204
204 204 204
204 204 204
204 204 204
204 204 204
204 204 204
204 204 204
204 204 204
204 204 204
204 204 204
204 204 204
204 204 204
204 204 204
204 204 204
204 204 204
204 204 204
204 204 204
204 204 204
204 204 204
204 204 204
204 204 204
204 204 204
204 204 204
204 204 204
204 204 204
204 204 204
204 204 204
204 204 204
204 204 204
204 204 204
207 182 182
230 25 25
230 25 25
230 25 25
230 25 25
230 25 25
230 25 25
230 25 25
230 25 25
230 25 25
230 25 25
230 25 25
230 25 25
230 25 25
230 25 25
230 25 25
230 25 25
230 25 25
230 25 25
230 25 25
230 25 25
230 25 25
230 25 25
230 25 25
230 25 25
230 25 25
230 25 25
230 25 25
230 25 25
230 25 25
230 25 25
230 25 25
230 25 25
230 25 25
230 25 25
230 25 25
230 25 25
230 25 25
230 25 25
230 25 25
230 25 25
230 25 25
230 25 25
230 25 25
230 25 25
230 25 25
230 25 25
230 25 25
230 25 25
230 25 25
230 25 25
230 25 25
230 25 25
230 25 25
230 25 25
230 25 25
230 25 25
230 25 25
230 25 25
230 25 25
230 25 25
230 25 25
230 25 25
230 25 25
230 25 25
230 25 25
230 25 25
230 25 25
207 182 182
204 204 204
204 204 204
204 204 204
204 204 204
204 204 204
204 204 204
204 204 204
204 204 204
204 204 204
204 204 204
204 204 204
204 204 204
204 204 204
204 204 204
204 204 204
204 204 204
204 204 204
204 204 204
204 204 204
204 204 204
204 204 204
204 204 204
204 204 204
204 204 204
204 204 204
204 204 204
204 204 204
204 204 204
204 204 204
204 204 204
204 204 204
204 204 204
204 204 204
204 204 204
204 204 204
204 204 204
204 204 204
204 204 204
204 204 204
204 204 204
204 204 204
204 204 204
204 204 204
204 204 204
204 204 204
204 204 204
204 204 204
204 204 204
186 186 186
184 184 184
184 184 184
184 184 184
184 184 184
184 184 184
184 184 184
184 184 184
184 184 184
184 184 184
184 184 184
184 184 184
184 184 184
184 184 184
184 184 184
184 184 184
184 184 184
184 184 184
184 184 184
184 184 184
184 184 184
184 184 184
184 184 184
184 184 184
184 184 184
184 184 184
184 184 184
184 184 184
184 184 184
184 184 184
184 184 184
184 184 184
184 184 184
184 184 184
184 184 184
184 184 184
184 184 184
184 184 184
184 184 184
184 184 184
184 184 184
184 184 184
184 184 184
184 184 184
184 184 184
184 184 184
184 184 184
184 184 184
184 184 184
184 184 184
184 184 184
184 184 184
184 184 184
184 184 184
184 184 184
184 184 184
184 184 184
184 184 184
184 184 184
184 184 184
184 184 184
184 184 184
184 184 184
184 184 184
184 184 184
184 184 184
199 199 199
204 204 204
204 204 204
204 204 204
204 204 204
204 204 204
204 204 204
204 204 204
204 204 204
204 204 204
204 204 204
204 204 204
204 204 204
204 204 204
204 204 204
204 204 204
204 204 204
204 204 204
204 204 204
204 204 204
204 204 204
204 204 204
204 204 204
204 204 204
204 204 204
204 204 204
204 204 204
204 204 204
204 204 204
204 204 204
204 204 204
204 204 204
204 204 204
204 204 204
204 204 204
204 204 204
204 204 204
204 204 204
204 204 204
204 204 204
204 204 204
204 204 204
204 204 204
204 204 204
204 204 204
204 204 204
204 204 204
204 204 204
204 204 204
204 204 204
204 204 204
204 204 204
204 204 204
204 204 204
204 204 204
204 204 204
204 204 204
204 204 204
204 204 204
182 207 182
25 230 25
25 230 25
25 230 25
25 230 25
25 230 25
25 230 25
25 230 25
25 230 25
25 230 25
25 230 25
25 230 25
25 230 25
25 230 25
25 230 25
25 230 25
25 230 25
25 230 25
25 230 25
25 230 25
25 230 25
25 230 25
25 230 25
25 230 25
25 230 25
25 230 25
25 230 25
25 230 25
25 230 25
25 230 25
25 230 25
25 230 25
25 230 25
25 230 25
25 230 25
25 230 25
25 230 25
25 230 25
25 230 25
25 230 25
25 230 25
25 230 25
25 230 25
25 230 25
25 230 25
25 230 25
25 230 25
25 230 25
25 230 25
25 230 25
25 230 25
25 230 25
25 230 25
25 230 25
47 227 47
204 204 204
204 204 204
204 204 204
204 204 204
204 204 204
204 204 204
204 204 204
204 204 204
204 204 204
204 204 204
204 204 204
204 204 204
204 204 204
204 204 204
204 204 204
204 204 204
204 204 204
204 204 204
204 204 204
204 204 204
204 204 204
204 204 204
204 204 204
204 204 204
204 204 204
204 204 204
204 204 204
204 204 204
204 204 204
204 204 204
204 204 204
204 204 204
204 204 204
204 204 204
204 204 204
204 204 204
204 204 204
204 204 204
204 204 204
204 204 204
204 204 204
204 204 204
204 204 204
204 204 204
204 204 204
204 204 204
204 204 204
204 204 204
204 204 204
204 204 204
204 204 204
204 204 204
204 204 204
204 204 204
204 204 204
204 204 204
204 204 204
204 204 204
204 204 204
204 204 204
204 204 204
204 204 204
204 204 204
204 204 204
204 204 204
204 204 204
204 204 204
204 204 204
204 204 204
204 204 204
204 204 204
204 204 204
204 204 204
204 204 204
204 204 204
204 204 204
204 204 204
204 204 204
204 204 204
204 204 204
204 204 204
204 204 204
204 204 204
204 204 204
204 204 204
204 204 204
204 204 204
204 204 204
204 204 204
204 204 204
204 204 204
204 204 204
204 204 204
204 204 204
204 204 204
204 204 204
204 204 204
204 204 204
204 204 204
204 204 204
204 204 204
204 204 204
204 204 204
204 204 204
211 159 159
230 25 25
230 25 25
230 25 25
230 25 25
230 25 25
230 25 25
230 25 25
230 25 25
230 25 25
230 25 25
230 25 25
230 25 25
230 25 25
230 25 25
230 25 25
230 25 25
230 25 25
230 25 25
230 25 25
230 25 25
230 25 25
230 25 25
230 25 25
230 25 25
230 25 25
230 25 25
230 25 25
230 25 25
230 25 25
230 25 25
230 25 25
230 25 25
230 25 25
230 25 25
230 25 25
230 25 25
230 25 25
230 25 25
230 25 25
230 25 25
230 25 25
230 25 25
230 25 25
230 25 25
230 25 25
230 25 25
230 25 25
230 25 25
230 25 25
230 25 25
230 25 25
230 25 25
230 25 25
230 25 25
230 25 25
230 25 25
230 25 25
230 25 25
230 25 25
230 25 25
230 25 25
230 25 25
230 25 25
230 25 25
230 25 25
223 70 70
204 204 204
204 204 204
204 204 204
204 204 204
204 204 204
204 204 204
204 204 204
204 204 204
204 204 204
204 204 204
204 204 204
204 204 204
204 204 204
204 204 204
204 204 204
204 204 204
204 204 204
204 204 204
204 204 204
204 204 204
204 204 204
204 204 204
204 204 204
204 204 204
204 204 204
204 204 204
204 204 204
204 204 204
204 204 204
204 204 204
204 204 204
204 204 204
204 204 204
204 204 204
204 204 204
204 204 204
204 204 204
204 204 204
204 204 204
204 204 204
204 204 204
204 204 204
204 204 204
204 204 204
204 204 204
204 204 204
204 204 204
204 204 204
204 204 204
204 204 204
186 186 186
184 184 184
184 184 184
184 184 184
184 184 184
184 184 184
184 184 184
184 184 184
184 184 184
184 184 184
184 184 184
184 184 184
184 184 184
184 184 184
184 184 184
184 184 184
184 184 184
184 184 184
184 184 184
184 184 184
184 184 184
184 184 184
184 184 184
184 184 184
184 184 184
184 184 184
184 184 184
184 184 184
184 184 184
184 184 184
184 184 184
184 184 184
184 184 184
184 184 184
184 184 184
184 184 184
184 184 184
184 184 184
184 184 184
184 184 184
184 184 184
184 184 184
184 184 184
184 184 184
184 184 184
184 184 184
184 184 184
184 184 184
184 184 184
184 184 184
184 184 184
184 184 184
184 184 184
184 184 184
184 184 184
184 184 184
184 184 184
184 184 184
184 184 184
184 184 184
184 184 184
184 184 184
184 184 184
184 184 184
197 197 197
204 204 204
204 204 204
204 204 204
204 204 204
204 204 204
204 204 204
204 204 204
204 204 204
204 204 204
204 204 204
204 204 204
204 204 204
204 204 204
204 204 204
204 204 204
204 204 204
204 204 204
204 204 204
204 204 204
204 204 204
204 204 204
204 204 204
204 204 204
204 204 204
204 204 204
204 204 204
204 204 204
204 204 204
204 204 204
204 204 204
204 204 204
204 204 204
204 204 204
204 204 204
204 204 204
204 204 204
204 204 204
204 204 204
204 204 204
204 204 204
204 204 204
204 204 204
204 204 204
204 204 204
204 204 204
204 204 204
204 204 204
204 204 204
204 204 204
204 204 204
204 204 204
204 204 204
204 204 204
204 204 204
204 204 204
204 204 204
204 204 204
204 204 204
204 204 204
204 204 204
25 230 25
25 230 25
25 230 25
25 230 25
25 230 25
25 230 25
25 230 25
25 230 25
25 230 25
25 230 25
25 230 25
25 230 25
25 230 25
25 230 25
25 230 25
25 230 25
25 230 25
25 230 25
25 230 25
25 230 25
25 230 25
25 230 25
25 230 25
25 230 25
25 230 25
25 230 25
25 230 25
25 230 25
25 230 25
25 230 25
25 230 25
25 230 25
25 230 25
25 230 25
25 230 25
25 230 25
25 230 25
25 230 25
25 230 25
25 230 25
25 230 25
25 230 25
25 230 25
25 230 25
25 230 25
25 230 25
25 230 25
25 230 25
25 230 25
25 230 25
25 230 25
25 230 25
25 230 25
47 227 47
204 204 204
204 204 204
204 204 204
204 204 204
204 204 204
204 204 204
204 204 204
204 204 204
204 204 204
204 204 204
204 204 204
204 204 204
204 204 204
204 204 204
204 204 204
204 204 204
204 204 204
204 204 204
204 204 204
204 204 204
204 204 204
204 204 204
204 204 204
204 204 204
204 204 204
204 204 204
204 204 204
204 204 204
204 204 204
204 204 204
204 204 204
204 204 204
204 204 204
204 204 204
204 204 204
204 204 204
204 204 204
204 204 204
204 204 204
204 204 204
204 204 204
204 204 204
204 204 204
204 204 204
204 204 204
204 204 204
204 204 204
204 204 204
204 204 204
204 204 204
204 204 204
204 204 204
204 204 204
204 204 204
204 204 204
204 204 204
204 204 204
204 204 204
204 204 204
204 204 204
204 204 204
204 204 204
204 204 204
204 204 204
204 204 204
204 204 204
204 204 204
204 204 204
204 204 204
204 204 204
204 204 204
204 204 204
204 204 204
204 204 204
204 204 204
204 204 204
204 204 204
204 204 204
204 204 204
204 204 204
204 204 204
204 204 204
204 204 204
204 204 204
204 204 204
204 204 204
204 204 204
204 204 204
204 204 204
204 204 204
204 204 204
204 204 204
204 204 204
204 204 204
204 204 204
204 204 204
204 204 204
204 204 204
204 204 204
204 204 204
204 204 204
204 204 204
204 204 204
204 204 204
204 204 204
223 70 70
230 25 25
230 25 25
230 25 25
230 25 25
230 25 25
230 25 25
230 25 25
230 25 25
230 25 25
230 25 25
230 25 25
230 25 25
230 25 25
230 25 25
230 25 25
230 25 25
230 25 25
230 25 25
230 25 25
230 25 25
230 25 25
230 25 25
230 25 25
230 25 25
230 25 25
230 25 25
230 25 25
230 25 25
230 25 25
230 25 25
230 25 25
230 25 25
230 25 25
230 25 25
230 25 25
230 25 25
230 25 25
230 25 25
230 25 25
230 25 25
230 25 25
230 25 25
230 25 25
230 25 25
230 25 25
230 25 25
230 25 25
230 25 25
230 25 25
230 25 25
230 25 25
230 25 25
230 25 25
230 25 25
230 25 25
230 25 25
230 25 25
230 25 25
230 25 25
230 25 25
230 25 25
230 25 25
230 25 25
227 47 47
207 182 182
204 204 204
204 204 204
204 204 204
204 204 204
204 204 204
204 204 204
204 204 204
204 204 204
204 204 204
204 204 204
204 204 204
204 204 204
204 204 204
204 204 204
204 204 204
204 204 204
204 204 204
204 204 204
204 204 204
204 204 204
204 204 204
204 204 204
204 204 204
204 204 204
204 204 204
204 204 204
204 204 204
204 204 204
204 204 204
204 204 204
204 204 204
204 204 204
204 204 204
204 204 204
204 204 204
204 204 204
204 204 204
204 204 204
204 204 204
204 204 204
204 204 204
204 204 204
204 204 204
204 204 204
204 204 204
204 204 204
204 204 204
204 204 204
204 204 204
204 204 204
202 202 202
194 194 194
184 184 184
184 184 184
184 184 184
184 184 184
184 184 184
184 184 184
184 184 184
184 184 184
184 184 184
184 184 184
184 184 184
184 184 184
184 184 184
184 184 184
184 184 184
184 184 184
184 184 184
184 184 184
184 184 184
184 184 184
184 184 184
184 184 184
184 184 184
184 184 184
184 184 184
184 184 184
184 184 184
184 184 184
184 184 184
184 184 184
184 184 184
184 184 184
184 184 184
184 184 184
184 184 184
184 184 184
184 184 184
184 184 184
184 184 184
184 184 184
184 184 184
184 184 184
184 184 184
184 184 184
184 184 184
184 184 184
184 184 184
184 184 184
184 184 184
184 184 184
184 184 184
184 184 184
184 184 184
184 184 184
184 184 184
184 184 184
184 184 184
184 184 184
184 184 184
184 184 184
191 191 191
204 204 204
204 204 204
204 204 204
204 204 204
204 204 204
204 204 204
204 204 204
204 204 204
204 204 204
204 204 204
204 204 204
204 204 204
204 204 204
204 204 204
204 204 204
204 204 204
204 204 204
204 204 204
204 204 204
204 204 204
204 204 204
204 204 204
204 204 204
204 204 204
204 204 204
204 204 204
204 204 204
204 204 204
204 204 204
204 204 204
204 204 204
204 204 204
204 204 204
204 204 204
204 204 204
204 204 204
204 204 204
204 204 204
204 204 204
204 204 204
204 204 204
204 204 204
204 204 204
204 204 204
204 204 204
204 204 204
204 204 204
204 204 204
204 204 204
204 204 204
204 204 204
204 204 204
204 204 204
204 204 204
204 204 204
204 204 204
204 204 204
204 204 204
204 204 204
204 204 204
204 204 204
204 204 204
47 227 47
25 230 25
25 230 25
25 230 25
25 230 25
25 230 25
25 230 25
25 230 25
25 230 25
25 230 25
25 230 25
25 230 25
25 230 25
25 230 25
25 230 25
25 230 25
25 230 25
25 230 25
25 230 25
25 230 25
25 230 25
25 230 25
25 230 25
25 230 25
25 230 25
25 230 25
25 230 25
25 230 25
25 230 25
25 230 25
25 230 25
25 230 25
25 230 25
25 230 25
25 230 25
25 230 25
25 230 25
25 230 25
25 230 25
25 230 25
25 230 25
25 230 25
25 230 25
25 230 25
25 230 25
25 230 25
25 230 25
25 230 25
25 230 25
25 230 25
25 230 25
25 230 25
25 230 25
137 214 137
204 204 204
204 204 204
204 204 204
204 204 204
204 204 204
204 204 204
204 204 204
204 204 204
204 204 204
204 204 204
204 204 204
204 204 204
204 204 204
204 204 204
204 204 204
204 204 204
204 204 204
204 204 204
204 204 204
204 204 204
204 204 204
204 204 204
204 204 204
204 204 204
204 204 204
204 204 204
204 204 204
204 204 204
204 204 204
204 204 204
204 204 204
204 204 204
204 204 204
204 204 204
204 204 204
204 204 204
204 204 204
204 204 204
204 204 204
204 204 204
204 204 204
204 204 204
204 204 204
204 204 204
204 204 204
204 204 204
204 204 204
204 204 204
204 204 204
204 204 204
204 204 204
204 204 204
204 204 204
204 204 204
204 204 204
204 204 204
204 204 204
204 204 204
204 204 204
204 204 204
204 204 204
204 204 204
204 204 204
204 204 204
204 204 204
204 204 204
204 204 204
204 204 204
204 204 204
204 204 204
204 204 204
204 204 204
204 204 204
204 204 204
204 204 204
204 204 204
204 204 204
204 204 204
204 204 204
204 204 204
204 204 204
204 204 204
204 204 204
204 204 204
204 204 204
204 204 204
204 204 204
204 204 204
204 204 204
204 204 204
204 204 204
204 204 204
204 204 204
204 204 204
204 204 204
204 204 204
204 204 204
204 204 204
204 204 204
204 204 204
204 204 204
204 204 204
204 204 204
204 204 204
204 204 204
211 159 159
227 47 47
230 25 25
230 25 25
230 25 25
230 25 25
230 25 25
230 25 25
230 25 25
230 25 25
230 25 25
230 25 25
230 25 25
230 25 25
230 25 25
230 25 25
230 25 25
230 25 25
230 25 25
230 25 25
230 25 25
230 25 25
230 25 25
230 25 25
230 25 25
230 25 25
230 25 25
230 25 25
230 25 25
230 25 25
230 25 25
230 25 25
230 25 25
230 25 25
230 25 25
230 25 25
230 25 25
230 25 25
230 25 25
230 25 25
230 25 25
230 25 25
230 25 25
230 25 25
230 25 25
230 25 25
230 25 25
230 25 25
230 25 25
230 25 25
230 25 25
230 25 25
230 25 25
230 25 25
230 25 25
230 25 25
230 25 25
230 25 25
230 25 25
230 25 25
230 25 25
230 25 25
230 25 25
227 47 47
211 159 159
204 204 204
204 204 204
204 204 204
204 204 204
204 204 204
204 204 204
204 204 204
204 204 204
204 204 204
204 204 204
204 204 204
204 204 204
204 204 204
204 204 204
204 204 204
204 204 204
204 204 204
204 204 204
204 204 204
204 204 204
204 204 204
204 204 204
204 204 204
204 204 204
204 204 204
204 204 204
204 204 204
204 204 204
204 204 204
204 204 204
204 204 204
204 204 204
204 204 204
204 204 204
204 204 204
204 204 204
204 204 204
204 204 204
204 204 204
204 204 204
204 204 204
204 204 204
204 204 204
204 204 204
204 204 204
204 204 204
204 204 204
204 204 204
204 204 204
204 204 204
204 204 204
204 204 204
204 204 204
199 199 199
184 184 184
184 184 184
184 184 184
184 184 184
184 184 184
184 184 184
184 184 184
184 184 184
184 184 184
184 184 184
184 184 184
184 184 184
184 184 184
184 184 184
184 184 184
184 184 184
184 184 184
184 184 184
184 184 184
184 184 184
184 184 184
184 184 184
184 184 184
184 184 184
184 184 184
184 184 184
184 184 184
184 184 184
184 184 184
184 184 184
184 184 184
184 184 184
184 184 184
184 184 184
184 184 184
184 184 184
184 184 184
184 184 184
184 184 184
184 184 184
184 184 184
184 184 184
184 184 184
184 184 184
184 184 184
184 184 184
184 184 184
184 184 184
184 184 184
184 184 184
184 184 184
184 184 184
184 184 184
184 184 184
184 184 184
184 184 184
184 184 184
184 184 184
197 197 197
204 204 204
204 204 204
204 204 204
204 204 204
204 204 204
204 204 204
204 204 204
204 204 204
204 204 204
204 204 204
204 204 204
204 204 204
204 204 204
204 204 204
204 204 204
204 204 204
204 204 204
204 204 204
204 204 204
204 204 204
204 204 204
204 204 204
204 204 204
204 204 204
204 204 204
204 204 204
204 204 204
204 204 204
204 204 204
204 204 204
204 204 204
204 204 204
204 204 204
204 204 204
204 204 204
204 204 204
204 204 204
204 204 204
204 204 204
204 204 204
204 204 204
204 204 204
204 204 204
204 204 204
204 204 204
204 204 204
204 204 204
204 204 204
204 204 204
204 204 204
204 204 204
204 204 204
204 204 204
204 204 204
204 204 204
204 204 204
204 204 204
204 204 204
204 204 204
204 204 204
204 204 204
204 204 204
204 204 204
159 211 159
25 230 25
25 230 25
25 230 25
25 230 25
25 230 25
25 230 25
25 230 25
25 230 25
25 230 25
25 230 25
25 230 25
25 230 25
25 230 25
25 230 25
25 230 25
25 230 25
25 230 25
25 230 25
25 230 25
25 230 25
25 230 25
25 230 25
25 230 25
25 230 25
25 230 25
25 230 25
25 230 25
25 230 25
25 230 25
25 230 25
25 230 25
25 230 25
25 230 25
25 230 25
25 230 25
25 230 25
25 230 25
25 230 25
25 230 25
25 230 25
25 230 25
25 230 25
25 230 25
25 230 25
25 230 25
25 230 25
25 230 25
25 230 25
25 230 25
25 230 25
25 230 25
25 230 25
92 220 92
204 204 204
204 204 204
204 204 204
204 204 204
204 204 204
204 204 204
204 204 204
204 204 204
204 204 204
204 204 204
204 204 204
204 204 204
204 204 204
204 204 204
204 204 204
204 204 204
204 204 204
204 204 204
204 204 204
204 204 204
204 204 204
204 204 204
204 204 204
204 204 204
204 204 204
204 204 204
204 204 204
204 204 204
204 204 204
204 204 204
204 204 204
204 204 204
204 204 204
204 204 204
204 204 204
204 204 204
204 204 204
204 204 204
204 204 204
204 204 204
204 204 204
204 204 204
204 204 204
204 204 204
204 204 204
204 204 204
204 204 204
204 204 204
204 204 204
204 204 204
204 204 204
204 204 204
204 204 204
204 204 204
204 204 204
204 204 204
204 204 204
204 204 204
204 204 204
204 204 204
204 204 204
204 204 204
204 204 204
204 204 204
204 204 204
204 204 204
204 204 204
204 204 204
204 204 204
204 204 204
204 204 204
204 204 204
204 204 204
204 204 204
204 204 204
204 204 204
204 204 204
204 204 204
204 204 204
204 204 204
204 204 204
204 204 204
204 204 204
204 204 204
204 204 204
204 204 204
204 204 204
204 204 204
204 204 204
204 204 204
204 204 204
204 204 204
204 204 204
204 204 204
204 204 204
204 204 204
204 204 204
204 204 204
204 204 204
204 204 204
204 204 204
204 204 204
204 204 204
204 204 204
204 204 204
204 204 204
211 159 159
230 25 25
230 25 25
230 25 25
230 25 25
230 25 25
230 25 25
230 25 25
230 25 25
230 25 25
230 25 25
230 25 25
230 25 25
230 25 25
230 25 25
230 25 25
230 25 25
230 25 25
230 25 25
230 25 25
230 25 25
230 25 25
230 25 25
230 25 25
230 25 25
230 25 25
230 25 25
230 25 25
230 25 25
230 25 25
230 25 25
230 25 25
230 25 25
230 25 25
230 25 25
230 25 25
230 25 25
230 25 25
230 25 25
230 25 25
230 25 25
230 25 25
230 25 25
230 25 25
230 25 25
230 25 25
230 25 25
230 25 25
230 25 25
230 25 25
230 25 25
230 25 25
230 25 25
230 25 25
230 25 25
230 25 25
230 25 25
230 25 25
230 25 25
230 25 25
230 25 25
230 25 25
204 204 204
204 204 204
204 204 204
204 204 204
204 204 204
204 204 204
204 204 204
204 204 204
204 204 204
204 204 204
204 204 204
204 204 204
204 204 204
204 204 204
204 204 204
204 204 204
204 204 204
204 204 204
204 204 204
204 204 204
204 204 204
204 204 204
204 204 204
204 204 204
204 204 204
204 204 204
204 204 204
204 204 204
204 204 204
204 204 204
204 204 204
204 204 204
204 204 204
204 204 204
204 204 204
204 204 204
204 204 204
204 204 204
204 204 204
204 204 204
204 204 204
204 204 204
204 204 204
204 204 204
204 204 204
204 204 204
204 204 204
204 204 204
204 204 204
204 204 204
204 204 204
204 204 204
204 204 204
204 204 204
204 204 204
204 204 204
202 202 202
189 189 189
184 184 184
184 184 184
184 184 184
184 184 184
184 184 184
184 184 184
184 184 184
184 184 184
184 184 184
184 184 184
184 184 184
184 184 184
184 184 184
184 184 184
184 184 184
184 184 184
184 184 184
184 184 184
184 184 184
184 184 184
184 184 184
184 184 184
184 184 184
184 184 184
184 184 184
184 184 184
184 184 184
184 184 184
184 184 184
184 184 184
184 184 184
184 184 184
184 184 184
184 184 184
184 184 184
184 184 184
184 184 184
184 184 184
184 184 184
184 184 184
184 184 184
184 184 184
184 184 184
184 184 184
184 184 184
184 184 184
184 184 184
184 184 184
184 184 184
184 184 184
184 184 184
184 184 184
184 184 184
184 184 184
191 191 191
199 199 199
204 204 204
204 204 204
204 204 204
204 204 204
204 204 204
204 204 204
204 204 204
204 204 204
204 204 204
204 204 204
204 204 204
204 204 204
204 204 204
204 204 204
204 204 204
204 204 204
204 204 204
204 204 204
204 204 204
204 204 204
204 204 204
204 204 204
204 204 204
204 204 204
204 204 204
204 204 204
204 204 204
204 204 204
204 204 204
204 204 204
204 204 204
204 204 204
204 204 204
204 204 204
204 204 204
204 204 204
204 204 204
204 204 204
204 204 204
204 204 204
204 204 204
204 204 204
204 204 204
204 204 204
204 204 204
204 204 204
204 204 204
204 204 204
204 204 204
204 204 204
204 204 204
204 204 204
204 204 204
204 204 204
204 204 204
204 204 204
204 204 204
204 204 204
204 204 204
204 204 204
204 204 204
204 204 204
204 204 204
204 204 204
204 204 204
47 227 47
25 230 25
25 230 25
25 230 25
25 230 25
25 230 25
25 230 25
25 230 25
25 230 25
25 230 25
25 230 25
25 230 25
25 230 25
25 230 25
25 230 25
25 230 25
25 230 25
25 230 25
25 230 25
25 230 25
25 230 25
25 230 25
25 230 25
25 230 25
25 230 25
25 230 25
25 230 25
25 230 25
25 230 25
25 230 25
25 230 25
25 230 25
25 230 25
25 230 25
25 230 25
25 230 25
25 230 25
25 230 25
25 230 25
25 230 25
25 230 25
25 230 25
25 230 25
25 230 25
25 230 25
25 230 25
25 230 25
25 230 25
25 230 25
25 230 25
25 230 25
25 230 25
137 214 137
204 204 204
204 204 204
204 204 204
204 204 204
204 204 204
204 204 204
204 204 204
204 204 204
204 204 204
204 204 204
204 204 204
204 204 204
204 204 204
204 204 204
204 204 204
204 204 204
204 204 204
204 204 204
204 204 204
204 204 204
204 204 204
204 204 204
204 204 204
204 204 204
204 204 204
204 204 204
204 204 204
204 204 204
204 204 204
204 204 204
204 204 204
204 204 204
204 204 204
204 204 204
204 204 204
204 204 204
204 204 204
204 204 204
204 204 204
204 204 204
204 204 204
204 204 204
204 204 204
204 204 204
204 204 204
204 204 204
204 204 204
204 204 204
204 204 204
204 204 204
204 204 204
204 204 204
204 204 204
204 204 204
204 204 204
204 204 204
204 204 204
204 204 204
204 204 204
204 204 204
204 204 204
204 204 204
204 204 204
204 204 204
204 204 204
204 204 204
204 204 204
204 204 204
204 204 204
204 204 204
204 204 204
204 204 204
204 204 204
204 204 204
204 204 204
204 204 204
204 204 204
204 204 204
204 204 204
204 204 204
204 204 204
204 204 204
204 204 204
204 204 204
204 204 204
204 204 204
204 204 204
204 204 204
204 204 204
204 204 204
204 204 204
204 204 204
204 204 204
204 204 204
204 204 204
204 204 204
204 204 204
204 204 204
204 204 204
204 204 204
204 204 204
204 204 204
204 204 204
204 204 204
204 204 204
204 204 204
204 204 204
227 47 47
230 25 25
230 25 25
230 25 25
230 25 25
230 25 25
230 25 25
230 25 25
230 25 25
230 25 25
230 25 25
230 25 25
230 25 25
230 25 25
230 25 25
230 25 25
230 25 25
230 25 25
230 25 25
230 25 25
230 25 25
230 25 25
230 25 25
230 25 25
230 25 25
230 25 25
230 25 25
230 25 25
230 25 25
230 25 25
230 25 25
230 25 25
230 25 25
230 25 25
230 25 25
230 25 25
230 25 25
230 25 25
230 25 25
230 25 25
230 25 25
230 25 25
230 25 25
230 25 25
230 25 25
230 25 25
230 25 25
230 25 25
230 25 25
230 25 25
230 25 25
230 25 25
230 25 25
230 25 25
230 25 25
230 25 25
230 25 25
230 25 25
230 25 25
230 25 25
220 92 92
204 204 204
204 204 204
204 204 204
204 204 204
204 204 204
204 204 204
204 204 204
204 204 204
204 204 204
204 204 204
204 204 204
204 204 204
204 204 204
204 204 204
204 204 204
204 204 204
204 204 204
204 204 204
204 204 204
204 204 204
204 204 204
204 204 204
204 204 204
204 204 204
204 204 204
204 204 204
204 204 204
204 204 204
204 204 204
204 204 204
204 204 204
204 204 204
204 204 204
204 204 204
204 204 204
204 204 204
204 204 204
204 204 204
204 204 204
204 204 204
204 204 204
204 204 204
204 204 204
204 204 204
204 204 204
204 204 204
204 204 204
204 204 204
204 204 204
204 204 204
204 204 204
204 204 204
204 204 204
204 204 204
204 204 204
204 204 204
204 204 204
204 204 204
197 197 197
186 186 186
184 184 184
184 184 184
184 184 184
184 184 184
184 184 184
184 184 184
184 184 184
184 184 184
184 184 184
184 184 184
184 184 184
184 184 184
184 184 184
184 184 184
184 184 184
184 184 184
184 184 184
184 184 184
184 184 184
184 184 184
184 184 184
184 184 184
184 184 184
184 184 184
184 184 184
184 184 184
184 184 184
184 184 184
184 184 184
184 184 184
184 184 184
184 184 184
184 184 184
184 184 184
184 184 184
184 184 184
184 184 184
184 184 184
184 184 184
184 184 184
184 184 184
184 184 184
184 184 184
184 184 184
184 184 184
184 184 184
184 184 184
184 184 184
184 184 184
184 184 184
186 186 186
202 202 202
204 204 204
204 204 204
204 204 204
204 204 204
204 204 204
204 204 204
204 204 204
204 204 204
204 204 204
204 204 204
204 204 204
204 204 204
204 204 204
204 204 204
204 204 204
204 204 204
204 204 204
204 204 204
204 204 204
204 204 204
204 204 204
204 204 204
204 204 204
204 204 204
204 204 204
204 204 204
204 204 204
204 204 204
204 204 204
204 204 204
204 204 204
204 204 204
204 204 204
204 204 204
204 204 204
204 204 204
204 204 204
204 204 204
204 204 204
204 204 204
204 204 204
204 204 204
204 204 204
204 204 204
204 204 204
204 204 204
204 204 204
204 204 204
204 204 204
204 204 204
204 204 204
204 204 204
204 204 204
204 204 204
204 204 204
204 204 204
204 204 204
204 204 204
204 204 204
204 204 204
204 204 204
204 204 204
204 204 204
204 204 204
204 204 204
204 204 204
204 204 204
159 211 159
25 230 25
25 230 25
25 230 25
25 230 25
25 230 25
25 230 25
25 230 25
25 230 25
25 230 25
25 230 25
25 230 25
25 230 25
25 230 25
25 230 25
25 230 25
25 230 25
25 230 25
25 230 25
25 230 25
25 230 25
25 230 25
25 230 25
25 230 25
25 230 25
25 230 25
25 230 25
25 230 25
25 230 25
25 230 25
25 230 25
25 230 25
25 230 25
25 230 25
25 230 25
25 230 25
25 230 25
25 230 25
25 230 25
25 230 25
25 230 25
25 230 25
25 230 25
25 230 25
25 230 25
25 230 25
25 230 25
25 230 25
25 230 25
25 230 25
25 230 25
92 220 92
204 204 204
204 204 204
204 204 204
204 204 204
204 204 204
204 204 204
204 204 204
204 204 204
204 204 204
204 204 204
204 204 204
204 204 204
204 204 204
204 204 204
204 204 204
204 204 204
204 204 204
204 204 204
204 204 204
204 204 204
204 204 204
204 204 204
204 204 204
204 204 204
204 204 204
204 204 204
204 204 204
204 204 204
204 204 204
204 204 204
204 204 204
204 204 204
204 204 204
204 204 204
204 204 204
204 204 204
204 204 204
204 204 204
204 204 204
204 204 204
204 204 204
204 204 204
204 204 204
204 204 204
204 204 204
204 204 204
204 204 204
204 204 204
204 204 204
204 204 204
204 204 204
204 204 204
204 204 204
204 204 204
204 204 204
204 204 204
204 204 204
204 204 204
204 204 204
204 204 204
204 204 204
204 204 204
204 204 204
204 204 204
204 204 204
204 204 204
204 204 204
204 204 204
204 204 204
204 204 204
204 204 204
204 204 204
204 204 204
204 204 204
204 204 204
204 204 204
204 204 204
204 204 204
204 204 204
204 204 204
204 204 204
204 204 204
204 204 204
204 204 204
204 204 204
204 204 204
204 204 204
204 204 204
204 204 204
204 204 204
204 204 204
204 204 204
204 204 204
204 204 204
204 204 204
204 204 204
204 204 204
204 204 204
204 204 204
204 204 204
204 204 204
204 204 204
204 204 204
204 204 204
204 204 204
204 204 204
204 204 204
204 204 204
204 204 204
217 115 115
230 25 25
230 25 25
230 25 25
230 25 25
230 25 25
230 25 25
230 25 25
230 25 25
230 25 25
230 25 25
230 25 25
230 25 25
230 25 25
230 25 25
230 25 25
230 25 25
230 25 25
230 25 25
230 25 25
230 25 25
230 25 25
230 25 25
230 25 25
230 25 25
230 25 25
230 25 25
230 25 25
230 25 25
230 25 25
230 25 25
230 25 25
230 25 25
230 25 25
230 25 25
230 25 25
230 25 25
230 25 25
230 25 25
230 25 25
230 25 25
230 25 25
230 25 25
230 25 25
230 25 25
230 25 25
230 25 25
230 25 25
230 25 25
230 25 25
230 25 25
230 25 25
230 25 25
230 25 25
230 25 25
230 25 25
230 25 25
227 47 47
204 204 204
204 204 204
204 204 204
204 204 204
204 204 204
204 204 204
204 204 204
204 204 204
204 204 204
204 204 204
204 204 204
204 204 204
204 204 204
204 204 204
204 204 204
204 204 204
204 204 204
204 204 204
204 204 204
204 204 204
204 204 204
204 204 204
204 204 204
204 204 204
204 204 204
204 204 204
204 204 204
204 204 204
204 204 204
204 204 204
204 204 204
204 204 204
204 204 204
204 204 204
204 204 204
204 204 204
204 204 204
204 204 204
204 204 204
204 204 204
204 204 204
204 204 204
204 204 204
204 204 204
204 204 204
204 204 204
204 204 204
204 204 204
204 204 204
204 204 204
204 204 204
204 204 204
204 204 204
204 204 204
204 204 204
204 204 204
204 204 204
204 204 204
204 204 204
204 204 204
204 204 204
204 204 204
186 186 186
186 186 186
184 184 184
184 184 184
184 184 184
184 184 184
184 184 184
184 184 184
184 184 184
184 184 184
184 184 184
184 184 184
184 184 184
184 184 184
184 184 184
184 184 184
184 184 184
184 184 184
184 184 184
184 184 184
184 184 184
184 184 184
184 184 184
184 184 184
184 184 184
184 184 184
184 184 184
184 184 184
184 184 184
184 184 184
184 184 184
184 184 184
184 184 184
184 184 184
184 184 184
184 184 184
184 184 184
184 184 184
184 184 184
184 184 184
184 184 184
184 184 184
184 184 184
184 184 184
184 184 184
184 184 184
184 184 184
184 184 184
184 184 184
191 191 191
204 204 204
204 204 204
204 204 204
204 204 204
204 204 204
204 204 204
204 204 204
204 204 204
204 204 204
204 204 204
204 204 204
204 204 204
204 204 204
204 204 204
204 204 204
204 204 204
204 204 204
204 204 204
204 204 204
204 204 204
204 204 204
204 204 204
204 204 204
204 204 204
204 204 204
204 204 204
204 204 204
204 204 204
204 204 204
204 204 204
204 204 204
204 204 204
204 204 204
204 204 204
204 204 204
204 204 204
204 204 204
204 204 204
204 204 204
204 204 204
204 204 204
204 204 204
204 204 204
204 204 204
204 204 204
204 204 204
204 204 204
204 204 204
204 204 204
204 204 204
204 204 204
204 204 204
204 204 204
204 204 204
204 204 204
204 204 204
204 204 204
204 204 204
204 204 204
204 204 204
204 204 204
204 204 204
204 204 204
204 204 204
204 204 204
204 204 204
204 204 204
204 204 204
204 204 204
204 204 204
47 227 47
25 230 25
25 230 25
25 230 25
25 230 25
25 230 25
25 230 25
25 230 25
25 230 25
25 230 25
25 230 25
25 230 25
25 230 25
25 230 25
25 230 25
25 230 25
25 230 25
25 230 25
25 230 25
25 230 25
25 230 25
25 230 25
25 230 25
25 230 25
25 230 25
25 230 25
25 230 25
25 230 25
25 230 25
25 230 25
25 230 25
25 230 25
25 230 25
25 230 25
25 230 25
25 230 25
25 230 25
25 230 25
25 230 25
25 230 25
25 230 25
25 230 25
25 230 25
25 230 25
25 230 25
25 230 25
25 230 25
25 230 25
25 230 25
25 230 25
159 211 159
204 204 204
204 204 204
204 204 204
204 204 204
204 204 204
204 204 204
204 204 204
204 204 204
204 204 204
204 204 204
204 204 204
204 204 204
204 204 204
204 204 204
204 204 204
204 204 204
204 204 204
204 204 204
204 204 204
204 204 204
204 204 204
204 204 204
204 204 204
204 204 204
204 204 204
204 204 204
204 204 204
204 204 204
204 204 204
204 204 204
204 204 204
204 204 204
204 204 204
204 204 204
204 204 204
204 204 204
204 204 204
204 204 204
204 204 204
204 204 204
204 204 204
204 204 204
204 204 204
204 204 204
204 204 204
204 204 204
204 204 204
204 204 204
204 204 204
204 204 204
204 204 204
204 204 204
204 204 204
204 204 204
204 204 204
204 204 204
204 204 204
204 204 204
204 204 204
204 204 204
204 204 204
204 204 204
204 204 204
204 204 204
204 204 204
204 204 204
204 204 204
204 204 204
204 204 204
204 204 204
204 204 204
204 204 204
204 204 204
204 204 204
204 204 204
204 204 204
204 204 204
204 204 204
204 204 204
204 204 204
204 204 204
204 204 204
204 204 204
204 204 204
204 204 204
204 204 204
204 204 204
204 204 204
204 204 204
204 204 204
204 204 204
204 204 204
204 204 204
204 204 204
204 204 204
204 204 204
204 204 204
204 204 204
204 204 204
204 204 204
204 204 204
204 204 204
204 204 204
204 204 204
204 204 204
204 204 204
204 204 204
204 204 204
204 204 204
204 204 204
217 115 115
230 25 25
230 25 25
230 25 25
230 25 25
230 25 25
230 25 25
230 25 25
230 25 25
230 25 25
230 25 25
230 25 25
230 25 25
230 25 25
230 25 25
230 25 25
230 25 25
230 25 25
230 25 25
230 25 25
230 25 25
230 25 25
230 25 25
230 25 25
230 25 25
230 25 25
230 25 25
230 25 25
230 25 25
230 25 25
230 25 25
230 25 25
230 25 25
230 25 25
230 25 25
230 25 25
230 25 25
230 25 25
230 25 25
230 25 25
230 25 25
230 25 25
230 25 25
230 25 25
230 25 25
230 25 25
230 25 25
230 25 25
230 25 25
230 25 25
230 25 25
230 25 25
230 25 25
230 25 25
230 25 25
230 25 25
211 159 159
204 204 204
204 204 204
204 204 204
204 204 204
204 204 204
204 204 204
204 204 204
204 204 204
204 204 204
204 204 204
204 204 204
204 204 204
204 204 204
204 204 204
204 204 204
204 204 204
204 204 204
204 204 204
204 204 204
204 204 204
204 204 204
204 204 204
204 204 204
204 204 204
204 204 204
204 204 204
204 204 204
204 204 204
204 204 204
204 204 204
204 204 204
204 204 204
204 204 204
204 204 204
204 204 204
204 204 204
204 204 204
204 204 204
204 204 204
204 204 204
204 204 204
204 204 204
204 204 204
204 204 204
204 204 204
204 204 204
204 204 204
204 204 204
204 204 204
204 204 204
204 204 204
204 204 204
204 204 204
204 204 204
204 204 204
204 204 204
204 204 204
204 204 204
204 204 204
204 204 204
204 204 204
204 204 204
204 204 204
204 204 204
197 197 197
184 184 184
184 184 184
184 184 184
184 184 184
184 184 184
184 184 184
184 184 184
184 184 184
184 184 184
184 184 184
184 184 184
184 184 184
184 184 184
184 184 184
184 184 184
184 184 184
184 184 184
184 184 184
184 184 184
184 184 184
184 184 184
184 184 184
184 184 184
184 184 184
184 184 184
184 184 184
184 184 184
184 184 184
184 184 184
184 184 184
184 184 184
184 184 184
184 184 184
184 184 184
184 184 184
184 184 184
184 184 184
184 184 184
184 184 184
184 184 184
184 184 184
184 184 184
184 184 184
184 184 184
199 199 199
204 204 204
204 204 204
204 204 204
204 204 204
204 204 204
204 204 204
204 204 204
204 204 204
204 204 204
204 204 204
204 204 204
204 204 204
204 204 204
204 204 204
204 204 204
204 204 204
204 204 204
204 204 204
204 204 204
204 204 204
204 204 204
204 204 204
204 204 204
204 204 204
204 204 204
204 204 204
204 204 204
204 204 204
204 204 204
204 204 204
204 204 204
204 204 204
204 204 204
204 204 204
204 204 204
204 204 204
204 204 204
204 204 204
204 204 204
204 204 204
204 204 204
204 204 204
204 204 204
204 204 204
204 204 204
204 204 204
204 204 204
204 204 204
204 204 204
204 204 204
204 204 204
204 204 204
204 204 204
204 204 204
204 204 204
204 204 204
204 204 204
204 204 204
204 204 204
204 204 204
204 204 204
204 204 204
204 204 204
204 204 204
204 204 204
204 204 204
204 204 204
204 204 204
204 204 204
204 204 204
204 204 204
204 204 204
159 211 159
25 230 25
25 230 25
25 230 25
25 230 25
25 230 25
25 230 25
25 230 25
25 230 25
25 230 25
25 230 25
25 230 25
25 230 25
25 230 25
25 230 25
25 230 25
25 230 25
25 230 25
25 230 25
25 230 25
25 230 25
25 230 25
25 230 25
25 230 25
25 230 25
25 230 25
25 230 25
25 230 25
25 230 25
25 230 25
25 230 25
25 230 25
25 230 25
25 230 25
25 230 25
25 230 25
25 230 25
25 230 25
25 230 25
25 230 25
25 230 25
25 230 25
25 230 25
25 230 25
25 230 25
25 230 25
25 230 25
25 230 25
25 230 25
25 230 25
204 204 204
204 204 204
204 204 204
204 204 204
204 204 204
204 204 204
204 204 204
204 204 204
204 204 204
204 204 204
204 204 204
204 204 204
204 204 204
204 204 204
204 204 204
204 204 204
204 204 204
204 204 204
204 204 204
204 204 204
204 204 204
204 204 204
204 204 204
204 204 204
204 204 204
204 204 204
204 204 204
204 204 204
204 204 204
204 204 204
204 204 204
204 204 204
204 204 204
204 204 204
204 204 204
204 204 204
204 204 204
204 204 204
204 204 204
204 204 204
204 204 204
204 204 204
204 204 204
204 204 204
204 204 204
204 204 204
204 204 204
204 204 204
204 204 204
204 204 204
204 204 204
204 204 204
204 204 204
204 204 204
204 204 204
204 204 204
204 204 204
204 204 204
204 204 204
204 204 204
204 204 204
204 204 204
204 204 204
204 204 204
204 204 204
204 204 204
204 204 204
204 204 204
204 204 204
204 204 204
204 204 204
204 204 204
204 204 204
204 204 204
204 204 204
204 204 204
204 204 204
204 204 204
204 204 204
204 204 204
204 204 204
204 204 204
204 204 204
204 204 204
204 204 204
204 204 204
204 204 204
204 204 204
204 204 204
204 204 204
204 204 204
204 204 204
204 204 204
204 204 204
204 204 204
204 204 204
204 204 204
204 204 204
204 204 204
204 204 204
204 204 204
204 204 204
204 204 204
204 204 204
204 204 204
204 204 204
204 204 204
204 204 204
204 204 204
204 204 204
204 204 204
204 204 204
214 137 137
230 25 25
230 25 25
230 25 25
230 25 25
230 25 25
230 25 25
230 25 25
230 25 25
230 25 25
230 25 25
230 25 25
230 25 25
230 25 25
230 25 25
230 25 25
230 25 25
230 25 25
230 25 25
230 25 25
230 25 25
230 25 25
230 25 25
230 25 25
230 25 25
230 25 25
230 25 25
230 25 25
230 25 25
230 25 25
230 25 25
230 25 25
230 25 25
230 25 25
230 25 25
230 25 25
230 25 25
230 25 25
230 25 25
230 25 25
230 25 25
230 25 25
230 25 25
230 25 25
230 25 25
230 25 25
230 25 25
230 25 25
230 25 25
230 25 25
230 25 25
230 25 25
230 25 25
223 70 70
207 182 182
204 204 204
204 204 204
204 204 204
204 204 204
204 204 204
204 204 204
204 204 204
204 204 204
204 204 204
204 204 204
204 204 204
204 204 204
204 204 204
204 204 204
204 204 204
204 204 204
204 204 204
204 204 204
204 204 204
204 204 204
204 204 204
204 204 204
204 204 204
204 204 204
204 204 204
204 204 204
204 204 204
204 204 204
204 204 204
204 204 204
204 204 204
204 204 204
204 204 204
204 204 204
204 204 204
204 204 204
204 204 204
204 204 204
204 204 204
204 204 204
204 204 204
204 204 204
204 204 204
204 204 204
204 204 204
204 204 204
204 204 204
204 204 204
204 204 204
204 204 204
204 204 204
204 204 204
204 204 204
204 204 204
204 204 204
204 204 204
204 204 204
204 204 204
204 204 204
204 204 204
204 204 204
204 204 204
204 204 204
204 204 204
204 204 204
204 204 204
204 204 204
197 197 197
189 189 189
184 184 184
184 184 184
184 184 184
184 184 184
184 184 184
184 184 184
184 184 184
184 184 184
184 184 184
184 184 184
184 184 184
184 184 184
184 184 184
184 184 184
184 184 184
184 184 184
184 184 184
184 184 184
184 184 184
184 184 184
184 184 184
184 184 184
184 184 184
184 184 184
184 184 184
184 184 184
184 184 184
184 184 184
184 184 184
184 184 184
184 184 184
184 184 184
184 184 184
184 184 184
184 184 184
184 184 184
184 184 184
184 184 184
184 184 184
197 197 197
204 204 204
204 204 204
204 204 204
204 204 204
204 204 204
204 204 204
204 204 204
204 204 204
204 204 204
204 204 204
204 204 204
204 204 204
204 204 204
204 204 204
204 204 204
204 204 204
204 204 204
204 204 204
204 204 204
204 204 204
204 204 204
204 204 204
204 204 204
204 204 204
204 204 204
204 204 204
204 204 204
204 204 204
204 204 204
204 204 204
204 204 204
204 204 204
204 204 204
204 204 204
204 204 204
204 204 204
204 204 204
204 204 204
204 204 204
204 204 204
204 204 204
204 204 204
204 204 204
204 204 204
204 204 204
204 204 204
204 204 204
204 204 204
204 204 204
204 204 204
204 204 204
204 204 204
204 204 204
204 204 204
204 204 204
204 204 204
204 204 204
204 204 204
204 204 204
204 204 204
204 204 204
204 204 204
204 204 204
204 204 204
204 204 204
204 204 204
204 204 204
204 204 204
204 204 204
204 204 204
204 204 204
204 204 204
204 204 204
204 204 204
204 204 204
115 217 115
25 230 25
25 230 25
25 230 25
25 230 25
25 230 25
25 230 25
25 230 25
25 230 25
25 230 25
25 230 25
25 230 25
25 230 25
25 230 25
25 230 25
25 230 25
25 230 25
25 230 25
25 230 25
25 230 25
25 230 25
25 230 25
25 230 25
25 230 25
25 230 25
25 230 25
25 230 25
25 230 25
25 230 25
25 230 25
25 230 25
25 230 25
25 230 25
25 230 25
25 230 25
25 230 25
25 230 25
25 230 25
25 230 25
25 230 25
25 230 25
25 230 25
25 230 25
25 230 25
25 230 25
25 230 25
25 230 25
25 230 25
204 204 204
204 204 204
204 204 204
204 204 204
204 204 204
204 204 204
204 204 204
204 204 204
204 204 204
204 204 204
204 204 204
204 204 204
204 204 204
204 204 204
204 204 204
204 204 204
204 204 204
204 204 204
204 204 204
204 204 204
204 204 204
204 204 204
204 204 204
204 204 204
204 204 204
204 204 204
204 204 204
204 204 204
204 204 204
204 204 204
204 204 204
204 204 204
204 204 204
204 204 204
204 204 204
204 204 204
204 204 204
204 204 204
204 204 204
204 204 204
204 204 204
204 204 204
204 204 204
204 204 204
204 204 204
204 204 204
204 204 204
204 204 204
204 204 204
204 204 204
204 204 204
204 204 204
204 204 204
204 204 204
204 204 204
204 204 204
204 204 204
204 204 204
204 204 204
204 204 204
204 204 204
204 204 204
204 204 204
204 204 204
204 204 204
204 204 204
204 204 204
204 204 204
204 204 204
204 204 204
204 204 204
204 204 204
204 204 204
204 204 204
204 204 204
204 204 204
204 204 204
204 204 204
204 204 204
204 204 204
204 204 204
204 204 204
204 204 204
204 204 204
204 204 204
204 204 204
204 204 204
204 204 204
204 204 204
204 204 204
204 204 204
204 204 204
204 204 204
204 204 204
204 204 204
204 204 204
204 204 204
204 204 204
204 204 204
204 204 204
204 204 204
204 204 204
204 204 204
204 204 204
204 204 204
204 204 204
204 204 204
204 204 204
204 204 204
204 204 204
204 204 204
204 204 204
204 204 204
204 204 204
220 92 92
227 47 47
230 25 25
230 25 25
230 25 25
230 25 25
230 25 25
230 25 25
230 25 25
230 25 25
230 25 25
230 25 25
230 25 25
230 25 25
230 25 25
230 25 25
230 25 25
230 25 25
230 25 25
230 25 25
230 25 25
230 25 25
230 25 25
230 25 25
230 25 25
230 25 25
230 25 25
230 25 25
230 25 25
230 25 25
230 25 25
230 25 25
230 25 25
230 25 25
230 25 25
230 25 25
230 25 25
230 25 25
230 25 25
230 25 25
230 25 25
230 25 25
230 25 25
230 25 25
230 25 25
230 25 25
230 25 25
230 25 25
230 25 25
230 25 25
230 25 25
220 92 92
204 204 204
204 204 204
204 204 204
204 204 204
204 204 204
204 204 204
204 204 204
204 204 204
204 204 204
204 204 204
204 204 204
204 204 204
204 204 204
204 204 204
204 204 204
204 204 204
204 204 204
204 204 204
204 204 204
204 204 204
204 204 204
204 204 204
204 204 204
204 204 204
204 204 204
204 204 204
204 204 204
204 204 204
204 204 204
204 204 204
204 204 204
204 204 204
204 204 204
204 204 204
204 204 204
204 204 204
204 204 204
204 204 204
204 204 204
204 204 204
204 204 204
204 204 204
204 204 204
204 204 204
204 204 204
204 204 204
204 204 204
204 204 204
204 204 204
204 204 204
204 204 204
204 204 204
204 204 204
204 204 204
204 204 204
204 204 204
204 204 204
204 204 204
204 204 204
204 204 204
204 204 204
204 204 204
204 204 204
204 204 204
204 204 204
204 204 204
204 204 204
204 204 204
204 204 204
204 204 204
204 204 204
202 202 202
186 186 186
184 184 184
184 184 184
184 184 184
184 184 184
184 184 184
184 184 184
184 184 184
184 184 184
184 184 184
184 184 184
184 184 184
184 184 184
184 184 184
184 184 184
184 184 184
184 184 184
184 184 184
184 184 184
184 184 184
184 184 184
184 184 184
184 184 184
184 184 184
184 184 184
184 184 184
184 184 184
184 184 184
184 184 184
184 184 184
184 184 184
184 184 184
184 184 184
184 184 184
186 186 186
191 191 191
197 197 197
204 204 204
204 204 204
204 204 204
204 204 204
204 204 204
204 204 204
204 204 204
204 204 204
204 204 204
204 204 204
204 204 204
204 204 204
204 204 204
204 204 204
204 204 204
204 204 204
204 204 204
204 204 204
204 204 204
204 204 204
204 204 204
204 204 204
204 204 204
204 204 204
204 204 204
204 204 204
204 204 204
204 204 204
204 204 204
204 204 204
204 204 204
204 204 204
204 204 204
204 204 204
204 204 204
204 204 204
204 204 204
204 204 204
204 204 204
204 204 204
204 204 204
204 204 204
204 204 204
204 204 204
204 204 204
204 204 204
204 204 204
204 204 204
204 204 204
204 204 204
204 204 204
204 204 204
204 204 204
204 204 204
204 204 204
204 204 204
204 204 204
204 204 204
204 204 204
204 204 204
204 204 204
204 204 204
204 204 204
204 204 204
204 204 204
204 204 204
204 204 204
204 204 204
204 204 204
204 204 204
204 204 204
204 204 204
204 204 204
204 204 204
204 204 204
204 204 204
204 204 204
204 204 204
47 227 47
25 230 25
25 230 25
25 230 25
25 230 25
25 230 25
25 230 25
25 230 25
25 230 25
25 230 25
25 230 25
25 230 25
25 230 25
25 230 25
25 230 25
25 230 25
25 230 25
25 230 25
25 230 25
25 230 25
25 230 25
25 230 25
25 230 25
25 230 25
25 230 25
25 230 25
25 230 25
25 230 25
25 230 25
25 230 25
25 230 25
25 230 25
25 230 25
25 230 25
25 230 25
25 230 25
25 230 25
25 230 25
25 230 25
25 230 25
25 230 25
25 230 25
25 230 25
25 230 25
25 230 25
25 230 25
47 227 47
204 204 204
204 204 204
204 204 204
204 204 204
204 204 204
204 204 204
204 204 204
204 204 204
204 204 204
204 204 204
204 204 204
204 204 204
204 204 204
204 204 204
204 204 204
204 204 204
204 204 204
204 204 204
204 204 204
204 204 204
204 204 204
204 204 204
204 204 204
204 204 204
204 204 204
204 204 204
204 204 204
204 204 204
204 204 204
204 204 204
204 204 204
204 204 204
204 204 204
204 204 204
204 204 204
204 204 204
204 204 204
204 204 204
204 204 204
204 204 204
204 204 204
204 204 204
204 204 204
204 204 204
204 204 204
204 204 204
204 204 204
204 204 204
204 204 204
204 204 204
204 204 204
204 204 204
204 204 204
204 204 204
204 204 204
204 204 204
204 204 204
204 204 204
204 204 204
204 204 204
204 204 204
204 204 204
204 204 204
204 204 204
204 204 204
204 204 204
204 204 204
204 204 204
204 204 204
204 204 204
204 204 204
204 204 204
204 204 204
204 204 204
204 204 204
204 204 204
204 204 204
204 204 204
204 204 204
204 204 204
204 204 204
204 204 204
204 204 204
204 204 204
204 204 204
204 204 204
204 204 204
204 204 204
204 204 204
204 204 204
204 204 204
204 204 204
204 204 204
204 204 204
204 204 204
204 204 204
204 204 204
204 204 204
204 204 204
204 204 204
204 204 204
204 204 204
204 204 204
204 204 204
204 204 204
204 204 204
204 204 204
204 204 204
204 204 204
204 204 204
204 204 204
204 204 204
204 204 204
204 204 204
204 204 204
207 182 182
227 47 47
230 25 25
230 25 25
230 25 25
230 25 25
230 25 25
230 25 25
230 25 25
230 25 25
230 25 25
230 25 25
230 25 25
230 25 25
230 25 25
230 25 25
230 25 25
230 25 25
230 25 25
230 25 25
230 25 25
230 25 25
230 25 25
230 25 25
230 25 25
230 25 25
230 25 25
230 25 25
230 25 25
230 25 25
230 25 25
230 25 25
230 25 25
230 25 25
230 25 25
230 25 25
230 25 25
230 25 25
230 25 25
230 25 25
230 25 25
230 25 25
230 25 25
230 25 25
230 25 25
230 25 25
230 25 25
230 25 25
223 70 70
211 159 159
204 204 204
204 204 204
204 204 204
204 204 204
204 204 204
204 204 204
204 204 204
204 204 204
204 204 204
204 204 204
204 204 204
204 204 204
204 204 204
204 204 204
204 204 204
204 204 204
204 204 204
204 204 204
204 204 204
204 204 204
204 204 204
204 204 204
204 204 204
204 204 204
204 204 204
204 204 204
204 204 204
204 204 204
204 204 204
204 204 204
204 204 204
204 204 204
204 204 204
204 204 204
204 204 204
204 204 204
204 204 204
204 204 204
204 204 204
204 204 204
204 204 204
204 204 204
204 204 204
204 204 204
204 204 204
204 204 204
204 204 204
204 204 204
204 204 204
204 204 204
204 204 204
204 204 204
204 204 204
204 204 204
204 204 204
204 204 204
204 204 204
204 204 204
204 204 204
204 204 204
204 204 204
204 204 204
204 204 204
204 204 204
204 204 204
204 204 204
204 204 204
204 204 204
204 204 204
204 204 204
204 204 204
204 204 204
204 204 204
204 204 204
204 204 204
199 199 199
197 197 197
189 189 189
184 184 184
184 184 184
184 184 184
184 184 184
184 184 184
184 184 184
184 184 184
184 184 184
184 184 184
184 184 184
184 184 184
184 184 184
184 184 184
184 184 184
184 184 184
184 184 184
184 184 184
184 184 184
184 184 184
184 184 184
184 184 184
184 184 184
184 184 184
184 184 184
184 184 184
184 184 184
184 184 184
189 189 189
199 199 199
204 204 204
204 204 204
204 204 204
204 204 204
204 204 204
204 204 204
204 204 204
204 204 204
204 204 204
204 204 204
204 204 204
204 204 204
204 204 204
204 204 204
204 204 204
204 204 204
204 204 204
204 204 204
204 204 204
204 204 204
204 204 204
204 204 204
204 204 204
204 204 204
204 204 204
204 204 204
204 204 204
204 204 204
204 204 204
204 204 204
204 204 204
204 204 204
204 204 204
204 204 204
204 204 204
204 204 204
204 204 204
204 204 204
204 204 204
204 204 204
204 204 204
204 204 204
204 204 204
204 204 204
204 204 204
204 204 204
204 204 204
204 204 204
204 204 204
204 204 204
204 204 204
204 204 204
204 204 204
204 204 204
204 204 204
204 204 204
204 204 204
204 204 204
204 204 204
204 204 204
204 204 204
204 204 204
204 204 204
204 204 204
204 204 204
204 204 204
204 204 204
204 204 204
204 204 204
204 204 204
204 204 204
204 204 204
204 204 204
204 204 204
204 204 204
204 204 204
204 204 204
204 204 204
204 204 204
204 204 204
204 204 204
182 207 182
25 230 25
25 230 25
25 230 25
25 230 25
25 230 25
25 230 25
25 230 25
25 230 25
25 230 25
25 230 25
25 230 25
25 230 25
25 230 25
25 230 25
25 230 25
25 230 25
25 230 25
25 230 25
25 230 25
25 230 25
25 230 25
25 230 25
25 230 25
25 230 25
25 230 25
25 230 25
25 230 25
25 230 25
25 230 25
25 230 25
25 230 25
25 230 25
25 230 25
25 230 25
25 230 25
25 230 25
25 230 25
25 230 25
25 230 25
25 230 25
25 230 25
25 230 25
25 230 25
25 230 25
25 230 25
137 214 137
204 204 204
204 204 204
204 204 204
204 204 204
204 204 204
204 204 204
204 204 204
204 204 204
204 204 204
204 204 204
204 204 204
204 204 204
204 204 204
204 204 204
204 204 204
204 204 204
204 204 204
204 204 204
204 204 204
204 204 204
204 204 204
204 204 204
204 204 204
204 204 204
204 204 204
204 204 204
204 204 204
204 204 204
204 204 204
204 204 204
204 204 204
204 204 204
204 204 204
204 204 204
204 204 204
204 204 204
204 204 204
204 204 204
204 204 204
204 204 204
204 204 204
204 204 204
204 204 204
204 204 204
204 204 204
204 204 204
204 204 204
204 204 204
204 204 204
204 204 204
204 204 204
204 204 204
204 204 204
204 204 204
204 204 204
204 204 204
204 204 204
204 204 204
204 204 204
204 204 204
204 204 204
204 204 204
204 204 204
204 204 204
204 204 204
204 204 204
204 204 204
204 204 204
204 204 204
204 204 204
204 204 204
204 204 204
204 204 204
204 204 204
204 204 204
204 204 204
204 204 204
204 204 204
204 204 204
204 204 204
204 204 204
204 204 204
204 204 204
204 204 204
204 204 204
204 204 204
204 204 204
204 204 204
204 204 204
204 204 204
204 204 204
204 204 204
204 204 204
204 204 204
204 204 204
204 204 204
204 204 204
204 204 204
204 204 204
204 204 204
204 204 204
204 204 204
204 204 204
204 204 204
204 204 204
204 204 204
204 204 204
204 204 204
204 204 204
204 204 204
204 204 204
204 204 204
204 204 204
204 204 204
204 204 204
204 204 204
204 204 204
223 70 70
230 25 25
230 25 25
230 25 25
230 25 25
230 25 25
230 25 25
230 25 25
230 25 25
230 25 25
230 25 25
230 25 25
230 25 25
230 25 25
230 25 25
230 25 25
230 25 25
230 25 25
230 25 25
230 25 25
230 25 25
230 25 25
230 25 25
230 25 25
230 25 25
230 25 25
230 25 25
230 25 25
230 25 25
230 25 25
230 25 25
230 25 25
230 25 25
230 25 25
230 25 25
230 25 25
230 25 25
230 25 25
230 25 25
230 25 25
230 25 25
230 25 25
230 25 25
230 25 25
230 25 25
223 70 70
204 204 204
204 204 204
204 204 204
204 204 204
204 204 204
204 204 204
204 204 204
204 204 204
204 204 204
204 204 204
204 204 204
204 204 204
204 204 204
204 204 204
204 204 204
204 204 204
204 204 204
204 204 204
204 204 204
204 204 204
204 204 204
204 204 204
204 204 204
204 204 204
204 204 204
204 204 204
204 204 204
204 204 204
204 204 204
204 204 204
204 204 204
204 204 204
204 204 204
204 204 204
204 204 204
204 204 204
204 204 204
204 204 204
204 204 204
204 204 204
204 204 204
204 204 204
204 204 204
204 204 204
204 204 204
204 204 204
204 204 204
204 204 204
204 204 204
204 204 204
204 204 204
204 204 204
204 204 204
204 204 204
204 204 204
204 204 204
204 204 204
204 204 204
204 204 204
204 204 204
204 204 204
204 204 204
204 204 204
204 204 204
204 204 204
204 204 204
204 204 204
204 204 204
204 204 204
204 204 204
204 204 204
204 204 204
204 204 204
204 204 204
204 204 204
204 204 204
204 204 204
204 204 204
204 204 204
204 204 204
202 202 202
197 197 197
194 194 194
189 189 189
184 184 184
184 184 184
184 184 184
184 184 184
184 184 184
184 184 184
184 184 184
184 184 184
184 184 184
184 184 184
184 184 184
184 184 184
184 184 184
184 184 184
184 184 184
184 184 184
184 184 184
186 186 186
186 186 186
189 189 189
194 194 194
199 199 199
204 204 204
204 204 204
204 204 204
204 204 204
204 204 204
204 204 204
204 204 204
204 204 204
204 204 204
204 204 204
204 204 204
204 204 204
204 204 204
204 204 204
204 204 204
204 204 204
204 204 204
204 204 204
204 204 204
204 204 204
204 204 204
204 204 204
204 204 204
204 204 204
204 204 204
204 204 204
204 204 204
204 204 204
204 204 204
204 204 204
204 204 204
204 204 204
204 204 204
204 204 204
204 204 204
204 204 204
204 204 204
204 204 204
204 204 204
204 204 204
204 204 204
204 204 204
204 204 204
204 204 204
204 204 204
204 204 204
204 204 204
204 204 204
204 204 204
204 204 204
204 204 204
204 204 204
204 204 204
204 204 204
204 204 204
204 204 204
204 204 204
204 204 204
204 204 204
204 204 204
204 204 204
204 204 204
204 204 204
204 204 204
204 204 204
204 204 204
204 204 204
204 204 204
204 204 204
204 204 204
204 204 204
204 204 204
204 204 204
204 204 204
204 204 204
204 204 204
204 204 204
204 204 204
204 204 204
204 204 204
204 204 204
204 204 204
204 204 204
204 204 204
204 204 204
182 207 182
70 223 70
25 230 25
25 230 25
25 230 25
25 230 25
25 230 25
25 230 25
25 230 25
25 230 25
25 230 25
25 230 25
25 230 25
25 230 25
25 230 25
25 230 25
25 230 25
25 230 25
25 230 25
25 230 25
25 230 25
25 230 25
25 230 25
25 230 25
25 230 25
25 230 25
25 230 25
25 230 25
25 230 25
25 230 25
25 230 25
25 230 25
25 230 25
25 230 25
25 230 25
25 230 25
25 230 25
25 230 25
25 230 25
25 230 25
25 230 25
25 230 25
25 230 25
25 230 25
92 220 92
204 204 204
204 204 204
204 204 204
204 204 204
204 204 204
204 204 204
204 204 204
204 204 204
204 204 204
204 204 204
204 204 204
204 204 204
204 204 204
204 204 204
204 204 204
204 204 204
204 204 204
204 204 204
204 204 204
204 204 204
204 204 204
204 204 204
204 204 204
204 204 204
204 204 204
204 204 204
204 204 204
204 204 204
204 204 204
204 204 204
204 204 204
204 204 204
204 204 204
204 204 204
204 204 204
204 204 204
204 204 204
204 204 204
204 204 204
204 204 204
204 204 204
204 204 204
204 204 204
204 204 204
204 204 204
204 204 204
204 204 204
204 204 204
204 204 204
204 204 204
204 204 204
204 204 204
204 204 204
204 204 204
204 204 204
204 204 204
204 204 204
204 204 204
204 204 204
204 204 204
204 204 204
204 204 204
204 204 204
204 204 204
204 204 204
204 204 204
204 204 204
204 204 204
204 204 204
204 204 204
204 204 204
204 204 204
204 204 204
204 204 204
204 204 204
204 204 204
204 204 204
204 204 204
204 204 204
204 204 204
204 204 204
204 204 204
204 204 204
204 204 204
204 204 204
204 204 204
204 204 204
204 204 204
204 204 204
204 204 204
204 204 204
204 204 204
204 204 204
204 204 204
204 204 204
204 204 204
204 204 204
204 204 204
204 204 204
204 204 204
204 204 204
204 204 204
204 204 204
204 204 204
204 204 204
204 204 204
204 204 204
204 204 204
204 204 204
204 204 204
204 204 204
204 204 204
204 204 204
204 204 204
204 204 204
204 204 204
204 204 204
204 204 204
204 204 204
211 159 159
227 47 47
230 25 25
230 25 25
230 25 25
230 25 25
230 25 25
230 25 25
230 25 25
230 25 25
230 25 25
230 25 25
230 25 25
230 25 25
230 25 25
230 25 25
230 25 25
230 25 25
230 25 25
230 25 25
230 25 25
230 25 25
230 25 25
230 25 25
230 25 25
230 25 25
230 25 25
230 25 25
230 25 25
230 25 25
230 25 25
230 25 25
230 25 25
230 25 25
230 25 25
230 25 25
230 25 25
230 25 25
230 25 25
230 25 25
230 25 25
230 25 25
217 115 115
211 159 159
204 204 204
204 204 204
204 204 204
204 204 204
204 204 204
204 204 204
204 204 204
204 204 204
204 204 204
204 204 204
204 204 204
204 204 204
204 204 204
204 204 204
204 204 204
204 204 204
204 204 204
204 204 204
204 204 204
204 204 204
204 204 204
204 204 204
204 204 204
204 204 204
204 204 204
204 204 204
204 204 204
204 204 204
204 204 204
204 204 204
204 204 204
204 204 204
204 204 204
204 204 204
204 204 204
204 204 204
204 204 204
204 204 204
204 204 204
204 204 204
204 204 204
204 204 204
204 204 204
204 204 204
204 204 204
204 204 204
204 204 204
204 204 204
204 204 204
204 204 204
204 204 204
204 204 204
204 204 204
204 204 204
204 204 204
204 204 204
204 204 204
204 204 204
204 204 204
204 204 204
204 204 204
204 204 204
204 204 204
204 204 204
204 204 204
204 204 204
204 204 204
204 204 204
204 204 204
204 204 204
204 204 204
204 204 204
204 204 204
204 204 204
204 204 204
204 204 204
204 204 204
204 204 204
204 204 204
204 204 204
204 204 204
204 204 204
204 204 204
204 204 204
204 204 204
204 204 204
202 202 202
202 202 202
194 194 194
191 191 191
199 199 199
194 194 194
194 194 194
186 186 186
189 189 189
186 186 186
194 194 194
202 202 202
197 197 197
194 194 194
202 202 202
204 204 204
204 204 204
204 204 204
204 204 204
204 204 204
204 204 204
204 204 204
204 204 204
204 204 204
204 204 204
204 204 204
204 204 204
204 204 204
204 204 204
204 204 204
204 204 204
204 204 204
204 204 204
204 204 204
204 204 204
204 204 204
204 204 204
204 204 204
204 204 204
204 204 204
204 204 204
204 204 204
204 204 204
204 204 204
204 204 204
204 204 204
204 204 204
204 204 204
204 204 204
204 204 204
204 204 204
204 204 204
204 204 204
204 204 204
204 204 204
204 204 204
204 204 204
204 204 204
204 204 204
204 204 204
204 204 204
204 204 204
204 204 204
204 204 204
204 204 204
204 204 204
204 204 204
204 204 204
204 204 204
204 204 204
204 204 204
204 204 204
204 204 204
204 204 204
204 204 204
204 204 204
204 204 204
204 204 204
204 204 204
204 204 204
204 204 204
204 204 204
204 204 204
204 204 204
204 204 204
204 204 204
204 204 204
204 204 204
204 204 204
204 204 204
204 204 204
204 204 204
204 204 204
204 204 204
204 204 204
204 204 204
204 204 204
204 204 204
204 204 204
204 204 204
204 204 204
204 204 204
204 204 204
204 204 204
204 204 204
204 204 204
204 204 204
204 204 204
70 223 70
25 230 25
25 230 25
25 230 25
25 230 25
25 230 25
25 230 25
25 230 25
25 230 25
25 230 25
25 230 25
25 230 25
25 230 25
25 230 25
25 230 25
25 230 25
25 230 25
25 230 25
25 230 25
25 230 25
25 230 25
25 230 25
25 230 25
25 230 25
25 230 25
25 230 25
25 230 25
25 230 25
25 230 25
25 230 25
25 230 25
25 230 25
25 230 25
25 230 25
25 230 25
25 230 25
25 230 25
25 230 25
25 230 25
25 230 25
25 230 25
70 223 70
204 204 204
204 204 204
204 204 204
204 204 204
204 204 204
204 204 204
204 204 204
204 204 204
204 204 204
204 204 204
204 204 204
204 204 204
204 204 204
204 204 204
204 204 204
204 204 204
204 204 204
204 204 204
204 204 204
204 204 204
204 204 204
204 204 204
204 204 204
204 204 204
204 204 204
204 204 204
204 204 204
204 204 204
204 204 204
204 204 204
204 204 204
204 204 204
204 204 204
204 204 204
204 204 204
204 204 204
204 204 204
204 204 204
204 204 204
204 204 204
204 204 204
204 204 204
204 204 204
204 204 204
204 204 204
204 204 204
204 204 204
204 204 204
204 204 204
204 204 204
204 204 204
204 204 204
204 204 204
204 204 204
204 204 204
204 204 204
204 204 204
204 204 204
204 204 204
204 204 204
204 204 204
204 204 204
204 204 204
204 204 204
204 204 204
204 204 204
204 204 204
204 204 204
204 204 204
204 204 204
204 204 204
204 204 204
204 204 204
204 204 204
204 204 204
204 204 204
204 204 204
204 204 204
204 204 204
204 204 204
204 204 204
204 204 204
204 204 204
204 204 204
204 204 204
204 204 204
204 204 204
204 204 204
204 204 204
204 204 204
204 204 204
204 204 204
204 204 204
204 204 204
204 204 204
204 204 204
204 204 204
204 204 204
204 204 204
204 204 204
204 204 204
204 204 204
204 204 204
204 204 204
204 204 204
204 204 204
204 204 204
204 204 204
204 204 204
204 204 204
204 204 204
204 204 204
204 204 204
204 204 204
204 204 204
204 204 204
204 204 204
204 204 204
204 204 204
204 204 204
204 204 204
204 204 204
214 137 137
230 25 25
230 25 25
230 25 25
230 25 25
230 25 25
230 25 25
230 25 25
230 25 25
230 25 25
230 25 25
230 25 25
230 25 25
230 25 25
230 25 25
230 25 25
230 25 25
230 25 25
230 25 25
230 25 25
230 25 25
230 25 25
230 25 25
230 25 25
230 25 25
230 25 25
230 25 25
230 25 25
230 25 25
230 25 25
230 25 25
230 25 25
230 25 25
230 25 25
230 25 25
230 25 25
230 25 25
230 25 25
223 70 70
214 137 137
204 204 204
204 204 204
204 204 204
204 204 204
204 204 204
204 204 204
204 204 204
204 204 204
204 204 204
204 204 204
204 204 204
204 204 204
204 204 204
204 204 204
204 204 204
204 204 204
204 204 204
204 204 204
204 204 204
204 204 204
204 204 204
204 204 204
204 204 204
204 204 204
204 204 204
204 204 204
204 204 204
204 204 204
204 204 204
204 204 204
204 204 204
204 204 204
204 204 204
204 204 204
204 204 204
204 204 204
204 204 204
204 204 204
204 204 204
204 204 204
204 204 204
204 204 204
204 204 204
204 204 204
204 204 204
204 204 204
204 204 204
204 204 204
204 204 204
204 204 204
204 204 204
204 204 204
204 204 204
204 204 204
204 204 204
204 204 204
204 204 204
204 204 204
204 204 204
204 204 204
204 204 204
204 204 204
204 204 204
204 204 204
204 204 204
204 204 204
204 204 204
204 204 204
204 204 204
204 204 204
204 204 204
204 204 204
204 204 204
204 204 204
204 204 204
204 204 204
204 204 204
204 204 204
204 204 204
204 204 204
204 204 204
204 204 204
204 204 204
204 204 204
204 204 204
204 204 204
204 204 204
204 204 204
204 204 204
204 204 204
204 204 204
204 204 204
204 204 204
204 204 204
204 204 204
204 204 204
204 204 204
204 204 204
204 204 204
204 204 204
204 204 204
204 204 204
204 204 204
204 204 204
204 204 204
204 204 204
204 204 204
204 204 204
204 204 204
204 204 204
204 204 204
204 204 204
204 204 204
204 204 204
204 204 204
204 204 204
204 204 204
204 204 204
204 204 204
204 204 204
204 204 204
204 204 204
204 204 204
204 204 204
204 204 204
204 204 204
204 204 204
204 204 204
204 204 204
204 204 204
204 204 204
204 204 204
204 204 204
204 204 204
204 204 204
204 204 204
204 204 204
204 204 204
204 204 204
204 204 204
204 204 204
204 204 204
204 204 204
204 204 204
204 204 204
204 204 204
204 204 204
204 204 204
204 204 204
204 204 204
204 204 204
204 204 204
204 204 204
204 204 204
204 204 204
204 204 204
204 204 204
204 204 204
204 204 204
204 204 204
204 204 204
204 204 204
204 204 204
204 204 204
204 204 204
204 204 204
204 204 204
204 204 204
204 204 204
204 204 204
204 204 204
204 204 204
204 204 204
204 204 204
204 204 204
204 204 204
204 204 204
204 204 204
204 204 204
204 204 204
204 204 204
204 204 204
204 204 204
204 204 204
204 204 204
204 204 204
204 204 204
204 204 204
204 204 204
204 204 204
204 204 204
204 204 204
204 204 204
204 204 204
204 204 204
204 204 204
204 204 204
47 227 47
25 230 25
25 230 25
25 230 25
25 230 25
25 230 25
25 230 25
25 230 25
25 230 25
25 230 25
25 230 25
25 230 25
25 230 25
25 230 25
25 230 25
25 230 25
25 230 25
25 230 25
25 230 25
25 230 25
25 230 25
25 230 25
25 230 25
25 230 25
25 230 25
25 230 25
25 230 25
25 230 25
25 230 25
25 230 25
25 230 25
25 230 25
25 230 25
25 230 25
25 230 25
25 230 25
25 230 25
25 230 25
25 230 25
115 217 115
204 204 204
204 204 204
204 204 204
204 204 204
204 204 204
204 204 204
204 204 204
204 204 204
204 204 204
204 204 204
204 204 204
204 204 204
204 204 204
204 204 204
204 204 204
204 204 204
204 204 204
204 204 204
204 204 204
204 204 204
204 204 204
204 204 204
204 204 204
204 204 204
204 204 204
204 204 204
204 204 204
204 204 204
204 204 204
204 204 204
204 204 204
204 204 204
204 204 204
204 204 204
204 204 204
204 204 204
204 204 204
204 204 204
204 204 204
204 204 204
204 204 204
204 204 204
204 204 204
204 204 204
204 204 204
204 204 204
204 204 204
204 204 204
204 204 204
204 204 204
204 204 204
204 204 204
204 204 204
204 204 204
204 204 204
204 204 204
204 204 204
204 204 204
204 204 204
204 204 204
204 204 204
204 204 204
204 204 204
204 204 204
204 204 204
204 204 204
204 204 204
204 204 204
204 204 204
204 204 204
204 204 204
204 204 204
204 204 204
204 204 204
204 204 204
204 204 204
204 204 204
204 204 204
204 204 204
204 204 204
204 204 204
204 204 204
204 204 204
204 204 204
204 204 204
204 204 204
204 204 204
204 204 204
204 204 204
204 204 204
204 204 204
204 204 204
204 204 204
204 204 204
204 204 204
204 204 204
204 204 204
204 204 204
204 204 204
204 204 204
204 204 204
204 204 204
204 204 204
204 204 204
204 204 204
204 204 204
204 204 204
204 204 204
204 204 204
204 204 204
204 204 204
204 204 204
204 204 204
204 204 204
204 204 204
204 204 204
204 204 204
204 204 204
204 204 204
204 204 204
204 204 204
204 204 204
204 204 204
204 204 204
204 204 204
217 115 115
227 47 47
230 25 25
230 25 25
230 25 25
230 25 25
230 25 25
230 25 25
230 25 25
230 25 25
230 25 25
230 25 25
230 25 25
230 25 25
230 25 25
230 25 25
230 25 25
230 25 25
230 25 25
230 25 25
230 25 25
230 25 25
230 25 25
230 25 25
230 25 25
230 25 25
230 25 25
230 25 25
230 25 25
230 25 25
230 25 25
230 25 25
230 25 25
230 25 25
217 115 115
204 204 204
204 204 204
204 204 204
204 204 204
204 204 204
204 204 204
204 204 204
204 204 204
204 204 204
204 204 204
204 204 204
204 204 204
204 204 204
204 204 204
204 204 204
204 204 204
204 204 204
204 204 204
204 204 204
204 204 204
204 204 204
204 204 204
204 204 204
204 204 204
204 204 204
204 204 204
204 204 204
204 204 204
204 204 204
204 204 204
204 204 204
204 204 204
204 204 204
204 204 204
204 204 204
204 204 204
204 204 204
204 204 204
204 204 204
204 204 204
204 204 204
204 204 204
204 204 204
204 204 204
204 204 204
204 204 204
204 204 204
204 204 204
204 204 204
204 204 204
204 204 204
204 204 204
204 204 204
204 204 204
204 204 204
204 204 204
204 204 204
204 204 204
204 204 204
204 204 204
204 204 204
204 204 204
204 204 204
204 204 204
204 204 204
204 204 204
204 204 204
204 204 204
204 204 204
204 204 204
204 204 204
204 204 204
204 204 204
204 204 204
204 204 204
204 204 204
204 204 204
204 204 204
204 204 204
204 204 204
204 204 204
204 204 204
204 204 204
204 204 204
204 204 204
204 204 204
204 204 204
204 204 204
204 204 204
204 204 204
204 204 204
204 204 204
204 204 204
204 204 204
204 204 204
204 204 204
204 204 204
204 204 204
204 204 204
204 204 204
204 204 204
204 204 204
204 204 204
204 204 204
204 204 204
204 204 204
204 204 204
204 204 204
204 204 204
204 204 204
204 204 204
204 204 204
204 204 204
204 204 204
204 204 204
204 204 204
204 204 204
204 204 204
204 204 204
204 204 204
204 204 204
204 204 204
204 204 204
204 204 204
204 204 204
204 204 204
204 204 204
204 204 204
204 204 204
204 204 204
204 204 204
204 204 204
204 204 204
204 204 204
204 204 204
204 204 204
204 204 204
204 204 204
204 204 204
204 204 204
204 204 204
204 204 204
204 204 204
204 204 204
204 204 204
204 204 204
204 204 204
204 204 204
204 204 204
204 204 204
204 204 204
204 204 204
204 204 204
204 204 204
204 204 204
204 204 204
204 204 204
204 204 204
204 204 204
204 204 204
204 204 204
204 204 204
204 204 204
204 204 204
204 204 204
204 204 204
204 204 204
204 204 204
204 204 204
204 204 204
204 204 204
204 204 204
204 204 204
204 204 204
204 204 204
204 204 204
204 204 204
204 204 204
204 204 204
204 204 204
204 204 204
204 204 204
204 204 204
204 204 204
204 204 204
204 204 204
204 204 204
204 204 204
204 204 204
204 204 204
204 204 204
204 204 204
204 204 204
204 204 204
204 204 204
204 204 204
204 204 204
204 204 204
204 204 204
204 204 204
204 204 204
159 211 159
25 230 25
25 230 25
25 230 25
25 230 25
25 230 25
25 230 25
25 230 25
25 230 25
25 230 25
25 230 25
25 230 25
25 230 25
25 230 25
25 230 25
25 230 25
25 230 25
25 230 25
25 230 25
25 230 25
25 230 25
25 230 25
25 230 25
25 230 25
25 230 25
25 230 25
25 230 25
25 230 25
25 230 25
25 230 25
25 230 25
25 230 25
25 230 25
25 230 25
25 230 25
25 230 25
25 230 25
137 214 137
204 204 204
204 204 204
204 204 204
204 204 204
204 204 204
204 204 204
204 204 204
204 204 204
204 204 204
204 204 204
204 204 204
204 204 204
204 204 204
204 204 204
204 204 204
204 204 204
204 204 204
204 204 204
204 204 204
204 204 204
204 204 204
204 204 204
204 204 204
204 204 204
204 204 204
204 204 204
204 204 204
204 204 204
204 204 204
204 204 204
204 204 204
204 204 204
204 204 204
204 204 204
204 204 204
204 204 204
204 204 204
204 204 204
204 204 204
204 204 204
204 204 204
204 204 204
204 204 204
204 204 204
204 204 204
204 204 204
204 204 204
204 204 204
204 204 204
204 204 204
204 204 204
204 204 204
204 204 204
204 204 204
204 204 204
204 204 204
204 204 204
204 204 204
204 204 204
204 204 204
204 204 204
204 204 204
204 204 204
204 204 204
204 204 204
204 204 204
204 204 204
204 204 204
204 204 204
204 204 204
204 204 204
204 204 204
204 204 204
204 204 204
204 204 204
204 204 204
204 204 204
204 204 204
204 204 204
204 204 204
204 204 204
204 204 204
204 204 204
204 204 204
204 204 204
204 204 204
204 204 204
204 204 204
204 204 204
204 204 204
204 204 204
204 204 204
204 204 204
204 204 204
204 204 204
204 204 204
204 204 204
204 204 204
204 204 204
204 204 204
204 204 204
204 204 204
204 204 204
204 204 204
204 204 204
204 204 204
204 204 204
204 204 204
204 204 204
204 204 204
204 204 204
204 204 204
204 204 204
204 204 204
204 204 204
204 204 204
204 204 204
204 204 204
204 204 204
204 204 204
204 204 204
204 204 204
204 204 204
204 204 204
204 204 204
204 204 204
204 204 204
204 204 204
204 204 204
220 92 92
220 92 92
230 25 25
230 25 25
230 25 25
230 25 25
230 25 25
230 25 25
230 25 25
230 25 25
230 25 25
230 25 25
230 25 25
230 25 25
230 25 25
230 25 25
230 25 25
230 25 25
230 25 25
230 25 25
230 25 25
230 25 25
230 25 25
230 25 25
230 25 25
230 25 25
230 25 25
227 47 47
217 115 115
217 115 115
204 204 204
204 204 204
204 204 204
204 204 204
204 204 204
204 204 204
204 204 204
204 204 204
204 204 204
204 204 204
204 204 204
204 204 204
204 204 204
204 204 204
204 204 204
204 204 204
204 204 204
204 204 204
204 204 204
204 204 204
204 204 204
204 204 204
204 204 204
204 204 204
204 204 204
204 204 204
204 204 204
204 204 204
204 204 204
204 204 204
204 204 204
204 204 204
204 204 204
204 204 204
204 204 204
204 204 204
204 204 204
204 204 204
204 204 204
204 204 204
204 204 204
204 204 204
204 204 204
204 204 204
204 204 204
204 204 204
204 204 204
204 204 204
204 204 204
204 204 204
204 204 204
204 204 204
204 204 204
204 204 204
204 204 204
204 204 204
204 204 204
204 204 204
204 204 204
204 204 204
204 204 204
204 204 204
204 204 204
204 204 204
204 204 204
204 204 204
204 204 204
204 204 204
204 204 204
204 204 204
204 204 204
204 204 204
204 204 204
204 204 204
204 204 204
204 204 204
204 204 204
204 204 204
204 204 204
204 204 204
204 204 204
204 204 204
204 204 204
204 204 204
204 204 204
204 204 204
204 204 204
204 204 204
204 204 204
204 204 204
204 204 204
204 204 204
204 204 204
204 204 204
204 204 204
204 204 204
204 204 204
204 204 204
204 204 204
204 204 204
204 204 204
204 204 204
204 204 204
204 204 204
204 204 204
204 204 204
204 204 204
204 204 204
204 204 204
204 204 204
204 204 204
204 204 204
204 204 204
204 204 204
204 204 204
204 204 204
204 204 204
204 204 204
204 204 204
204 204 204
204 204 204
204 204 204
204 204 204
204 204 204
204 204 204
204 204 204
204 204 204
204 204 204
204 204 204
204 204 204
204 204 204
204 204 204
204 204 204
204 204 204
204 204 204
204 204 204
204 204 204
204 204 204
204 204 204
204 204 204
204 204 204
204 204 204
204 204 204
204 204 204
204 204 204
204 204 204
204 204 204
204 204 204
204 204 204
204 204 204
204 204 204
204 204 204
204 204 204
204 204 204
204 204 204
204 204 204
204 204 204
204 204 204
204 204 204
204 204 204
204 204 204
204 204 204
204 204 204
204 204 204
204 204 204
204 204 204
204 204 204
204 204 204
204 204 204
204 204 204
204 204 204
204 204 204
204 204 204
204 204 204
204 204 204
204 204 204
204 204 204
204 204 204
204 204 204
204 204 204
204 204 204
204 204 204
204 204 204
204 204 204
204 204 204
204 204 204
204 204 204
204 204 204
204 204 204
204 204 204
204 204 204
204 204 204
204 204 204
204 204 204
204 204 204
204 204 204
204 204 204
204 204 204
204 204 204
204 204 204
204 204 204
204 204 204
204 204 204
204 204 204
159 211 159
47 227 47
25 230 25
25 230 25
25 230 25
25 230 25
25 230 25
25 230 25
25 230 25
25 230 25
25 230 25
25 230 25
25 230 25
25 230 25
25 230 25
25 230 25
25 230 25
25 230 25
25 230 25
25 230 25
25 230 25
25 230 25
25 230 25
25 230 25
25 230 25
25 230 25
25 230 25
25 230 25
25 230 25
25 230 25
25 230 25
25 230 25
25 230 25
25 230 25
25 230 25
115 217 115
204 204 204
204 204 204
204 204 204
204 204 204
204 204 204
204 204 204
204 204 204
204 204 204
204 204 204
204 204 204
204 204 204
204 204 204
204 204 204
204 204 204
204 204 204
204 204 204
204 204 204
204 204 204
204 204 204
204 204 204
204 204 204
204 204 204
204 204 204
204 204 204
204 204 204
204 204 204
204 204 204
204 204 204
204 204 204
204 204 204
204 204 204
204 204 204
204 204 204
204 204 204
204 204 204
204 204 204
204 204 204
204 204 204
204 204 204
204 204 204
204 204 204
204 204 204
204 204 204
204 204 204
204 204 204
204 204 204
204 204 204
204 204 204
204 204 204
204 204 204
204 204 204
204 204 204
204 204 204
204 204 204
204 204 204
204 204 204
204 204 204
204 204 204
204 204 204
204 204 204
204 204 204
204 204 204
204 204 204
204 204 204
204 204 204
204 204 204
204 204 204
204 204 204
204 204 204
204 204 204
204 204 204
204 204 204
204 204 204
204 204 204
204 204 204
204 204 204
204 204 204
204 204 204
204 204 204
204 204 204
204 204 204
204 204 204
204 204 204
204 204 204
204 204 204
204 204 204
204 204 204
204 204 204
204 204 204
204 204 204
204 204 204
204 204 204
204 204 204
204 204 204
204 204 204
204 204 204
204 204 204
204 204 204
204 204 204
204 204 204
204 204 204
204 204 204
204 204 204
204 204 204
204 204 204
204 204 204
204 204 204
204 204 204
204 204 204
204 204 204
204 204 204
204 204 204
204 204 204
204 204 204
204 204 204
204 204 204
204 204 204
204 204 204
204 204 204
204 204 204
204 204 204
204 204 204
204 204 204
204 204 204
204 204 204
204 204 204
204 204 204
204 204 204
204 204 204
204 204 204
204 204 204
204 204 204
204 204 204
217 115 115
220 92 92
230 25 25
230 25 25
230 25 25
230 25 25
230 25 25
230 25 25
230 25 25
230 25 25
230 25 25
230 25 25
230 25 25
230 25 25
230 25 25
230 25 25
230 25 25
230 25 25
230 25 25
230 25 25
230 25 25
230 25 25
220 92 92
217 115 115
204 204 204
204 204 204
204 204 204
204 204 204
204 204 204
204 204 204
204 204 204
204 204 204
204 204 204
204 204 204
204 204 204
204 204 204
204 204 204
204 204 204
204 204 204
204 204 204
204 204 204
204 204 204
204 204 204
204 204 204
204 204 204
204 204 204
204 204 204
204 204 204
204 204 204
204 204 204
204 204 204
204 204 204
204 204 204
204 204 204
204 204 204
204 204 204
204 204 204
204 204 204
204 204 204
204 204 204
204 204 204
204 204 204
204 204 204
204 204 204
204 204 204
204 204 204
204 204 204
204 204 204
204 204 204
204 204 204
204 204 204
204 204 204
204 204 204
204 204 204
204 204 204
204 204 204
204 204 204
204 204 204
204 204 204
204 204 204
204 204 204
204 204 204
204 204 204
204 204 204
204 204 204
204 204 204
204 204 204
204 204 204
204 204 204
204 204 204
204 204 204
204 204 204
204 204 204
204 204 204
204 204 204
204 204 204
204 204 204
204 204 204
204 204 204
204 204 204
204 204 204
204 204 204
204 204 204
204 204 204
204 204 204
204 204 204
204 204 204
204 204 204
204 204 204
204 204 204
204 204 204
204 204 204
204 204 204
204 204 204
204 204 204
204 204 204
204 204 204
204 204 204
204 204 204
204 204 204
204 204 204
204 204 204
204 204 204
204 204 204
204 204 204
204 204 204
204 204 204
204 204 204
204 204 204
204 204 204
204 204 204
204 204 204
204 204 204
204 204 204
204 204 204
204 204 204
204 204 204
204 204 204
204 204 204
204 204 204
204 204 204
204 204 204
204 204 204
204 204 204
204 204 204
204 204 204
204 204 204
204 204 204
204 204 204
204 204 204
204 204 204
204 204 204
204 204 204
204 204 204
204 204 204
204 204 204
204 204 204
204 204 204
204 204 204
204 204 204
204 204 204
204 204 204
204 204 204
204 204 204
204 204 204
204 204 204
204 204 204
204 204 204
204 204 204
204 204 204
204 204 204
204 204 204
204 204 204
204 204 204
204 204 204
204 204 204
204 204 204
204 204 204
204 204 204
204 204 204
204 204 204
204 204 204
204 204 204
204 204 204
204 204 204
204 204 204
204 204 204
204 204 204
204 204 204
204 204 204
204 204 204
204 204 204
204 204 204
204 204 204
204 204 204
204 204 204
204 204 204
204 204 204
204 204 204
204 204 204
204 204 204
204 204 204
204 204 204
204 204 204
204 204 204
204 204 204
204 204 204
204 204 204
204 204 204
204 204 204
204 204 204
204 204 204
204 204 204
204 204 204
204 204 204
204 204 204
204 204 204
204 204 204
204 204 204
204 204 204
204 204 204
204 204 204
204 204 204
204 204 204
204 204 204
204 204 204
204 204 204
204 204 204
204 204 204
204 204 204
204 204 204
204 204 204
204 204 204
92 220 92
47 227 47
25 230 25
25 230 25
25 230 25
25 230 25
25 230 25
25 230 25
25 230 25
25 230 25
25 230 25
25 230 25
25 230 25
25 230 25
25 230 25
25 230 25
25 230 25
25 230 25
25 230 25
25 230 25
25 230 25
25 230 25
25 230 25
25 230 25
25 230 25
25 230 25
25 230 25
25 230 25
25 230 25
25 230 25
25 230 25
92 220 92
159 211 159
204 204 204
204 204 204
204 204 204
204 204 204
204 204 204
204 204 204
204 204 204
204 204 204
204 204 204
204 204 204
204 204 204
204 204 204
204 204 204
204 204 204
204 204 204
204 204 204
204 204 204
204 204 204
204 204 204
204 204 204
204 204 204
204 204 204
204 204 204
204 204 204
204 204 204
204 204 204
204 204 204
204 204 204
204 204 204
204 204 204
204 204 204
204 204 204
204 204 204
204 204 204
204 204 204
204 204 204
204 204 204
204 204 204
204 204 204
204 204 204
204 204 204
204 204 204
204 204 204
204 204 204
204 204 204
204 204 204
204 204 204
204 204 204
204 204 204
204 204 204
204 204 204
204 204 204
204 204 204
204 204 204
204 204 204
204 204 204
204 204 204
204 204 204
204 204 204
204 204 204
204 204 204
204 204 204
204 204 204
204 204 204
204 204 204
204 204 204
204 204 204
204 204 204
204 204 204
204 204 204
204 204 204
204 204 204
204 204 204
204 204 204
204 204 204
204 204 204
204 204 204
204 204 204
204 204 204
204 204 204
204 204 204
204 204 204
204 204 204
204 204 204
204 204 204
204 204 204
204 204 204
204 204 204
204 204 204
204 204 204
204 204 204
204 204 204
204 204 204
204 204 204
204 204 204
204 204 204
204 204 204
204 204 204
204 204 204
204 204 204
204 204 204
204 204 204
204 204 204
204 204 204
204 204 204
204 204 204
204 204 204
204 204 204
204 204 204
204 204 204
204 204 204
204 204 204
204 204 204
204 204 204
204 204 204
204 204 204
204 204 204
204 204 204
204 204 204
204 204 204
204 204 204
204 204 204
204 204 204
204 204 204
204 204 204
204 204 204
204 204 204
204 204 204
204 204 204
204 204 204
204 204 204
204 204 204
204 204 204
204 204 204
204 204 204
204 204 204
204 204 204
207 182 182
217 115 115
214 137 137
227 47 47
217 115 115
227 47 47
220 92 92
227 47 47
230 25 25
223 70 70
230 25 25
223 70 70
227 47 47
220 92 92
214 137 137
217 115 115
211 159 159
204 204 204
204 204 204
204 204 204
204 204 204
204 204 204
204 204 204
204 204 204
204 204 204
204 204 204
204 204 204
204 204 204
204 204 204
204 204 204
204 204 204
204 204 204
204 204 204
204 204 204
204 204 204
204 204 204
204 204 204
204 204 204
204 204 204
204 204 204
204 204 204
204 204 204
204 204 204
204 204 204
204 204 204
204 204 204
204 204 204
204 204 204
204 204 204
204 204 204
204 204 204
204 204 204
204 204 204
204 204 204
204 204 204
204 204 204
204 204 204
204 204 204
204 204 204
204 204 204
204 204 204
204 204 204
204 204 204
204 204 204
204 204 204
204 204 204
204 204 204
204 204 204
204 204 204
204 204 204
204 204 204
204 204 204
204 204 204
204 204 204
204 204 204
204 204 204
204 204 204
204 204 204
204 204 204
204 204 204
204 204 204
204 204 204
204 204 204
204 204 204
204 204 204
204 204 204
204 204 204
204 204 204
204 204 204
204 204 204
204 204 204
204 204 204
204 204 204
204 204 204
204 204 204
204 204 204
204 204 204
204 204 204
204 204 204
204 204 204
204 204 204
204 204 204
204 204 204
204 204 204
204 204 204
204 204 204
204 204 204
204 204 204
204 204 204
204 204 204
204 204 204
204 204 204
204 204 204
204 204 204
204 204 204
204 204 204
204 204 204
204 204 204
204 204 204
204 204 204
204 204 204
204 204 204
204 204 204
204 204 204
204 204 204
204 204 204
204 204 204
204 204 204
204 204 204
204 204 204
204 204 204
204 204 204
204 204 204
204 204 204
204 204 204
204 204 204
204 204 204
204 204 204
204 204 204
204 204 204
204 204 204
204 204 204
204 204 204
204 204 204
204 204 204
204 204 204
204 204 204
204 204 204
204 204 204
204 204 204
204 204 204
204 204 204
204 204 204
204 204 204
204 204 204
204 204 204
204 204 204
204 204 204
204 204 204
204 204 204
204 204 204
204 204 204
204 204 204
204 204 204
204 204 204
204 204 204
204 204 204
204 204 204
204 204 204
204 204 204
204 204 204
204 204 204
204 204 204
204 204 204
204 204 204
204 204 204
204 204 204
204 204 204
204 204 204
204 204 204
204 204 204
204 204 204
204 204 204
204 204 204
204 204 204
204 204 204
204 204 204
204 204 204
204 204 204
204 204 204
204 204 204
204 204 204
204 204 204
204 204 204
204 204 204
204 204 204
204 204 204
204 204 204
204 204 204
204 204 204
204 204 204
204 204 204
204 204 204
204 204 204
204 204 204
204 204 204
204 204 204
204 204 204
204 204 204
204 204 204
204 204 204
204 204 204
204 204 204
204 204 204
204 204 204
204 204 204
204 204 204
204 204 204
204 204 204
204 204 204
204 204 204
204 204 204
204 204 204
204 204 204
204 204 204
204 204 204
204 204 204
204 204 204
204 204 204
204 204 204
204 204 204
182 207 182
47 227 47
25 230 25
25 230 25
25 230 25
25 230 25
25 230 25
25 230 25
25 230 25
25 230 25
25 230 25
25 230 25
25 230 25
25 230 25
25 230 25
25 230 25
25 230 25
25 230 25
25 230 25
25 230 25
25 230 25
25 230 25
25 230 25
25 230 25
25 230 25
25 230 25
25 230 25
25 230 25
47 227 47
137 214 137
204 204 204
204 204 204
204 204 204
204 204 204
204 204 204
204 204 204
204 204 204
204 204 204
204 204 204
204 204 204
204 204 204
204 204 204
204 204 204
204 204 204
204 204 204
204 204 204
204 204 204
204 204 204
204 204 204
204 204 204
204 204 204
204 204 204
204 204 204
204 204 204
204 204 204
204 204 204
204 204 204
204 204 204
204 204 204
204 204 204
204 204 204
204 204 204
204 204 204
204 204 204
204 204 204
204 204 204
204 204 204
204 204 204
204 204 204
204 204 204
204 204 204
204 204 204
204 204 204
204 204 204
204 204 204
204 204 204
204 204 204
204 204 204
204 204 204
204 204 204
204 204 204
204 204 204
204 204 204
204 204 204
204 204 204
204 204 204
204 204 204
204 204 204
204 204 204
204 204 204
204 204 204
204 204 204
204 204 204
204 204 204
204 204 204
204 204 204
204 204 204
204 204 204
204 204 204
204 204 204
204 204 204
204 204 204
204 204 204
204 204 204
204 204 204
204 204 204
204 204 204
204 204 204
204 204 204
204 204 204
204 204 204
204 204 204
204 204 204
204 204 204
204 204 204
204 204 204
204 204 204
204 204 204
204 204 204
204 204 204
204 204 204
204 204 204
204 204 204
204 204 204
204 204 204
204 204 204
204 204 204
204 204 204
204 204 204
204 204 204
204 204 204
204 204 204
204 204 204
204 204 204
204 204 204
204 204 204
204 204 204
204 204 204
204 204 204
204 204 204
204 204 204
204 204 204
204 204 204
204 204 204
204 204 204
204 204 204
204 204 204
204 204 204
204 204 204
204 204 204
204 204 204
204 204 204
204 204 204
204 204 204
204 204 204
204 204 204
204 204 204
204 204 204
204 204 204
204 204 204
204 204 204
204 204 204
204 204 204
204 204 204
204 204 204
204 204 204
204 204 204
204 204 204
204 204 204
204 204 204
204 204 204
204 204 204
204 204 204
204 204 204
204 204 204
204 204 204
204 204 204
204 204 204
204 204 204
204 204 204
204 204 204
204 204 204
204 204 204
204 204 204
204 204 204
204 204 204
204 204 204
204 204 204
204 204 204
204 204 204
204 204 204
204 204 204
204 204 204
204 204 204
204 204 204
204 204 204
204 204 204
204 204 204
204 204 204
204 204 204
204 204 204
204 204 204
204 204 204
204 204 204
204 204 204
204 204 204
204 204 204
204 204 204
204 204 204
204 204 204
204 204 204
204 204 204
204 204 204
204 204 204
204 204 204
204 204 204
204 204 204
204 204 204
204 204 204
204 204 204
204 204 204
204 204 204
204 204 204
204 204 204
204 204 204
204 204 204
204 204 204
204 204 204
204 204 204
204 204 204
204 204 204
204 204 204
204 204 204
204 204 204
204 204 204
204 204 204
204 204 204
204 204 204
204 204 204
204 204 204
204 204 204
204 204 204
204 204 204
204 204 204
204 204 204
204 204 204
204 204 204
204 204 204
204 204 204
204 204 204
204 204 204
204 204 204
204 204 204
204 204 204
204 204 204
204 204 204
204 204 204
204 204 204
204 204 204
204 204 204
204 204 204
204 204 204
204 204 204
204 204 204
204 204 204
204 204 204
204 204 204
204 204 204
204 204 204
204 204 204
204 204 204
204 204 204
204 204 204
204 204 204
204 204 204
204 204 204
204 204 204
204 204 204
204 204 204
204 204 204
204 204 204
204 204 204
204 204 204
204 204 204
204 204 204
204 204 204
204 204 204
204 204 204
204 204 204
204 204 204
204 204 204
204 204 204
204 204 204
204 204 204
204 204 204
204 204 204
204 204 204
204 204 204
204 204 204
204 204 204
204 204 204
204 204 204
204 204 204
204 204 204
204 204 204
204 204 204
204 204 204
204 204 204
204 204 204
204 204 204
204 204 204
204 204 204
204 204 204
204 204 204
204 204 204
204 204 204
204 204 204
204 204 204
204 204 204
204 204 204
204 204 204
204 204 204
204 204 204
204 204 204
204 204 204
204 204 204
204 204 204
204 204 204
204 204 204
204 204 204
204 204 204
204 204 204
204 204 204
204 204 204
204 204 204
204 204 204
204 204 204
204 204 204
204 204 204
204 204 204
204 204 204
204 204 204
204 204 204
204 204 204
204 204 204
204 204 204
204 204 204
204 204 204
204 204 204
204 204 204
204 204 204
204 204 204
204 204 204
204 204 204
204 204 204
204 204 204
204 204 204
204 204 204
204 204 204
204 204 204
204 204 204
204 204 204
204 204 204
204 204 204
204 204 204
204 204 204
204 204 204
204 204 204
204 204 204
204 204 204
204 204 204
204 204 204
204 204 204
204 204 204
204 204 204
204 204 204
204 204 204
204 204 204
204 204 204
204 204 204
204 204 204
204 204 204
204 204 204
204 204 204
204 204 204
204 204 204
204 204 204
204 204 204
204 204 204
204 204 204
204 204 204
204 204 204
204 204 204
204 204 204
204 204 204
204 204 204
204 204 204
204 204 204
204 204 204
204 204 204
204 204 204
204 204 204
204 204 204
159 211 159
47 227 47
25 230 25
25 230 25
25 230 25
25 230 25
25 230 25
25 230 25
25 230 25
25 230 25
25 230 25
25 230 25
25 230 25
25 230 25
25 230 25
25 230 25
25 230 25
25 230 25
25 230 25
25 230 25
25 230 25
25 230 25
25 230 25
70 223 70
115 217 115
182 207 182
204 204 204
204 204 204
204 204 204
204 204 204
204 204 204
204 204 204
204 204 204
204 204 204
204 204 204
204 204 204
204 204 204
204 204 204
204 204 204
204 204 204
204 204 204
204 204 204
204 204 204
204 204 204
204 204 204
204 204 204
204 204 204
204 204 204
204 204 204
204 204 204
204 204 204
204 204 204
204 204 204
204 204 204
204 204 204
204 204 204
204 204 204
204 204 204
204 204 204
204 204 204
204 204 204
204 204 204
204 204 204
204 204 204
204 204 204
204 204 204
204 204 204
204 204 204
204 204 204
204 204 204
204 204 204
204 204 204
204 204 204
204 204 204
204 204 204
204 204 204
204 204 204
204 204 204
204 204 204
204 204 204
204 204 204
204 204 204
204 204 204
204 204 204
204 204 204
204 204 204
204 204 204
204 204 204
204 204 204
204 204 204
204 204 204
204 204 204
204 204 204
204 204 204
204 204 204
204 204 204
204 204 204
204 204 204
204 204 204
204 204 204
204 204 204
204 204 204
204 204 204
204 204 204
204 204 204
204 204 204
204 204 204
204 204 204
204 204 204
204 204 204
204 204 204
204 204 204
204 204 204
204 204 204
204 204 204
204 204 204
204 204 204
204 204 204
204 204 204
204 204 204
204 204 204
204 204 204
204 204 204
204 204 204
204 204 204
204 204 204
204 204 204
204 204 204
204 204 204
204 204 204
204 204 204
204 204 204
204 204 204
204 204 204
204 204 204
204 204 204
204 204 204
204 204 204
204 204 204
204 204 204
204 204 204
204 204 204
204 204 204
204 204 204
204 204 204
204 204 204
204 204 204
204 204 204
204 204 204
204 204 204
204 204 204
204 204 204
204 204 204
204 204 204
204 204 204
204 204 204
204 204 204
204 204 204
204 204 204
204 204 204
204 204 204
204 204 204
204 204 204
204 204 204
204 204 204
204 204 204
204 204 204
204 204 204
204 204 204
204 204 204
204 204 204
204 204 204
204 204 204
204 204 204
204 204 204
204 204 204
204 204 204
204 204 204
204 204 204
204 204 204
204 204 204
204 204 204
204 204 204
204 204 204
204 204 204
204 204 204
204 204 204
204 204 204
204 204 204
204 204 204
204 204 204
204 204 204
204 204 204
204 204 204
204 204 204
204 204 204
204 204 204
204 204 204
204 204 204
204 204 204
204 204 204
204 204 204
204 204 204
204 204 204
204 204 204
204 204 204
204 204 204
204 204 204
204 204 204
204 204 204
204 204 204
204 204 204
204 204 204
204 204 204
204 204 204
204 204 204
204 204 204
204 204 204
204 204 204
204 204 204
204 204 204
204 204 204
204 204 204
204 204 204
204 204 204
204 204 204
204 204 204
204 204 204
204 204 204
204 204 204
204 204 204
204 204 204
204 204 204
204 204 204
204 204 204
204 204 204
204 204 204
204 204 204
204 204 204
204 204 204
204 204 204
204 204 204
204 204 204
204 204 204
204 204 204
204 204 204
204 204 204
204 204 204
204 204 204
204 204 204
204 204 204
204 204 204
204 204 204
204 204 204
204 204 204
204 204 204
204 204 204
204 204 204
204 204 204
204 204 204
204 204 204
204 204 204
204 204 204
204 204 204
204 204 204
204 204 204
204 204 204
204 204 204
204 204 204
204 204 204
204 204 204
204 204 204
204 204 204
204 204 204
204 204 204
204 204 204
204 204 204
204 204 204
204 204 204
204 204 204
204 204 204
204 204 204
204 204 204
204 204 204
204 204 204
204 204 204
204 204 204
204 204 204
204 204 204
204 204 204
204 204 204
204 204 204
204 204 204
204 204 204
204 204 204
204 204 204
204 204 204
204 204 204
204 204 204
204 204 204
204 204 204
204 204 204
204 204 204
204 204 204
204 204 204
204 204 204
204 204 204
204 204 204
204 204 204
204 204 204
204 204 204
204 204 204
204 204 204
204 204 204
204 204 204
204 204 204
204 204 204
204 204 204
204 204 204
204 204 204
204 204 204
204 204 204
204 204 204
204 204 204
204 204 204
204 204 204
204 204 204
204 204 204
204 204 204
204 204 204
204 204 204
204 204 204
204 204 204
204 204 204
204 204 204
204 204 204
204 204 204
204 204 204
204 204 204
204 204 204
204 204 204
204 204 204
204 204 204
204 204 204
204 204 204
204 204 204
204 204 204
204 204 204
204 204 204
204 204 204
204 204 204
204 204 204
204 204 204
204 204 204
204 204 204
204 204 204
204 204 204
204 204 204
204 204 204
204 204 204
204 204 204
204 204 204
204 204 204
204 204 204
204 204 204
204 204 204
204 204 204
204 204 204
204 204 204
204 204 204
204 204 204
204 204 204
204 204 204
204 204 204
204 204 204
204 204 204
204 204 204
204 204 204
204 204 204
204 204 204
204 204 204
204 204 204
204 204 204
204 204 204
204 204 204
204 204 204
204 204 204
204 204 204
204 204 204
204 204 204
204 204 204
204 204 204
204 204 204
204 204 204
204 204 204
204 204 204
204 204 204
204 204 204
204 204 204
204 204 204
204 204 204
204 204 204
137 214 137
137 214 137
70 223 70
25 230 25
25 230 25
25 230 25
25 230 25
25 230 25
25 230 25
25 230 25
25 230 25
25 230 25
25 230 25
25 230 25
25 230 25
25 230 25
25 230 25
25 230 25
25 230 25
92 220 92
182 207 182
204 204 204
204 204 204
204 204 204
204 204 204
204 204 204
204 204 204
204 204 204
204 204 204
204 204 204
204 204 204
204 204 204
204 204 204
204 204 204
204 204 204
204 204 204
204 204 204
204 204 204
204 204 204
204 204 204
204 204 204
204 204 204
204 204 204
204 204 204
204 204 204
204 204 204
204 204 204
204 204 204
204 204 204
204 204 204
204 204 204
204 204 204
204 204 204
204 204 204
204 204 204
204 204 204
204 204 204
204 204 204
204 204 204
204 204 204
204 204 204
204 204 204
204 204 204
204 204 204
204 204 204
204 204 204
204 204 204
204 204 204
204 204 204
204 204 204
204 204 204
204 204 204
204 204 204
204 204 204
204 204 204
204 204 204
204 204 204
204 204 204
204 204 204
204 204 204
204 204 204
204 204 204
204 204 204
204 204 204
204 204 204
204 204 204
204 204 204
204 204 204
204 204 204
204 204 204
204 204 204
204 204 204
204 204 204
204 204 204
204 204 204
204 204 204
204 204 204
204 204 204
204 204 204
204 204 204
204 204 204
204 204 204
204 204 204
204 204 204
204 204 204
204 204 204
204 204 204
204 204 204
204 204 204
204 204 204
204 204 204
204 204 204
204 204 204
204 204 204
204 204 204
204 204 204
204 204 204
204 204 204
204 204 204
204 204 204
204 204 204
204 204 204
204 204 204
204 204 204
204 204 204
204 204 204
204 204 204
204 204 204
204 204 204
204 204 204
204 204 204
204 204 204
204 204 204
204 204 204
204 204 204
204 204 204
204 204 204
204 204 204
204 204 204
204 204 204
204 204 204
204 204 204
204 204 204
204 204 204
204 204 204
204 204 204
204 204 204
204 204 204
204 204 204
204 204 204
204 204 204
204 204 204
204 204 204
204 204 204
204 204 204
204 204 204
204 204 204
204 204 204
204 204 204
204 204 204
204 204 204
204 204 204
204 204 204
204 204 204
204 204 204
204 204 204
204 204 204
204 204 204
204 204 204
204 204 204
204 204 204
204 204 204
204 204 204
204 204 204
204 204 204
204 204 204
204 204 204
204 204 204
204 204 204
204 204 204
204 204 204
204 204 204
204 204 204
204 204 204
204 204 204
204 204 204
204 204 204
204 204 204
204 204 204
204 204 204
204 204 204
204 204 204
204 204 204
204 204 204
204 204 204
204 204 204
204 204 204
204 204 204
204 204 204
204 204 204
204 204 204
204 204 204
204 204 204
204 204 204
204 204 204
204 204 204
204 204 204
204 204 204
204 204 204
204 204 204
204 204 204
204 204 204
204 204 204
204 204 204
204 204 204
204 204 204
204 204 204
204 204 204
204 204 204
204 204 204
204 204 204
204 204 204
204 204 204
204 204 204
204 204 204
204 204 204
204 204 204
204 204 204
204 204 204
204 204 204
204 204 204
204 204 204
204 204 204
204 204 204
204 204 204
204 204 204
204 204 204
204 204 204
204 204 204
204 204 204
204 204 204
204 204 204
204 204 204
204 204 204
204 204 204
204 204 204
204 204 204
204 204 204
204 204 204
204 204 204
204 204 204
204 204 204
204 204 204
204 204 204
204 204 204
204 204 204
204 204 204
204 204 204
204 204 204
204 204 204
204 204 204
204 204 204
204 204 204
204 204 204
204 204 204
204 204 204
204 204 204
204 204 204
204 204 204
204 204 204
204 204 204
204 204 204
204 204 204
204 204 204
204 204 204
204 204 204
204 204 204
204 204 204
204 204 204
204 204 204
204 204 204
204 204 204
204 204 204
204 204 204
204 204 204
204 204 204
204 204 204
204 204 204
204 204 204
204 204 204
204 204 204
204 204 204
204 204 204
204 204 204
204 204 204
204 204 204
204 204 204
204 204 204
204 204 204
204 204 204
204 204 204
204 204 204
204 204 204
204 204 204
204 204 204
204 204 204
204 204 204
204 204 204
204 204 204
204 204 204
204 204 204
204 204 204
204 204 204
204 204 204
204 204 204
204 204 204
204 204 204
204 204 204
204 204 204
204 204 204
204 204 204
204 204 204
204 204 204
204 204 204
204 204 204
204 204 204
204 204 204
204 204 204
204 204 204
204 204 204
204 204 204
204 204 204
204 204 204
204 204 204
204 204 204
204 204 204
204 204 204
204 204 204
204 204 204
204 204 204
204 204 204
204 204 204
204 204 204
204 204 204
204 204 204
204 204 204
204 204 204
204 204 204
204 204 204
204 204 204
204 204 204
204 204 204
204 204 204
204 204 204
204 204 204
204 204 204
204 204 204
204 204 204
204 204 204
204 204 204
204 204 204
204 204 204
204 204 204
204 204 204
204 204 204
204 204 204
204 204 204
204 204 204
204 204 204
204 204 204
204 204 204
204 204 204
204 204 204
204 204 204
204 204 204
204 204 204
204 204 204
204 204 204
204 204 204
204 204 204
204 204 204
204 204 204
204 204 204
204 204 204
204 204 204
204 204 204
204 204 204
204 204 204
204 204 204
204 204 204
204 204 204
204 204 204
204 204 204
204 204 204
204 204 204
204 204 204
204 204 204
204 204 204
204 204 204
204 204 204
204 204 204
204 204 204
204 204 204
204 204 204
204 204 204
137 214 137
159 211 159
115 217 115
70 223 70
92 220 92
25 230 25
70 223 70
25 230 25
70 223 70
159 211 159
115 217 115
159 211 159
137 214 137
204 204 204
204 204 204
204 204 204
204 204 204
204 204 204
204 204 204
204 204 204
204 204 204
204 204 204
204 204 204
204 204 204
204 204 204
204 204 204
204 204 204
204 204 204
204 204 204
204 204 204
204 204 204
204 204 204
204 204 204
204 204 204
204 204 204
204 204 204
204 204 204
204 204 204
204 204 204
204 204 204
204 204 204
204 204 204
204 204 204
204 204 204
204 204 204
204 204 204
204 204 204
204 204 204
204 204 204
204 204 204
204 204 204
204 204 204
204 204 204
204 204 204
204 204 204
204 204 204
204 204 204
204 204 204
204 204 204
204 204 204
204 204 204
204 204 204
204 204 204
204 204 204
204 204 204
204 204 204
204 204 204
204 204 204
204 204 204
204 204 204
204 204 204
204 204 204
204 204 204
204 204 204
204 204 204
204 204 204
204 204 204
204 204 204
204 204 204
204 204 204
204 204 204
204 204 204
204 204 204
204 204 204
204 204 204
204 204 204
204 204 204
204 204 204
204 204 204
204 204 204
204 204 204
204 204 204
204 204 204
204 204 204
204 204 204
204 204 204
204 204 204
204 204 204
204 204 204
204 204 204
204 204 204
204 204 204
204 204 204
204 204 204
204 204 204
204 204 204
204 204 204
204 204 204
204 204 204
204 204 204
204 204 204
204 204 204
204 204 204
204 204 204
204 204 204
204 204 204
204 204 204
204 204 204
204 204 204
204 204 204
204 204 204
204 204 204
204 204 204
204 204 204
204 204 204
204 204 204
204 204 204
204 204 204
204 204 204
204 204 204
204 204 204
204 204 204
204 204 204
204 204 204
204 204 204
204 204 204
204 204 204
204 204 204
204 204 204
204 204 204
204 204 204
204 204 204
204 204 204
204 204 204
204 204 204
204 204 204
204 204 204
204 204 204
204 204 204
204 204 204
204 204 204
204 204 204
204 204 204
204 204 204
204 204 204
204 204 204
204 204 204
204 204 204
204 204 204
204 204 204
204 204 204
204 204 204
204 204 204
204 204 204
204 204 204
204 204 204
204 204 204
204 204 204
204 204 204
204 204 204
204 204 204
204 204 204
204 204 204
204 204 204
204 204 204
204 204 204
204 204 204
204 204 204
204 204 204
204 204 204
204 204 204
204 204 204
204 204 204
204 204 204
204 204 204
204 204 204
204 204 204
204 204 204
204 204 204
204 204 204
204 204 204
204 204 204
204 204 204
204 204 204
204 204 204
204 204 204
204 204 204
204 204 204
204 204 204
204 204 204
204 204 204
204 204 204
204 204 204
204 204 204
204 204 204
204 204 204
204 204 204
204 204 204
204 204 204
204 204 204
204 204 204
204 204 204
204 204 204
204 204 204
204 204 204
204 204 204
204 204 204
204 204 204
204 204 204
204 204 204
204 204 204
204 204 204
204 204 204
204 204 204
204 204 204
204 204 204
204 204 204
204 204 204
204 204 204
204 204 204
204 204 204
204 204 204
204 204 204
204 204 204
204 204 204
204 204 204
204 204 204
204 204 204
204 204 204
204 204 204
204 204 204
204 204 204
204 204 204
204 204 204
204 204 204
204 204 204
204 204 204
204 204 204
204 204 204
204 204 204
204 204 204
204 204 204
204 204 204
204 204 204
204 204 204
204 204 204
204 204 204
204 204 204
204 204 204
204 204 204
204 204 204
204 204 204
204 204 204
204 204 204
204 204 204
204 204 204
204 204 204
204 204 204
204 204 204
204 204 204
204 204 204
204 204 204
204 204 204
204 204 204
204 204 204
204 204 204
204 204 204
204 204 204
204 204 204
204 204 204
204 204 204
204 204 204
204 204 204
204 204 204
204 204 204
204 204 204
204 204 204
204 204 204
204 204 204
204 204 204
204 204 204
204 204 204
204 204 204
204 204 204
204 204 204
204 204 204
204 204 204
204 204 204
204 204 204
204 204 204
204 204 204
204 204 204
204 204 204
204 204 204
204 204 204
204 204 204
204 204 204
204 204 204
204 204 204
204 204 204
204 204 204
204 204 204
204 204 204
204 204 204
204 204 204
204 204 204
204 204 204
204 204 204
204 204 204
204 204 204
204 204 204
204 204 204
204 204 204
204 204 204
204 204 204
204 204 204
204 204 204
204 204 204
204 204 204
204 204 204
204 204 204
204 204 204
204 204 204
204 204 204
204 204 204
204 204 204
204 204 204
204 204 204
204 204 204
204 204 204
204 204 204
204 204 204
204 204 204
204 204 204
204 204 204
204 204 204
204 204 204
204 204 204
204 204 204
204 204 204
204 204 204
204 204 204
204 204 204
204 204 204
204 204 204
204 204 204
204 204 204
204 204 204
204 204 204
204 204 204
204 204 204
204 204 204
204 204 204
204 204 204
204 204 204
204 204 204
204 204 204
204 204 204
204 204 204
204 204 204
204 204 204
204 204 204
204 204 204
204 204 204
204 204 204
204 204 204
204 204 204
204 204 204
204 204 204
204 204 204
204 204 204
204 204 204
204 204 204
204 204 204
204 204 204
204 204 204
204 204 204
204 204 204
204 204 204
204 204 204
204 204 204
204 204 204
204 204 204
204 204 204
204 204 204
204 204 204
204 204 204
204 204 204
204 204 204
204 204 204
204 204 204
204 204 204
204 204 204
204 204 204
204 204 204
204 204 204
204 204 204
204 204 204
204 204 204
204 204 204
204 204 204
204 204 204
204 204 204
204 204 204
204 204 204
204 204 204
204 204 204
204 204 204
204 204 204
204 204 204
204 204 204
204 204 204
204 204 204
204 204 204
204 204 204
204 204 204
204 204 204
204 204 204
204 204 204
204 204 204
204 204 204
204 204 204
204 204 204
204 204 204
204 204 204
204 204 204
204 204 204
204 204 204
204 204 204
204 204 204
204 204 204
204 204 204
204 204 204
204 204 204
204 204 204
204 204 204
204 204 204
204 204 204
204 204 204
204 204 204
204 204 204
204 204 204
204 204 204
204 204 204
204 204 204
204 204 204
204 204 204
204 204 204
204 204 204
204 204 204
204 204 204
204 204 204
204 204 204
204 204 204
204 204 204
204 204 204
204 204 204
204 204 204
204 204 204
204 204 204
204 204 204
204 204 204
204 204 204
204 204 204
204 204 204
204 204 204
204 204 204
204 204 204
204 204 204
204 204 204
204 204 204
204 204 204
204 204 204
204 204 204
204 204 204
204 204 204
204 204 204
204 204 204
204 204 204
204 204 204
204 204 204
204 204 204
204 204 204
204 204 204
204 204 204
204 204 204
204 204 204
204 204 204
204 204 204
204 204 204
204 204 204
204 204 204
204 204 204
204 204 204
204 204 204
204 204 204
204 204 204
204 204 204
204 204 204
204 204 204
204 204 204
204 204 204
204 204 204
204 204 204
204 204 204
204 204 204
204 204 204
204 204 204
204 204 204
204 204 204
204 204 204
204 204 204
204 204 204
204 204 204
204 204 204
204 204 204
204 204 204
204 204 204
204 204 204
204 204 204
204 204 204
204 204 204
204 204 204
204 204 204
204 204 204
204 204 204
204 204 204
204 204 204
204 204 204
204 204 204
204 204 204
204 204 204
204 204 204
204 204 204
204 204 204
204 204 204
204 204 204
204 204 204
204 204 204
204 204 204
204 204 204
204 204 204
204 204 204
204 204 204
204 204 204
204 204 204
204 204 204
204 204 204
204 204 204
204 204 204
204 204 204
204 204 204
204 204 204
204 204 204
204 204 204
204 204 204
204 204 204
204 204 204
204 204 204
204 204 204
204 204 204
204 204 204
204 204 204
204 204 204
204 204 204
204 204 204
204 204 204
204 204 204
204 204 204
204 204 204
204 204 204
204 204 204
204 204 204
204 204 204
204 204 204
204 204 204
204 204 204
204 204 204
204 204 204
204 204 204
204 204 204
204 204 204
204 204 204
204 204 204
204 204 204
204 204 204
204 204 204
204 204 204
204 204 204
204 204 204
204 204 204
204 204 204
204 204 204
204 204 204
204 204 204
204 204 204
204 204 204
204 204 204
204 204 204
204 204 204
204 204 204
204 204 204
204 204 204
204 204 204
204 204 204
204 204 204
204 204 204
204 204 204
204 204 204
204 204 204
204 204 204
204 204 204
204 204 204
204 204 204
204 204 204
204 204 204
204 204 204
204 204 204
204 204 204
204 204 204
204 204 204
204 204 204
204 204 204
204 204 204
204 204 204
204 204 204
204 204 204
204 204 204
204 204 204
204 204 204
204 204 204
204 204 204
204 204 204
204 204 204
204 204 204
204 204 204
204 204 204
204 204 204
204 204 204
204 204 204
204 204 204
204 204 204
204 204 204
204 204 204
204 204 204
204 204 204
204 204 204
204 204 204
204 204 204
204 204 204
204 204 204
204 204 204
204 204 204
204 204 204
204 204 204
204 204 204
204 204 204
204 204 204
204 204 204
204 204 204
204 204 204
204 204 204
204 204 204
204 204 204
204 204 204
204 204 204
204 204 204
204 204 204
204 204 204
204 204 204
204 204 204
204 204 204
204 204 204
204 204 204
204 204 204
204 204 204
204 204 204
204 204 204
204 204 204
204 204 204
204 204 204
204 204 204
204 204 204
204 204 204
204 204 204
204 204 204
204 204 204
204 204 204
204 204 204
204 204 204
204 204 204
204 204 204
204 204 204
204 204 204
204 204 204
204 204 204
204 204 204
204 204 204
204 204 204
204 204 204
204 204 204
204 204 204
204 204 204
204 204 204
204 204 204
204 204 204
204 204 204
204 204 204
204 204 204
204 204 204
204 204 204
204 204 204
204 204 204
204 204 204
204 204 204
204 204 204
204 204 204
204 204 204
204 204 204
204 204 204
204 204 204
204 204 204
204 204 204
204 204 204
204 204 204
204 204 204
204 204 204
204 204 204
204 204 204
204 204 204
204 204 204
204 204 204
204 204 204
204 204 204
204 204 204
204 204 204
204 204 204
204 204 204
204 204 204
204 204 204
204 204 204
204 204 204
204 204 204
204 204 204
204 204 204
204 204 204
204 204 204
204 204 204
204 204 204
204 204 204
204 204 204
204 204 204
204 204 204
204 204 204
204 204 204
204 204 204
204 204 204
204 204 204
204 204 204
204 204 204
204 204 204
204 204 204
204 204 204
204 204 204
204 204 204
204 204 204
204 204 204
204 204 204
204 204 204
204 204 204
204 204 204
204 204 204
204 204 204
204 204 204
204 204 204
204 204 204
204 204 204
204 204 204
204 204 204
204 204 204
204 204 204
204 204 204
204 204 204
204 204 204
204 204 204
204 204 204
204 204 204
204 204 204
204 204 204
204 204 204
204 204 204
204 204 204
204 204 204
204 204 204
204 204 204
204 204 204
204 204 204
204 204 204
204 204 204
204 204 204
204 204 204
204 204 204
204 204 204
204 204 204
204 204 204
204 204 204
204 204 204
204 204 204
204 204 204
204 204 204
204 204 204
204 204 204
204 204 204
204 204 204
204 204 204
204 204 204
204 204 204
204 204 204
204 204 204
204 204 204
204 204 204
204 204 204
204 204 204
204 204 204
204 204 204
204 204 204
204 204 204
204 204 204
204 204 204
204 204 204
204 204 204
204 204 204
204 204 204
204 204 204
204 204 204
204 204 204
204 204 204
204 204 204
204 204 204
204 204 204
204 204 204
204 204 204
204 204 204
204 204 204
204 204 204
204 204 204
204 204 204
204 204 204
204 204 204
204 204 204
204 204 204
204 204 204
204 204 204
204 204 204
204 204 204
204 204 204
204 204 204
204 204 204
204 204 204
204 204 204
204 204 204
204 204 204
204 204 204
204 204 204
204 204 204
204 204 204
204 204 204
204 204 204
204 204 204
204 204 204
204 204 204
204 204 204
204 204 204
204 204 204
204 204 204
204 204 204
204 204 204
204 204 204
204 204 204
204 204 204
204 204 204
204 204 204
204 204 204
204 204 204
204 204 204
204 204 204
204 204 204
204 204 204
204 204 204
204 204 204
204 204 204
204 204 204
204 204 204
204 204 204
204 204 204
204 204 204
204 204 204
204 204 204
204 204 204
204 204 204
204 204 204
204 204 204
204 204 204
204 204 204
204 204 204
204 204 204
204 204 204
204 204 204
204 204 204
204 204 204
204 204 204
204 204 204
204 204 204
204 204 204
204 204 204
204 204 204
204 204 204
204 204 204
204 204 204
204 204 204
204 204 204
204 204 204
204 204 204
204 204 204
204 204 204
204 204 204
204 204 204
204 204 204
204 204 204
204 204 204
204 204 204
204 204 204
204 204 204
204 204 204
204 204 204
204 204 204
204 204 204
204 204 204
204 204 204
204 204 204
204 204 204
204 204 204
204 204 204
204 204 204
204 204 204
204 204 204
204 204 204
204 204 204
204 204 204
204 204 204
204 204 204
204 204 204
204 204 204
204 204 204
204 204 204
204 204 204
204 204 204
204 204 204
204 204 204
204 204 204
204 204 204
204 204 204
204 204 204
204 204 204
204 204 204
204 204 204
204 204 204
204 204 204
204 204 204
204 204 204
204 204 204
204 204 204
204 204 204
204 204 204
204 204 204
204 204 204
204 204 204
204 204 204
204 204 204
204 204 204
204 204 204
204 204 204
204 204 204
204 204 204
204 204 204
204 204 204
204 204 204
204 204 204
204 204 204
204 204 204
204 204 204
204 204 204
204 204 204
204 204 204
204 204 204
204 204 204
204 204 204
204 204 204
204 204 204
204 204 204
204 204 204
204 204 204
204 204 204
204 204 204
204 204 204
204 204 204
204 204 204
204 204 204
204 204 204
204 204 204
204 204 204
204 204 204
204 204 204
204 204 204
204 204 204
204 204 204
204 204 204
204 204 204
204 204 204
204 204 204
204 204 204
204 204 204
204 204 204
204 204 204
204 204 204
204 204 204
204 204 204
204 204 204
204 204 204
204 204 204
204 204 204
204 204 204
204 204 204
204 204 204
204 204 204
204 204 204
204 204 204
204 204 204
204 204 204
204 204 204
204 204 204
204 204 204
204 204 204
204 204 204
204 204 204
204 204 204
204 204 204
204 204 204
204 204 204
204 204 204
204 204 204
204 204 204
204 204 204
204 204 204
204 204 204
204 204 204
204 204 204
204 204 204
204 204 204
204 204 204
204 204 204
204 204 204
204 204 204
204 204 204
204 204 204
204 204 204
204 204 204
204 204 204
204 204 204
204 204 204
204 204 204
204 204 204
204 204 204
204 204 204
204 204 204
204 204 204
204 204 204
204 204 204
204 204 204
204 204 204
204 204 204
204 204 204
204 204 204
204 204 204
204 204 204
204 204 204
204 204 204
204 204 204
204 204 204
204 204 204
204 204 204
204 204 204
204 204 204
204 204 204
204 204 204
204 204 204
204 204 204
204 204 204
204 204 204
204 204 204
204 204 204
204 204 204
204 204 204
204 204 204
204 204 204
204 204 204
204 204 204
204 204 204
204 204 204
204 204 204
204 204 204
204 204 204
204 204 204
204 204 204
204 204 204
204 204 204
204 204 204
204 204 204
204 204 204
204 204 204
204 204 204
204 204 204
204 204 204
204 204 204
204 204 204
204 204 204
204 204 204
204 204 204
204 204 204
204 204 204
204 204 204
204 204 204
204 204 204
204 204 204
204 204 204
204 204 204
204 204 204
204 204 204
204 204 204
204 204 204
204 204 204
204 204 204
204 204 204
204 204 204
204 204 204
204 204 204
204 204 204
204 204 204
204 204 204
204 204 204
204 204 204
204 204 204
204 204 204
204 204 204
204 204 204
204 204 204
204 204 204
204 204 204
204 204 204
204 204 204
204 204 204
204 204 204
204 204 204
204 204 204
204 204 204
204 204 204
204 204 204
204 204 204
204 204 204
204 204 204
204 204 204
204 204 204
204 204 204
204 204 204
204 204 204
204 204 204
204 204 204
204 204 204
204 204 204
204 204 204
204 204 204
204 204 204
204 204 204
204 204 204
204 204 204
204 204 204
204 204 204
204 204 204
204 204 204
204 204 204
204 204 204
204 204 204
204 204 204
204 204 204
204 204 204
204 204 204
204 204 204
204 204 204
204 204 204
204 204 204
204 204 204
204 204 204
204 204 204
204 204 204
204 204 204
204 204 204
204 204 204
204 204 204
204 204 204
204 204 204
204 204 204
204 204 204
204 204 204
204 204 204
204 204 204
204 204 204
204 204 204
204 204 204
204 204 204
204 204 204
204 204 204
204 204 204
204 204 204
204 204 204
204 204 204
204 204 204
204 204 204
204 204 204
204 204 204
204 204 204
204 204 204
204 204 204
204 204 204
204 204 204
204 204 204
204 204 204
204 204 204
204 204 204
204 204 204
204 204 204
204 204 204
204 204 204
204 204 204
204 204 204
204 204 204
204 204 204
204 204 204
204 204 204
204 204 204
204 204 204
204 204 204
204 204 204
204 204 204
204 204 204
204 204 204
204 204 204
204 204 204
204 204 204
204 204 204
204 204 204
204 204 204
204 204 204
204 204 204
204 204 204
204 204 204
204 204 204
204 204 204
204 204 204
204 204 204
204 204 204
204 204 204
204 204 204
204 204 204
204 204 204
204 204 204
204 204 204
204 204 204
204 204 204
204 204 204
204 204 204
204 204 204
204 204 204
204 204 204
204 204 204
204 204 204
204 204 204
204 204 204
204 204 204
204 204 204
204 204 204
204 204 204
204 204 204
204 204 204
204 204 204
204 204 204
204 204 204
204 204 204
204 204 204
204 204 204
204 204 204
204 204 204
204 204 204
204 204 204
204 204 204
204 204 204
204 204 204
204 204 204
204 204 204
204 204 204
204 204 204
204 204 204
204 204 204
204 204 204
204 204 204
204 204 204
204 204 204
204 204 204
204 204 204
204 204 204
204 204 204
204 204 204
204 204 204
204 204 204
204 204 204
204 204 204
204 204 204
204 204 204
204 204 204
204 204 204
204 204 204
204 204 204
204 204 204
204 204 204
204 204 204
204 204 204
204 204 204
204 204 204
204 204 204
204 204 204
204 204 204
204 204 204
204 204 204
204 204 204
204 204 204
204 204 204
204 204 204
204 204 204
204 204 204
204 204 204
204 204 204
204 204 204
204 204 204
204 204 204
204 204 204
204 204 204
204 204 204
204 204 204
204 204 204
204 204 204
204 204 204
204 204 204
204 204 204
204 204 204
204 204 204
204 204 204
204 204 204
204 204 204
204 204 204
204 204 204
204 204 204
204 204 204
204 204 204
204 204 204
204 204 204
204 204 204
204 204 204
204 204 204
204 204 204
204 204 204
204 204 204
204 204 204
204 204 204
204 204 204
204 204 204
204 204 204
204 204 204
204 204 204
204 204 204
204 204 204
204 204 204
204 204 204
204 204 204
204 204 204
204 204 204
204 204 204
204 204 204
204 204 204
204 204 204
204 204 204
204 204 204
204 204 204
204 204 204
204 204 204
204 204 204
204 204 204
204 204 204
204 204 204
204 204 204
204 204 204
204 204 204
204 204 204
204 204 204
204 204 204
204 204 204
204 204 204
204 204 204
204 204 204
204 204 204
204 204 204
204 204 204
204 204 204
204 204 204
204 204 204
204 204 204
204 204 204
204 204 204
204 204 204
204 204 204
204 204 204
204 204 204
204 204 204
204 204 204
204 204 204
204 204 204
204 204 204
204 204 204
204 204 204
204 204 204
204 204 204
204 204 204
204 204 204
204 204 204
204 204 204
204 204 204
204 204 204
204 204 204
204 204 204
204 204 204
204 204 204
204 204 204
204 204 204
204 204 204
204 204 204
204 204 204
204 204 204
204 204 204
204 204 204
204 204 204
204 204 204
204 204 204
204 204 204
204 204 204
204 204 204
204 204 204
204 204 204
204 204 204
204 204 204
204 204 204
204 204 204
204 204 204
204 204 204
204 204 204
204 204 204
204 204 204
204 204 204
204 204 204
204 204 204
204 204 204
204 204 204
204 204 204
204 204 204
204 204 204
204 204 204
204 204 204
204 204 204
204 204 204
204 204 204
204 204 204
204 204 204
204 204 204
204 204 204
204 204 204
204 204 204
204 204 204
204 204 204
204 204 204
204 204 204
204 204 204
204 204 204
204 204 204
204 204 204
204 204 204
204 204 204
204 204 204
204 204 204
204 204 204
204 204 204
204 204 204
204 204 204
204 204 204
204 204 204
204 204 204
204 204 204
204 204 204
204 204 204
204 204 204
204 204 204
204 204 204
204 204 204
204 204 204
204 204 204
204 204 204
204 204 204
204 204 204
204 204 204
204 204 204
204 204 204
204 204 204
204 204 204
204 204 204
204 204 204
204 204 204
204 204 204
204 204 204
204 204 204
204 204 204
204 204 204
204 204 204
204 204 204
204 204 204
204 204 204
204 204 204
204 204 204
204 204 204
204 204 204
204 204 204
204 204 204
204 204 204
204 204 204
204 204 204
204 204 204
204 204 204
204 204 204
204 204 204
204 204 204
204 204 204
204 204 204
204 204 204
204 204 204
204 204 204
204 204 204
204 204 204
204 204 204
204 204 204
204 204 204
204 204 204
204 204 204
204 204 204
204 204 204
204 204 204
204 204 204
204 204 204
204 204 204
204 204 204
204 204 204
204 204 204
204 204 204
204 204 204
204 204 204
204 204 204
204 204 204
204 204 204
204 204 204
204 204 204
204 204 204
204 204 204
204 204 204
204 204 204
204 204 204
204 204 204
204 204 204
204 204 204
204 204 204
204 204 204
204 204 204
204 204 204
204 204 204
204 204 204
204 204 204
204 204 204
204 204 204
204 204 204
204 204 204
204 204 204
204 204 204
204 204 204
204 204 204
204 204 204
204 204 204
204 204 204
204 204 204
204 204 204
204 204 204
204 204 204
204 204 204
204 204 204
204 204 204
204 204 204
204 204 204
204 204 204
204 204 204
204 204 204
204 204 204
204 204 204
204 204 204
204 204 204
204 204 204
204 204 204
204 204 204
204 204 204
204 204 204
204 204 204
204 204 204
204 204 204
204 204 204
204 204 204
204 204 204
204 204 204
204 204 204
204 204 204
204 204 204
204 204 204
204 204 204
204 204 204
204 204 204
204 204 204
204 204 204
204 204 204
204 204 204
204 204 204
204 204 204
204 204 204
204 204 204
204 204 204
204 204 204
204 204 204
204 204 204
204 204 204
204 204 204
204 204 204
204 204 204
204 204 204
204 204 204
204 204 204
204 204 204
204 204 204
204 204 204
204 204 204
204 204 204
204 204 204
204 204 204
204 204 204
204 204 204
204 204 204
204 204 204
204 204 204
204 204 204
204 204 204
204 204 204
204 204 204
204 204 204
204 204 204
204 204 204
204 204 204
204 204 204
204 204 204
204 204 204
204 204 204
204 204 204
204 204 204
204 204 204
204 204 204
204 204 204
204 204 204
204 204 204
204 204 204
204 204 204
204 204 204
204 204 204
204 204 204
204 204 204
204 204 204
204 204 204
204 204 204
204 204 204
204 204 204
204 204 204
204 204 204
204 204 204
204 204 204
204 204 204
204 204 204
204 204 204
204 204 204
204 204 204
204 204 204
204 204 204
204 204 204
204 204 204
204 204 204
204 204 204
204 204 204
204 204 204
204 204 204
204 204 204
204 204 204
204 204 204
204 204 204
204 204 204
204 204 204
204 204 204
204 204 204
204 204 204
204 204 204
204 204 204
204 204 204
204 204 204
204 204 204
204 204 204
204 204 204
204 204 204
204 204 204
204 204 204
204 204 204
204 204 204
204 204 204
204 204 204
204 204 204
204 204 204
204 204 204
204 204 204
204 204 204
204 204 204
204 204 204
204 204 204
204 204 204
204 204 204
204 204 204
204 204 204
204 204 204
204 204 204
204 204 204
204 204 204
204 204 204
204 204 204
204 204 204
204 204 204
204 204 204
204 204 204
204 204 204
204 204 204
204 204 204
204 204 204
204 204 204
204 204 204
204 204 204
204 204 204
204 204 204
204 204 204
204 204 204
204 204 204
204 204 204
204 204 204
204 204 204
204 204 204
204 204 204
204 204 204
204 204 204
204 204 204
204 204 204
204 204 204
204 204 204
204 204 204
204 204 204
204 204 204
204 204 204
204 204 204
204 204 204
204 204 204
204 204 204
204 204 204
204 204 204
204 204 204
204 204 204
204 204 204
204 204 204
204 204 204
204 204 204
204 204 204
204 204 204
204 204 204
204 204 204
204 204 204
204 204 204
204 204 204
204 204 204
204 204 204
204 204 204
204 204 204
204 204 204
204 204 204
204 204 204
204 204 204
204 204 204
204 204 204
204 204 204
204 204 204
204 204 204
204 204 204
204 204 204
204 204 204
204 204 204
204 204 204
204 204 204
204 204 204
204 204 204
204 204 204
204 204 204
204 204 204
204 204 204
204 204 204
204 204 204
204 204 204
204 204 204
204 204 204
204 204 204
204 204 204
204 204 204
204 204 204
204 204 204
204 204 204
204 204 204
204 204 204
204 204 204
204 204 204
204 204 204
204 204 204
204 204 204
204 204 204
204 204 204
204 204 204
204 204 204
204 204 204
204 204 204
204 204 204
204 204 204
204 204 204
204 204 204
204 204 204
204 204 204
204 204 204
204 204 204
204 204 204
204 204 204
204 204 204
204 204 204
204 204 204
204 204 204
204 204 204
204 204 204
204 204 204
204 204 204
204 204 204
204 204 204
204 204 204
204 204 204
204 204 204
204 204 204
204 204 204
204 204 204
204 204 204
204 204 204
204 204 204
204 204 204
204 204 204
204 204 204
204 204 204
204 204 204
204 204 204
204 204 204
204 204 204
204 204 204
204 204 204
204 204 204
204 204 204
204 204 204
204 204 204
204 204 204
204 204 204
204 204 204
204 204 204
204 204 204
204 204 204
204 204 204
204 204 204
204 204 204
204 204 204
204 204 204
204 204 204
204 204 204
204 204 204
204 204 204
204 204 204
204 204 204
204 204 204
204 204 204
204 204 204
204 204 204
204 204 204
204 204 204
204 204 204
204 204 204
204 204 204
204 204 204
204 204 204
204 204 204
204 204 204
204 204 204
204 204 204
204 204 204
204 204 204
204 204 204
204 204 204
204 204 204
204 204 204
204 204 204
204 204 204
204 204 204
204 204 204
204 204 204
204 204 204
204 204 204
204 204 204
204 204 204
204 204 204
204 204 204
204 204 204
204 204 204
204 204 204
204 204 204
204 204 204
204 204 204
204 204 204
204 204 204
204 204 204
204 204 204
204 204 204
204 204 204
204 204 204
204 204 204
204 204 204
204 204 204
204 204 204
204 204 204
204 204 204
204 204 204
204 204 204
204 204 204
204 204 204
204 204 204
204 204 204
204 204 204
204 204 204
204 204 204
204 204 204
204 204 204
204 204 204
204 204 204
204 204 204
204 204 204
204 204 204
204 204 204
204 204 204
204 204 204
204 204 204
204 204 204
204 204 204
204 204 204
204 204 204
204 204 204
204 204 204
204 204 204
204 204 204
204 204 204
204 204 204
204 204 204
204 204 204
204 204 204
204 204 204
204 204 204
204 204 204
204 204 204
204 204 204
204 204 204
204 204 204
204 204 204
204 204 204
204 204 204
204 204 204
204 204 204
204 204 204
204 204 204
204 204 204
204 204 204
204 204 204
204 204 204
204 204 204
204 204 204
204 204 204
204 204 204
204 204 204
204 204 204
204 204 204
204 204 204
204 204 204
204 204 204
204 204 204
204 204 204
204 204 204
204 204 204
204 204 204
204 204 204
204 204 204
204 204 204
204 204 204
204 204 204
204 204 204
204 204 204
204 204 204
204 204 204
204 204 204
204 204 204
204 204 204
204 204 204
204 204 204
204 204 204
204 204 204
204 204 204
204 204 204
204 204 204
204 204 204
204 204 204
204 204 204
204 204 204
204 204 204
204 204 204
204 204 204
204 204 204
204 204 204
204 204 204
204 204 204
204 204 204
204 204 204
204 204 204
204 204 204
204 204 204
204 204 204
204 204 204
204 204 204
204 204 204
204 204 204
204 204 204
204 204 204
204 204 204
204 204 204
204 204 204
204 204 204
204 204 204
204 204 204
204 204 204
204 204 204
204 204 204
204 204 204
204 204 204
204 204 204
204 204 204
204 204 204
204 204 204
204 204 204
204 204 204
204 204 204
204 204 204
204 204 204
204 204 204
204 204 204
204 204 204
204 204 204
204 204 204
204 204 204
204 204 204
204 204 204
204 204 204
204 204 204
204 204 204
204 204 204
204 204 204
204 204 204
204 204 204
204 204 204
204 204 204
204 204 204
204 204 204
204 204 204
204 204 204
204 204 204
204 204 204
204 204 204
204 204 204
204 204 204
204 204 204
204 204 204
204 204 204
204 204 204
204 204 204
204 204 204
204 204 204
204 204 204
204 204 204
204 204 204
204 204 204
204 204 204
204 204 204
204 204 204
204 204 204
204 204 204
204 204 204
204 204 204
204 204 204
204 204 204
204 204 204
204 204 204
204 204 204
204 204 204
204 204 204
204 204 204
204 204 204
204 204 204
204 204 204
204 204 204
204 204 204
204 204 204
204 204 204
204 204 204
204 204 204
204 204 204
204 204 204
204 204 204
204 204 204
204 204 204
204 204 204
204 204 204
204 204 204
204 204 204
204 204 204
204 204 204
204 204 204
204 204 204
204 204 204
204 204 204
204 204 204
204 204 204
204 204 204
204 204 204
204 204 204
204 204 204
204 204 204
204 204 204
204 204 204
204 204 204
204 204 204
204 204 204
204 204 204
204 204 204
204 204 204
204 204 204
204 204 204
204 204 204
204 204 204
204 204 204
204 204 204
204 204 204
204 204 204
204 204 204
204 204 204
204 204 204
204 204 204
204 204 204
204 204 204
204 204 204
204 204 204
204 204 204
204 204 204
204 204 204
204 204 204
204 204 204
204 204 204
204 204 204
204 204 204
204 204 204
204 204 204
204 204 204
204 204 204
204 204 204
204 204 204
204 204 204
204 204 204
204 204 204
204 204 204
204 204 204
204 204 204
204 204 204
204 204 204
204 204 204
204 204 204
204 204 204
204 204 204
204 204 204
204 204 204
204 204 204
204 204 204
204 204 204
204 204 204
204 204 204
204 204 204
204 204 204
204 204 204
204 204 204
204 204 204
204 204 204
204 204 204
204 204 204
204 204 204
204 204 204
204 204 204
204 204 204
204 204 204
204 204 204
204 204 204
204 204 204
204 204 204
204 204 204
204 204 204
204 204 204
204 204 204
204 204 204
204 204 204
204 204 204
204 204 204
204 204 204
204 204 204
204 204 204
204 204 204
204 204 204
204 204 204
204 204 204
204 204 204
204 204 204
204 204 204
204 204 204
204 204 204
204 204 204
204 204 204
204 204 204
204 204 204
204 204 204
204 204 204
204 204 204
204 204 204
204 204 204
204 204 204
204 204 204
204 204 204
204 204 204
204 204 204
204 204 204
204 204 204
204 204 204
204 204 204
204 204 204
204 204 204
204 204 204
204 204 204
204 204 204
204 204 204
204 204 204
204 204 204
204 204 204
204 204 204
204 204 204
204 204 204
204 204 204
204 204 204
204 204 204
204 204 204
204 204 204
204 204 204
204 204 204
204 204 204
204 204 204
204 204 204
204 204 204
204 204 204
204 204 204
204 204 204
204 204 204
204 204 204
204 204 204
204 204 204
204 204 204
204 204 204
204 204 204
204 204 204
204 204 204
204 204 204
204 204 204
204 204 204
204 204 204
204 204 204
204 204 204
204 204 204
204 204 204
204 204 204
204 204 204
204 204 204
204 204 204
204 204 204
204 204 204
204 204 204
204 204 204
204 204 204
204 204 204
204 204 204
204 204 204
204 204 204
204 204 204
204 204 204
204 204 204
204 204 204
204 204 204
204 204 204
204 204 204
204 204 204
204 204 204
204 204 204
204 204 204
204 204 204
204 204 204
204 204 204
204 204 204
204 204 204
204 204 204
204 204 204
204 204 204
204 204 204
204 204 204
204 204 204
204 204 204
204 204 204
204 204 204
204 204 204
204 204 204
204 204 204
204 204 204
204 204 204
204 204 204
204 204 204
204 204 204
204 204 204
204 204 204
204 204 204
204 204 204
204 204 204
204 204 204
204 204 204
204 204 204
204 204 204
204 204 204
204 204 204
204 204 204
204 204 204
204 204 204
204 204 204
204 204 204
204 204 204
204 204 204
204 204 204
204 204 204
204 204 204
204 204 204
204 204 204
204 204 204
204 204 204
204 204 204
204 204 204
204 204 204
204 204 204
204 204 204
204 204 204
204 204 204
204 204 204
204 204 204
204 204 204
204 204 204
204 204 204
204 204 204
204 204 204
204 204 204
204 204 204
204 204 204
204 204 204
204 204 204
204 204 204
204 204 204
204 204 204
204 204 204
204 204 204
204 204 204
204 204 204
204 204 204
204 204 204
204 204 204
204 204 204
204 204 204
204 204 204
204 204 204
204 204 204
204 204 204
204 204 204
204 204 204
204 204 204
204 204 204
204 204 204
204 204 204
204 204 204
204 204 204
204 204 204
204 204 204
204 204 204
204 204 204
204 204 204
204 204 204
204 204 204
204 204 204
204 204 204
204 204 204
204 204 204
204 204 204
204 204 204
204 204 204
204 204 204
204 204 204
204 204 204
204 204 204
204 204 204
204 204 204
204 204 204
204 204 204
204 204 204
204 204 204
204 204 204
204 204 204
204 204 204
204 204 204
204 204 204
204 204 204
204 204 204
204 204 204
204 204 204
204 204 204
204 204 204
204 204 204
204 204 204
204 204 204
204 204 204
204 204 204
204 204 204
204 204 204
204 204 204
204 204 204
204 204 204
204 204 204
204 204 204
204 204 204
204 204 204
204 204 204
204 204 204
204 204 204
204 204 204
204 204 204
204 204 204
204 204 204
204 204 204
204 204 204
204 204 204
204 204 204
204 204 204
204 204 204
204 204 204
204 204 204
204 204 204
204 204 204
204 204 204
204 204 204
204 204 204
204 204 204
204 204 204
204 204 204
204 204 204
204 204 204
204 204 204
204 204 204
204 204 204
204 204 204
204 204 204
204 204 204
204 204 204
204 204 204
204 204 204
204 204 204
204 204 204
204 204 204
204 204 204
204 204 204
204 204 204
204 204 204
204 204 204
204 204 204
204 204 204
204 204 204
204 204 204
204 204 204
204 204 204
204 204 204
204 204 204
204 204 204
204 204 204
204 204 204
204 204 204
204 204 204
204 204 204
204 204 204
204 204 204
204 204 204
204 204 204
204 204 204
204 204 204
204 204 204
204 204 204
204 204 204
204 204 204
204 204 204
204 204 204
204 204 204
204 204 204
204 204 204
204 204 204
204 204 204
204 204 204
204 204 204
204 204 204
204 204 204
204 204 204
204 204 204
204 204 204
204 204 204
204 204 204
204 204 204
204 204 204
204 204 204
204 204 204
204 204 204
204 204 204
204 204 204
204 204 204
204 204 204
204 204 204
204 204 204
204 204 204
204 204 204
204 204 204
204 204 204
204 204 204
204 204 204
204 204 204
204 204 204
204 204 204
204 204 204
204 204 204
204 204 204
204 204 204
204 204 204
204 204 204
204 204 204
204 204 204
204 204 204
204 204 204
204 204 204
204 204 204
204 204 204
204 204 204
204 204 204
204 204 204
204 204 204
204 204 204
204 204 204
204 204 204
204 204 204
204 204 204
204 204 204
204 204 204
204 204 204
204 204 204
204 204 204
204 204 204
204 204 204
204 204 204
204 204 204
204 204 204
204 204 204
204 204 204
204 204 204
204 204 204
204 204 204
204 204 204
204 204 204
204 204 204
204 204 204
204 204 204
204 204 204
204 204 204
204 204 204
204 204 204
204 204 204
204 204 204
204 204 204
204 204 204
204 204 204
204 204 204
204 204 204
204 204 204
204 204 204
204 204 204
204 204 204
204 204 204
204 204 204
204 204 204
204 204 204
204 204 204
204 204 204
204 204 204
204 204 204
204 204 204
204 204 204
204 204 204
204 204 204
204 204 204
204 204 204
204 204 204
204 204 204
204 204 204
204 204 204
204 204 204
204 204 204
204 204 204
204 204 204
204 204 204
204 204 204
204 204 204
204 204 204
204 204 204
204 204 204
204 204 204
204 204 204
204 204 204
204 204 204
204 204 204
204 204 204
204 204 204
204 204 204
204 204 204
204 204 204
204 204 204
204 204 204
204 204 204
204 204 204
204 204 204
204 204 204
204 204 204
204 204 204
204 204 204
204 204 204
204 204 204
204 204 204
204 204 204
204 204 204
204 204 204
204 204 204
204 204 204
204 204 204
204 204 204
204 204 204
204 204 204
204 204 204
204 204 204
204 204 204
204 204 204
204 204 204
204 204 204
204 204 204
204 204 204
204 204 204
204 204 204
204 204 204
204 204 204
204 204 204
204 204 204
204 204 204
204 204 204
204 204 204
204 204 204
204 204 204
204 204 204
204 204 204
204 204 204
204 204 204
204 204 204
204 204 204
204 204 204
204 204 204
204 204 204
204 204 204
204 204 204
204 204 204
204 204 204
204 204 204
204 204 204
204 204 204
204 204 204
204 204 204
204 204 204
204 204 204
204 204 204
204 204 204
204 204 204
204 204 204
204 204 204
204 204 204
204 204 204
204 204 204
204 204 204
204 204 204
204 204 204
204 204 204
204 204 204
204 204 204
204 204 204
204 204 204
204 204 204
204 204 204
204 204 204
204 204 204
204 204 204
204 204 204
204 204 204
204 204 204
204 204 204
204 204 204
204 204 204
204 204 204
204 204 204
204 204 204
204 204 204
204 204 204
204 204 204
204 204 204
204 204 204
204 204 204
204 204 204
204 204 204
204 204 204
204 204 204
204 204 204
204 204 204
204 204 204
204 204 204
204 204 204
204 204 204
204 204 204
204 204 204
204 204 204
204 204 204
204 204 204
204 204 204
204 204 204
204 204 204
204 204 204
204 204 204
204 204 204
204 204 204
204 204 204
204 204 204
204 204 204
204 204 204
204 204 204
204 204 204
204 204 204
204 204 204
204 204 204
204 204 204
204 204 204
204 204 204
204 204 204
204 204 204
204 204 204
204 204 204
204 204 204
204 204 204
204 204 204
204 204 204
204 204 204
204 204 204
204 204 204
204 204 204
204 204 204
204 204 204
204 204 204
204 204 204
204 204 204
204 204 204
204 204 204
204 204 204
204 204 204
204 204 204
204 204 204
204 204 204
204 204 204
204 204 204
204 204 204
204 204 204
204 204 204
204 204 204
204 204 204
204 204 204
204 204 204
204 204 204
204 204 204
204 204 204
204 204 204
204 204 204
204 204 204
204 204 204
204 204 204
204 204 204
204 204 204
204 204 204
204 204 204
204 204 204
204 204 204
204 204 204
204 204 204
204 204 204
204 204 204
204 204 204
204 204 204
204 204 204
204 204 204
204 204 204
204 204 204
204 204 204
204 204 204
204 204 204
204 204 204
204 204 204
204 204 204
204 204 204
204 204 204
204 204 204
204 204 204
204 204 204
204 204 204
204 204 204
204 204 204
204 204 204
204 204 204
204 204 204
204 204 204
204 204 204
204 204 204
204 204 204
204 204 204
204 204 204
204 204 204
204 204 204
204 204 204
204 204 204
204 204 204
204 204 204
204 204 204
204 204 204
204 204 204
204 204 204
204 204 204
204 204 204
204 204 204
204 204 204
204 204 204
204 204 204
204 204 204
204 204 204
204 204 204
204 204 204
204 204 204
204 204 204
204 204 204
204 204 204
204 204 204
204 204 204
204 204 204
204 204 204
204 204 204
204 204 204
204 204 204
204 204 204
204 204 204
204 204 204
204 204 204
204 204 204
204 204 204
204 204 204
204 204 204
204 204 204
204 204 204
204 204 204
204 204 204
204 204 204
204 204 204
204 204 204
204 204 204
204 204 204
204 204 204
204 204 204
204 204 204
204 204 204
204 204 204
204 204 204
204 204 204
204 204 204
204 204 204
204 204 204
204 204 204
204 204 204
204 204 204
204 204 204
204 204 204
204 204 204
204 204 204
204 204 204
204 204 204
204 204 204
204 204 204
204 204 204
204 204 204
204 204 204
204 204 204
204 204 204
204 204 204
204 204 204
204 204 204
204 204 204
204 204 204
204 204 204
204 204 204
204 204 204
204 204 204
204 204 204
204 204 204
204 204 204
204 204 204
204 204 204
204 204 204
204 204 204
204 204 204
204 204 204
204 204 204
204 204 204
204 204 204
204 204 204
204 204 204
204 204 204
204 204 204
204 204 204
204 204 204
204 204 204
204 204 204
204 204 204
204 204 204
204 204 204
204 204 204
204 204 204
204 204 204
204 204 204
204 204 204
204 204 204
204 204 204
204 204 204
204 204 204
204 204 204
204 204 204
204 204 204
204 204 204
204 204 204
204 204 204
204 204 204
204 204 204
204 204 204
204 204 204
204 204 204
204 204 204
204 204 204
204 204 204
204 204 204
204 204 204
204 204 204
204 204 204
204 204 204
204 204 204
204 204 204
204 204 204
204 204 204
204 204 204
204 204 204
204 204 204
204 204 204
204 204 204
204 204 204
204 204 204
204 204 204
204 204 204
204 204 204
204 204 204
204 204 204
204 204 204
204 204 204
204 204 204
204 204 204
204 204 204
204 204 204
204 204 204
204 204 204
204 204 204
204 204 204
204 204 204
204 204 204
204 204 204
204 204 204
204 204 204
204 204 204
204 204 204
204 204 204
204 204 204
204 204 204
204 204 204
204 204 204
204 204 204
204 204 204
204 204 204
204 204 204
204 204 204
204 204 204
204 204 204
204 204 204
204 204 204
204 204 204
204 204 204
204 204 204
204 204 204
204 204 204
204 204 204
204 204 204
204 204 204
204 204 204
204 204 204
204 204 204
204 204 204
204 204 204
204 204 204
204 204 204
204 204 204
204 204 204
204 204 204
204 204 204
204 204 204
204 204 204
204 204 204
204 204 204
204 204 204
204 204 204
204 204 204
204 204 204
204 204 204
204 204 204
204 204 204
204 204 204
204 204 204
204 204 204
204 204 204
204 204 204
204 204 204
204 204 204
204 204 204
204 204 204
204 204 204
204 204 204
204 204 204
204 204 204
204 204 204
204 204 204
204 204 204
204 204 204
204 204 204
204 204 204
204 204 204
204 204 204
204 204 204
204 204 204
204 204 204
204 204 204
204 204 204
204 204 204
204 204 204
204 204 204
204 204 204
204 204 204
204 204 204
204 204 204
204 204 204
204 204 204
204 204 204
204 204 204
204 204 204
204 204 204
204 204 204
204 204 204
204 204 204
204 204 204
204 204 204
204 204 204
204 204 204
204 204 204
204 204 204
204 204 204
204 204 204
204 204 204
204 204 204
204 204 204
204 204 204
204 204 204
204 204 204
204 204 204
204 204 204
204 204 204
204 204 204
204 204 204
204 204 204
204 204 204
204 204 204
204 204 204
204 204 204
204 204 204
204 204 204
204 204 204
204 204 204
204 204 204
204 204 204
204 204 204
204 204 204
204 204 204
204 204 204
204 204 204
204 204 204
204 204 204
204 204 204
204 204 204
204 204 204
204 204 204
204 204 204
204 204 204
204 204 204
204 204 204
204 204 204
204 204 204
204 204 204
204 204 204
204 204 204
204 204 204
204 204 204
204 204 204
204 204 204
204 204 204
204 204 204
204 204 204
204 204 204
204 204 204
204 204 204
204 204 204
204 204 204
204 204 204
204 204 204
204 204 204
204 204 204
204 204 204
204 204 204
204 204 204
204 204 204
204 204 204
204 204 204
204 204 204
204 204 204
204 204 204
204 204 204
204 204 204
204 204 204
204 204 204
204 204 204
204 204 204
204 204 204
204 204 204
204 204 204
204 204 204
204 204 204
204 204 204
204 204 204
204 204 204
204 204 204
204 204 204
204 204 204
204 204 204
204 204 204
204 204 204
204 204 204
204 204 204
204 204 204
204 204 204
204 204 204
204 204 204
204 204 204
204 204 204
204 204 204
204 204 204
204 204 204
204 204 204
204 204 204
204 204 204
204 204 204
204 204 204
204 204 204
204 204 204
204 204 204
204 204 204
204 204 204
204 204 204
204 204 204
204 204 204
204 204 204
204 204 204
204 204 204
204 204 204
204 204 204
204 204 204
204 204 204
204 204 204
204 204 204
204 204 204
204 204 204
204 204 204
204 204 204
204 204 204
204 204 204
204 204 204
204 204 204
204 204 204
204 204 204
204 204 204
204 204 204
204 204 204
204 204 204
204 204 204
204 204 204
204 204 204
204 204 204
204 204 204
204 204 204
204 204 204
204 204 204
204 204 204
204 204 204
204 204 204
204 204 204
204 204 204
204 204 204
204 204 204
204 204 204
204 204 204
204 204 204
204 204 204
204 204 204
204 204 204
204 204 204
204 204 204
204 204 204
204 204 204
204 204 204
204 204 204
204 204 204
204 204 204
204 204 204
204 204 204
204 204 204
204 204 204
204 204 204
204 204 204
204 204 204
204 204 204
204 204 204
204 204 204
204 204 204
204 204 204
204 204 204
204 204 204
204 204 204
204 204 204
204 204 204
204 204 204
204 204 204
204 204 204
204 204 204
204 204 204
204 204 204
204 204 204
204 204 204
204 204 204
204 204 204
204 204 204
204 204 204
204 204 204
204 204 204
204 204 204
204 204 204
204 204 204
204 204 204
204 204 204
204 204 204
204 204 204
204 204 204
204 204 204
204 204 204
204 204 204
204 204 204
204 204 204
204 204 204
204 204 204
204 204 204
204 204 204
204 204 204
204 204 204
204 204 204
204 204 204
204 204 204
204 204 204
204 204 204
204 204 204
204 204 204
204 204 204
204 204 204
204 204 204
204 204 204
204 204 204
204 204 204
204 204 204
204 204 204
204 204 204
204 204 204
204 204 204
204 204 204
204 204 204
204 204 204
204 204 204
204 204 204
204 204 204
204 204 204
204 204 204
204 204 204
204 204 204
204 204 204
204 204 204
204 204 204
204 204 204
204 204 204
204 204 204
204 204 204
204 204 204
204 204 204
204 204 204
204 204 204
204 204 204
204 204 204
204 204 204
204 204 204
204 204 204
204 204 204
204 204 204
204 204 204
204 204 204
204 204 204
204 204 204
204 204 204
204 204 204
204 204 204
204 204 204
204 204 204
204 204 204
204 204 204
204 204 204
204 204 204
204 204 204
204 204 204
204 204 204
204 204 204
204 204 204
204 204 204
204 204 204
204 204 204
204 204 204
204 204 204
204 204 204
204 204 204
204 204 204
204 204 204
204 204 204
204 204 204
204 204 204
204 204 204
204 204 204
204 204 204
204 204 204
204 204 204
204 204 204
204 204 204
204 204 204
204 204 204
204 204 204
204 204 204
204 204 204
204 204 204
204 204 204
204 204 204
204 204 204
204 204 204
204 204 204
204 204 204
204 204 204
204 204 204
204 204 204
204 204 204
204 204 204
204 204 204
204 204 204
204 204 204
204 204 204
204 204 204
204 204 204
204 204 204
204 204 204
204 204 204
204 204 204
204 204 204
204 204 204
204 204 204
204 204 204
204 204 204
204 204 204
204 204 204
204 204 204
204 204 204
204 204 204
204 204 204
204 204 204
204 204 204
204 204 204
204 204 204
204 204 204
204 204 204
204 204 204
204 204 204
204 204 204
204 204 204
204 204 204
204 204 204
204 204 204
204 204 204
204 204 204
204 204 204
204 204 204
204 204 204
204 204 204
204 204 204
204 204 204
204 204 204
204 204 204
204 204 204
204 204 204
204 204 204
204 204 204
204 204 204
204 204 204
204 204 204
204 204 204
204 204 204
204 204 204
204 204 204
204 204 204
204 204 204
204 204 204
204 204 204
204 204 204
204 204 204
204 204 204
204 204 204
204 204 204
204 204 204
204 204 204
204 204 204
204 204 204
204 204 204
204 204 204
204 204 204
204 204 204
204 204 204
204 204 204
204 204 204
204 204 204
204 204 204
204 204 204
204 204 204
204 204 204
204 204 204
204 204 204
204 204 204
204 204 204
204 204 204
204 204 204
204 204 204
204 204 204
204 204 204
204 204 204
204 204 204
204 204 204
204 204 204
204 204 204
204 204 204
204 204 204
204 204 204
204 204 204
204 204 204
204 204 204
204 204 204
204 204 204
204 204 204
204 204 204
204 204 204
204 204 204
204 204 204
204 204 204
204 204 204
204 204 204
204 204 204
204 204 204
204 204 204
204 204 204
204 204 204
204 204 204
204 204 204
204 204 204
204 204 204
204 204 204
204 204 204
204 204 204
204 204 204
204 204 204
204 204 204
204 204 204
204 204 204
204 204 204
204 204 204
204 204 204
204 204 204
204 204 204
204 204 204
204 204 204
204 204 204
204 204 204
204 204 204
204 204 204
204 204 204
204 204 204
204 204 204
204 204 204
204 204 204
204 204 204
204 204 204
204 204 204
204 204 204
204 204 204
204 204 204
204 204 204
204 204 204
204 204 204
204 204 204
204 204 204
204 204 204
204 204 204
204 204 204
204 204 204
204 204 204
204 204 204
204 204 204
204 204 204
204 204 204
204 204 204
204 204 204
204 204 204
204 204 204
204 204 204
204 204 204
204 204 204
204 204 204
204 204 204
204 204 204
204 204 204
204 204 204
204 204 204
204 204 204
204 204 204
204 204 204
204 204 204
204 204 204
204 204 204
204 204 204
204 204 204
204 204 204
204 204 204
204 204 204
204 204 204
204 204 204
204 204 204
204 204 204
204 204 204
204 204 204
204 204 204
204 204 204
204 204 204
204 204 204
204 204 204
204 204 204
204 204 204
204 204 204
204 204 204
204 204 204
204 204 204
204 204 204
204 204 204
204 204 204
204 204 204
204 204 204
204 204 204
204 204 204
204 204 204
204 204 204
204 204 204
204 204 204
204 204 204
204 204 204
204 204 204
204 204 204
204 204 204
204 204 204
204 204 204
204 204 204
204 204 204
204 204 204
204 204 204
204 204 204
204 204 204
204 204 204
204 204 204
204 204 204
204 204 204
204 204 204
204 204 204
204 204 204
204 204 204
204 204 204
204 204 204
204 204 204
204 204 204
204 204 204
204 204 204
204 204 204
204 204 204
204 204 204
204 204 204
204 204 204
204 204 204
204 204 204
204 204 204
204 204 204
204 204 204
204 204 204
204 204 204
204 204 204
204 204 204
204 204 204
204 204 204
204 204 204
204 204 204
204 204 204
204 204 204
204 204 204
204 204 204
204 204 204
204 204 204
204 204 204
204 204 204
204 204 204
204 204 204
204 204 204
204 204 204
204 204 204
204 204 204
204 204 204
204 204 204
204 204 204
204 204 204
204 204 204
204 204 204
204 204 204
204 204 204
204 204 204
204 204 204
204 204 204
204 204 204
204 204 204
204 204 204
204 204 204
204 204 204
204 204 204
204 204 204
204 204 204
204 204 204
204 204 204
204 204 204
204 204 204
204 204 204
204 204 204
204 204 204
204 204 204
204 204 204
204 204 204
204 204 204
204 204 204
204 204 204
204 204 204
204 204 204
204 204 204
204 204 204
204 204 204
204 204 204
204 204 204
204 204 204
204 204 204
204 204 204
204 204 204
204 204 204
204 204 204
204 204 204
204 204 204
204 204 204
204 204 204
204 204 204
204 204 204
204 204 204
204 204 204
204 204 204
204 204 204
204 204 204
204 204 204
204 204 204
204 204 204
204 204 204
204 204 204
204 204 204
204 204 204
204 204 204
204 204 204
204 204 204
204 204 204
204 204 204
204 204 204
204 204 204
204 204 204
204 204 204
204 204 204
204 204 204
204 204 204
204 204 204
204 204 204
204 204 204
204 204 204
204 204 204
204 204 204
204 204 204
204 204 204
204 204 204
204 204 204
204 204 204
204 204 204
204 204 204
204 204 204
204 204 204
204 204 204
204 204 204
204 204 204
204 204 204
204 204 204
204 204 204
204 204 204
204 204 204
204 204 204
204 204 204
204 204 204
204 204 204
204 204 204
204 204 204
204 204 204
204 204 204
204 204 204
204 204 204
204 204 204
204 204 204
204 204 204
204 204 204
204 204 204
204 204 204
204 204 204
204 204 204
204 204 204
204 204 204
204 204 204
204 204 204
204 204 204
204 204 204
204 204 204
204 204 204
204 204 204
204 204 204
204 204 204
204 204 204
204 204 204
204 204 204
204 204 204
204 204 204
204 204 204
204 204 204
204 204 204
204 204 204
204 204 204
204 204 204
204 204 204
204 204 204
204 204 204
204 204 204
204 204 204
204 204 204
204 204 204
204 204 204
204 204 204
204 204 204
204 204 204
204 204 204
204 204 204
204 204 204
204 204 204
204 204 204
204 204 204
204 204 204
204 204 204
204 204 204
204 204 204
204 204 204
204 204 204
204 204 204
204 204 204
204 204 204
204 204 204
204 204 204
204 204 204
204 204 204
204 204 204
204 204 204
204 204 204
204 204 204
204 204 204
204 204 204
204 204 204
204 204 204
204 204 204
204 204 204
204 204 204
204 204 204
204 204 204
204 204 204
204 204 204
204 204 204
204 204 204
204 204 204
204 204 204
204 204 204
204 204 204
204 204 204
204 204 204
204 204 204
204 204 204
204 204 204
204 204 204
204 204 204
204 204 204
204 204 204
204 204 204
204 204 204
204 204 204
204 204 204
204 204 204
204 204 204
204 204 204
204 204 204
204 204 204
204 204 204
204 204 204
204 204 204
204 204 204
204 204 204
204 204 204
204 204 204
204 204 204
204 204 204
204 204 204
204 204 204
204 204 204
204 204 204
204 204 204
204 204 204
204 204 204
204 204 204
204 204 204
204 204 204
204 204 204
204 204 204
204 204 204
204 204 204
204 204 204
204 204 204
204 204 204
204 204 204
204 204 204
204 204 204
204 204 204
204 204 204
204 204 204
204 204 204
204 204 204
204 204 204
204 204 204
204 204 204
204 204 204
204 204 204
204 204 204
204 204 204
204 204 204
204 204 204
204 204 204
204 204 204
204 204 204
204 204 204
204 204 204
204 204 204
204 204 204
204 204 204
204 204 204
204 204 204
204 204 204
204 204 204
204 204 204
204 204 204
204 204 204
204 204 204
204 204 204
204 204 204
204 204 204
204 204 204
204 204 204
204 204 204
204 204 204
204 204 204
204 204 204
204 204 204
204 204 204
204 204 204
204 204 204
204 204 204
204 204 204
204 204 204
204 204 204
204 204 204
204 204 204
204 204 204
204 204 204
204 204 204
204 204 204
204 204 204
204 204 204
204 204 204
204 204 204
204 204 204
204 204 204
204 204 204
204 204 204
204 204 204
204 204 204
204 204 204
204 204 204
204 204 204
204 204 204
204 204 204
204 204 204
204 204 204
204 204 204
204 204 204
204 204 204
204 204 204
204 204 204
204 204 204
204 204 204
204 204 204
204 204 204
204 204 204
204 204 204
204 204 204
204 204 204
204 204 204
204 204 204
204 204 204
204 204 204
204 204 204
204 204 204
204 204 204
204 204 204
204 204 204
204 204 204
204 204 204
204 204 204
204 204 204
204 204 204
204 204 204
204 204 204
204 204 204
204 204 204
204 204 204
204 204 204
204 204 204
204 204 204
204 204 204
204 204 204
204 204 204
204 204 204
204 204 204
204 204 204
204 204 204
204 204 204
204 204 204
204 204 204
204 204 204
204 204 204
204 204 204
204 204 204
204 204 204
204 204 204
204 204 204
204 204 204
204 204 204
204 204 204
204 204 204
204 204 204
204 204 204
204 204 204
204 204 204
204 204 204
204 204 204
204 204 204
204 204 204
204 204 204
204 204 204
204 204 204
204 204 204
204 204 204
204 204 204
204 204 204
204 204 204
204 204 204
204 204 204
204 204 204
204 204 204
204 204 204
204 204 204
204 204 204
204 204 204
204 204 204
204 204 204
204 204 204
204 204 204
204 204 204
204 204 204
204 204 204
204 204 204
204 204 204
204 204 204
204 204 204
204 204 204
204 204 204
204 204 204
204 204 204
204 204 204
204 204 204
204 204 204
204 204 204
204 204 204
204 204 204
204 204 204
204 204 204
204 204 204
204 204 204
204 204 204
204 204 204
204 204 204
204 204 204
204 204 204
204 204 204
204 204 204
204 204 204
204 204 204
204 204 204
204 204 204
204 204 204
204 204 204
204 204 204
204 204 204
204 204 204
204 204 204
204 204 204
204 204 204
204 204 204
204 204 204
204 204 204
204 204 204
204 204 204
204 204 204
204 204 204
204 204 204
204 204 204
204 204 204
204 204 204
204 204 204
204 204 204
204 204 204
204 204 204
204 204 204
204 204 204
204 204 204
204 204 204
204 204 204
204 204 204
204 204 204
204 204 204
204 204 204
204 204 204
204 204 204
204 204 204
204 204 204
204 204 204
204 204 204
204 204 204
204 204 204
204 204 204
204 204 204
204 204 204
204 204 204
204 204 204
204 204 204
204 204 204
204 204 204
204 204 204
204 204 204
204 204 204
204 204 204
204 204 204
204 204 204
204 204 204
204 204 204
204 204 204
204 204 204
204 204 204
204 204 204
204 204 204
204 204 204
204 204 204
204 204 204
204 204 204
204 204 204
204 204 204
204 204 204
204 204 204
204 204 204
204 204 204
204 204 204
204 204 204
204 204 204
204 204 204
204 204 204
204 204 204
204 204 204
204 204 204
204 204 204
204 204 204
204 204 204
204 204 204
204 204 204
204 204 204
204 204 204
204 204 204
204 204 204
204 204 204
204 204 204
204 204 204
204 204 204
204 204 204
204 204 204
204 204 204
204 204 204
204 204 204
204 204 204
204 204 204
204 204 204
204 204 204
204 204 204
204 204 204
204 204 204
204 204 204
204 204 204
204 204 204
204 204 204
204 204 204
204 204 204
204 204 204
204 204 204
204 204 204
204 204 204
204 204 204
204 204 204
204 204 204
204 204 204
204 204 204
204 204 204
204 204 204
204 204 204
204 204 204
204 204 204
204 204 204
204 204 204
204 204 204
204 204 204
204 204 204
204 204 204
204 204 204
204 204 204
204 204 204
204 204 204
204 204 204
204 204 204
204 204 204
204 204 204
204 204 204
204 204 204
204 204 204
204 204 204
204 204 204
204 204 204
204 204 204
204 204 204
204 204 204
204 204 204
204 204 204
204 204 204
204 204 204
204 204 204
204 204 204
204 204 204
204 204 204
204 204 204
204 204 204
204 204 204
204 204 204
204 204 204
204 204 204
204 204 204
204 204 204
204 204 204
204 204 204
204 204 204
204 204 204
204 204 204
204 204 204
204 204 204
204 204 204
204 204 204
204 204 204
204 204 204
204 204 204
204 204 204
204 204 204
204 204 204
204 204 204
204 204 204
204 204 204
204 204 204
204 204 204
204 204 204
204 204 204
204 204 204
204 204 204
204 204 204
204 204 204
204 204 204
204 204 204
204 204 204
204 204 204
204 204 204
204 204 204
204 204 204
204 204 204
204 204 204
204 204 204
204 204 204
204 204 204
204 204 204
204 204 204
204 204 204
204 204 204
204 204 204
204 204 204
204 204 204
204 204 204
204 204 204
204 204 204
204 204 204
204 204 204
204 204 204
204 204 204
204 204 204
204 204 204
204 204 204
204 204 204
204 204 204
204 204 204
204 204 204
204 204 204
204 204 204
204 204 204
204 204 204
204 204 204
204 204 204
204 204 204
204 204 204
204 204 204
204 204 204
204 204 204
204 204 204
204 204 204
204 204 204
204 204 204
204 204 204
204 204 204
204 204 204
204 204 204
204 204 204
204 204 204
204 204 204
204 204 204
204 204 204
204 204 204
204 204 204
204 204 204
204 204 204
204 204 204
204 204 204
204 204 204
204 204 204
204 204 204
204 204 204
204 204 204
204 204 204
204 204 204
204 204 204
204 204 204
204 204 204
204 204 204
204 204 204
204 204 204
204 204 204
204 204 204
204 204 204
204 204 204
204 204 204
204 204 204
204 204 204
204 204 204
204 204 204
204 204 204
204 204 204
204 204 204
204 204 204
204 204 204
204 204 204
204 204 204
204 204 204
204 204 204
204 204 204
204 204 204
204 204 204
204 204 204
204 204 204
204 204 204
204 204 204
204 204 204
204 204 204
204 204 204
204 204 204
204 204 204
204 204 204
204 204 204
204 204 204
204 204 204
204 204 204
204 204 204
204 204 204
204 204 204
204 204 204
204 204 204
204 204 204
204 204 204
204 204 204
204 204 204
204 204 204
204 204 204
204 204 204
204 204 204
204 204 204
204 204 204
204 204 204
204 204 204
204 204 204
204 204 204
204 204 204
204 204 204
204 204 204
204 204 204
204 204 204
204 204 204
204 204 204
204 204 204
204 204 204
204 204 204
204 204 204
204 204 204
204 204 204
204 204 204
204 204 204
204 204 204
204 204 204
204 204 204
204 204 204
204 204 204
204 204 204
204 204 204
204 204 204
204 204 204
204 204 204
204 204 204
204 204 204
204 204 204
204 204 204
204 204 204
204 204 204
204 204 204
204 204 204
204 204 204
204 204 204
204 204 204
204 204 204
204 204 204
204 204 204
204 204 204
204 204 204
204 204 204
204 204 204
204 204 204
204 204 204
204 204 204
204 204 204
204 204 204
204 204 204
204 204 204
204 204 204
204 204 204
204 204 204
204 204 204
204 204 204
204 204 204
204 204 204
204 204 204
204 204 204
204 204 204
204 204 204
204 204 204
204 204 204
204 204 204
204 204 204
204 204 204
204 204 204
204 204 204
204 204 204
204 204 204
204 204 204
204 204 204
204 204 204
204 204 204
204 204 204
204 204 204
204 204 204
204 204 204
204 204 204
204 204 204
204 204 204
204 204 204
204 204 204
204 204 204
204 204 204
204 204 204
204 204 204
204 204 204
204 204 204
204 204 204
204 204 204
204 204 204
204 204 204
204 204 204
204 204 204
204 204 204
204 204 204
204 204 204
204 204 204
204 204 204
204 204 204
204 204 204
204 204 204
204 204 204
204 204 204
204 204 204
204 204 204
204 204 204
204 204 204
204 204 204
204 204 204
204 204 204
204 204 204
204 204 204
204 204 204
204 204 204
204 204 204
204 204 204
204 204 204
204 204 204
204 204 204
204 204 204
204 204 204
204 204 204
204 204 204
204 204 204
204 204 204
204 204 204
204 204 204
204 204 204
204 204 204
204 204 204
204 204 204
204 204 204
204 204 204
204 204 204
204 204 204
204 204 204
204 204 204
204 204 204
204 204 204
204 204 204
204 204 204
204 204 204
204 204 204
204 204 204
204 204 204
204 204 204
204 204 204
204 204 204
204 204 204
204 204 204
204 204 204
204 204 204
204 204 204
204 204 204
204 204 204
204 204 204
204 204 204
204 204 204
204 204 204
204 204 204
204 204 204
204 204 204
204 204 204
204 204 204
204 204 204
204 204 204
204 204 204
204 204 204
204 204 204
204 204 204
204 204 204
204 204 204
204 204 204
204 204 204
204 204 204
204 204 204
204 204 204
204 204 204
204 204 204
204 204 204
204 204 204
204 204 204
204 204 204
204 204 204
204 204 204
204 204 204
204 204 204
204 204 204
204 204 204
204 204 204
204 204 204
204 204 204
204 204 204
204 204 204
204 204 204
204 204 204
204 204 204
204 204 204
204 204 204
204 204 204
204 204 204
204 204 204
204 204 204
204 204 204
204 204 204
204 204 204
204 204 204
204 204 204
204 204 204
204 204 204
204 204 204
204 204 204
204 204 204
204 204 204
204 204 204
204 204 204
204 204 204
204 204 204
204 204 204
204 204 204
204 204 204
204 204 204
204 204 204
204 204 204
204 204 204
204 204 204
204 204 204
204 204 204
204 204 204
204 204 204
204 204 204
204 204 204
204 204 204
204 204 204
204 204 204
204 204 204
204 204 204
204 204 204
204 204 204
204 204 204
204 204 204
204 204 204
204 204 204
204 204 204
204 204 204
204 204 204
204 204 204
204 204 204
204 204 204
204 204 204
204 204 204
204 204 204
204 204 204
204 204 204
204 204 204
204 204 204
204 204 204
204 204 204
204 204 204
204 204 204
204 204 204
204 204 204
204 204 204
204 204 204
204 204 204
204 204 204
204 204 204
204 204 204
204 204 204
204 204 204
204 204 204
204 204 204
204 204 204
204 204 204
204 204 204
204 204 204
204 204 204
204 204 204
204 204 204
204 204 204
204 204 204
204 204 204
204 204 204
204 204 204
204 204 204
204 204 204
204 204 204
204 204 204
204 204 204
204 204 204
204 204 204
204 204 204
204 204 204
204 204 204
204 204 204
204 204 204
204 204 204
204 204 204
204 204 204
204 204 204
204 204 204
204 204 204
204 204 204
204 204 204
204 204 204
204 204 204
204 204 204
204 204 204
204 204 204
204 204 204
204 204 204
204 204 204
204 204 204
204 204 204
204 204 204
204 204 204
204 204 204
204 204 204
204 204 204
204 204 204
204 204 204
204 204 204
204 204 204
204 204 204
204 204 204
204 204 204
204 204 204
204 204 204
204 204 204
204 204 204
204 204 204
204 204 204
204 204 204
204 204 204
204 204 204
204 204 204
204 204 204
204 204 204
204 204 204
204 204 204
204 204 204
204 204 204
204 204 204
204 204 204
204 204 204
204 204 204
204 204 204
204 204 204
204 204 204
204 204 204
204 204 204
204 204 204
204 204 204
204 204 204
204 204 204
204 204 204
204 204 204
204 204 204
204 204 204
204 204 204
204 204 204
204 204 204
204 204 204
204 204 204
204 204 204
204 204 204
204 204 204
204 204 204
204 204 204
204 204 204
204 204 204
204 204 204
204 204 204
204 204 204
204 204 204
204 204 204
204 204 204
204 204 204
204 204 204
204 204 204
204 204 204
204 204 204
204 204 204
204 204 204
204 204 204
204 204 204
204 204 204
204 204 204
204 204 204
204 204 204
204 204 204
204 204 204
204 204 204
204 204 204
204 204 204
204 204 204
204 204 204
204 204 204
204 204 204
204 204 204
204 204 204
204 204 204
204 204 204
204 204 204
204 204 204
204 204 204
204 204 204
204 204 204
204 204 204
204 204 204
204 204 204
204 204 204
204 204 204
204 204 204
204 204 204
204 204 204
204 204 204
204 204 204
204 204 204
204 204 204
204 204 204
204 204 204
204 204 204
204 204 204
204 204 204
204 204 204
204 204 204
204 204 204
204 204 204
204 204 204
204 204 204
204 204 204
204 204 204
204 204 204
204 204 204
204 204 204
204 204 204
204 204 204
204 204 204
204 204 204
204 204 204
204 204 204
204 204 204
204 204 204
204 204 204
204 204 204
204 204 204
204 204 204
204 204 204
204 204 204
204 204 204
204 204 204
204 204 204
204 204 204
204 204 204
204 204 204
204 204 204
204 204 204
204 204 204
204 204 204
204 204 204
204 204 204
204 204 204
204 204 204
204 204 204
204 204 204
204 204 204
204 204 204
204 204 204
204 204 204
204 204 204
204 204 204
204 204 204
204 204 204
204 204 204
204 204 204
204 204 204
204 204 204
204 204 204
204 204 204
204 204 204
204 204 204
204 204 204
204 204 204
204 204 204
204 204 204
204 204 204
204 204 204
204 204 204
204 204 204
204 204 204
204 204 204
204 204 204
204 204 204
204 204 204
204 204 204
204 204 204
204 204 204
204 204 204
204 204 204
204 204 204
204 204 204
204 204 204
204 204 204
204 204 204
204 204 204
204 204 204
204 204 204
204 204 204
204 204 204
204 204 204
204 204 204
204 204 204
204 204 204
204 204 204
204 204 204
204 204 204
204 204 204
204 204 204
204 204 204
204 204 204
204 204 204
204 204 204
204 204 204
204 204 204
204 204 204
204 204 204
204 204 204
204 204 204
204 204 204
204 204 204
204 204 204
204 204 204
204 204 204
204 204 204
204 204 204
204 204 204
204 204 204
204 204 204
204 204 204
204 204 204
204 204 204
204 204 204
204 204 204
204 204 204
204 204 204
204 204 204
204 204 204
204 204 204
204 204 204
204 204 204
204 204 204
204 204 204
204 204 204
204 204 204
204 204 204
204 204 204
204 204 204
204 204 204
204 204 204
204 204 204
204 204 204
204 204 204
204 204 204
204 204 204
204 204 204
204 204 204
204 204 204
204 204 204
204 204 204
204 204 204
204 204 204
204 204 204
204 204 204
204 204 204
204 204 204
204 204 204
204 204 204
204 204 204
204 204 204
204 204 204
204 204 204
204 204 204
204 204 204
204 204 204
204 204 204
204 204 204
204 204 204
204 204 204
204 204 204
204 204 204
204 204 204
204 204 204
204 204 204
204 204 204
204 204 204
204 204 204
204 204 204
204 204 204
204 204 204
204 204 204
204 204 204
204 204 204
204 204 204
204 204 204
204 204 204
204 204 204
204 204 204
204 204 204
204 204 204
204 204 204
204 204 204
204 204 204
204 204 204
204 204 204
204 204 204
204 204 204
204 204 204
204 204 204
204 204 204
204 204 204
204 204 204
204 204 204
204 204 204
204 204 204
204 204 204
204 204 204
204 204 204
204 204 204
204 204 204
204 204 204
204 204 204
204 204 204
204 204 204
204 204 204
204 204 204
204 204 204
204 204 204
204 204 204
204 204 204
204 204 204
204 204 204
204 204 204
204 204 204
204 204 204
204 204 204
204 204 204
204 204 204
204 204 204
204 204 204
204 204 204
204 204 204
204 204 204
204 204 204
204 204 204
204 204 204
204 204 204
204 204 204
204 204 204
204 204 204
204 204 204
204 204 204
204 204 204
204 204 204
204 204 204
204 204 204
204 204 204
204 204 204
204 204 204
204 204 204
204 204 204
204 204 204
204 204 204
204 204 204
204 204 204
204 204 204
204 204 204
204 204 204
204 204 204
204 204 204
204 204 204
204 204 204
204 204 204
204 204 204
204 204 204
204 204 204
204 204 204
204 204 204
204 204 204
204 204 204
204 204 204
204 204 204
204 204 204
204 204 204
204 204 204
204 204 204
204 204 204
204 204 204
204 204 204
204 204 204
204 204 204
204 204 204
204 204 204
204 204 204
204 204 204
204 204 204
204 204 204
204 204 204
204 204 204
204 204 204
204 204 204
204 204 204
204 204 204
204 204 204
204 204 204
204 204 204
204 204 204
204 204 204
204 204 204
204 204 204
204 204 204
204 204 204
204 204 204
204 204 204
204 204 204
204 204 204
204 204 204
204 204 204
204 204 204
204 204 204
204 204 204
204 204 204
204 204 204
204 204 204
204 204 204
204 204 204
204 204 204
204 204 204
204 204 204
204 204 204
204 204 204
204 204 204
204 204 204
204 204 204
204 204 204
204 204 204
204 204 204
204 204 204
204 204 204
204 204 204
204 204 204
204 204 204
204 204 204
204 204 204
204 204 204
204 204 204
204 204 204
204 204 204
204 204 204
204 204 204
204 204 204
204 204 204
204 204 204
204 204 204
204 204 204
204 204 204
204 204 204
204 204 204
204 204 204
204 204 204
204 204 204
204 204 204
204 204 204
204 204 204
204 204 204
204 204 204
204 204 204
204 204 204
204 204 204
204 204 204
204 204 204
204 204 204
204 204 204
204 204 204
204 204 204
204 204 204
204 204 204
204 204 204
204 204 204
204 204 204
204 204 204
204 204 204
204 204 204
204 204 204
204 204 204
204 204 204
204 204 204
204 204 204
204 204 204
204 204 204
204 204 204
204 204 204
204 204 204
204 204 204
204 204 204
204 204 204
204 204 204
204 204 204
204 204 204
204 204 204
204 204 204
204 204 204
204 204 204
204 204 204
204 204 204
204 204 204
204 204 204
204 204 204
204 204 204
204 204 204
204 204 204
204 204 204
204 204 204
204 204 204
204 204 204
204 204 204
204 204 204
204 204 204
204 204 204
204 204 204
204 204 204
204 204 204
204 204 204
204 204 204
204 204 204
204 204 204
204 204 204
204 204 204
204 204 204
204 204 204
204 204 204
204 204 204
204 204 204
204 204 204
204 204 204
204 204 204
204 204 204
204 204 204
204 204 204
204 204 204
204 204 204
204 204 204
204 204 204
204 204 204
204 204 204
204 204 204
204 204 204
204 204 204
204 204 204
204 204 204
204 204 204
204 204 204
204 204 204
204 204 204
204 204 204
204 204 204
204 204 204
204 204 204
204 204 204
204 204 204
204 204 204
204 204 204
204 204 204
204 204 204
204 204 204
204 204 204
204 204 204
204 204 204
204 204 204
204 204 204
204 204 204
204 204 204
204 204 204
204 204 204
204 204 204
204 204 204
204 204 204
204 204 204
204 204 204
204 204 204
204 204 204
204 204 204
204 204 204
204 204 204
204 204 204
204 204 204
204 204 204
204 204 204
204 204 204
204 204 204
204 204 204
204 204 204
204 204 204
204 204 204
204 204 204
204 204 204
204 204 204
204 204 204
204 204 204
204 204 204
204 204 204
204 204 204
204 204 204
204 204 204
204 204 204
204 204 204
204 204 204
204 204 204
204 204 204
204 204 204
204 204 204
204 204 204
204 204 204
204 204 204
204 204 204
204 204 204
204 204 204
204 204 204
204 204 204
204 204 204
204 204 204
204 204 204
204 204 204
204 204 204
204 204 204
204 204 204
204 204 204
204 204 204
204 204 204
204 204 204
204 204 204
204 204 204
204 204 204
204 204 204
204 204 204
204 204 204
204 204 204
204 204 204
204 204 204
204 204 204
204 204 204
204 204 204
204 204 204
204 204 204
204 204 204
204 204 204
204 204 204
204 204 204
204 204 204
204 204 204
204 204 204
204 204 204
204 204 204
204 204 204
204 204 204
204 204 204
204 204 204
204 204 204
204 204 204
204 204 204
204 204 204
204 204 204
204 204 204
204 204 204
204 204 204
204 204 204
204 204 204
204 204 204
204 204 204
204 204 204
204 204 204
204 204 204
204 204 204
204 204 204
204 204 204
204 204 204
204 204 204
204 204 204
204 204 204
204 204 204
204 204 204
204 204 204
204 204 204
204 204 204
204 204 204
204 204 204
204 204 204
204 204 204
204 204 204
204 204 204
204 204 204
204 204 204
204 204 204
204 204 204
204 204 204
204 204 204
204 204 204
204 204 204
204 204 204
204 204 204
204 204 204
204 204 204
204 204 204
204 204 204
204 204 204
204 204 204
204 204 204
204 204 204
204 204 204
204 204 204
204 204 204
204 204 204
204 204 204
204 204 204
204 204 204
204 204 204
204 204 204
204 204 204
204 204 204
204 204 204
204 204 204
204 204 204
204 204 204
204 204 204
204 204 204
204 204 204
204 204 204
204 204 204
204 204 204
204 204 204
204 204 204
204 204 204
204 204 204
204 204 204
204 204 204
204 204 204
204 204 204
204 204 204
204 204 204
204 204 204
204 204 204
204 204 204
204 204 204
204 204 204
204 204 204
204 204 204
204 204 204
204 204 204
204 204 204
204 204 204
204 204 204
204 204 204
204 204 204
204 204 204
204 204 204
204 204 204
204 204 204
204 204 204
204 204 204
204 204 204
204 204 204
204 204 204
204 204 204
204 204 204
204 204 204
204 204 204
204 204 204
204 204 204
204 204 204
204 204 204
204 204 204
204 204 204
204 204 204
204 204 204
204 204 204
204 204 204
204 204 204
204 204 204
204 204 204
204 204 204
204 204 204
204 204 204
204 204 204
204 204 204
204 204 204
204 204 204
204 204 204
204 204 204
204 204 204
204 204 204
204 204 204
204 204 204
204 204 204
204 204 204
204 204 204
204 204 204
204 204 204
204 204 204
204 204 204
204 204 204
204 204 204
204 204 204
204 204 204
204 204 204
204 204 204
204 204 204
204 204 204
204 204 204
204 204 204
204 204 204
204 204 204
204 204 204
204 204 204
204 204 204
204 204 204
204 204 204
204 204 204
204 204 204
204 204 204
204 204 204
204 204 204
204 204 204
204 204 204
204 204 204
204 204 204
204 204 204
204 204 204
204 204 204
204 204 204
204 204 204
204 204 204
204 204 204
204 204 204
204 204 204
204 204 204
204 204 204
204 204 204
204 204 204
204 204 204
204 204 204
204 204 204
204 204 204
204 204 204
204 204 204
204 204 204
204 204 204
204 204 204
204 204 204
204 204 204
204 204 204
204 204 204
204 204 204
204 204 204
204 204 204
204 204 204
204 204 204
204 204 204
204 204 204
204 204 204
204 204 204
204 204 204
204 204 204
204 204 204
204 204 204
204 204 204
204 204 204
204 204 204
204 204 204
204 204 204
204 204 204
204 204 204
204 204 204
204 204 204
204 204 204
204 204 204
204 204 204
204 204 204
204 204 204
204 204 204
204 204 204
204 204 204
204 204 204
204 204 204
204 204 204
204 204 204
204 204 204
204 204 204
204 204 204
204 204 204
204 204 204
204 204 204
204 204 204
204 204 204
204 204 204
204 204 204
204 204 204
204 204 204
204 204 204
204 204 204
204 204 204
204 204 204
204 204 204
204 204 204
204 204 204
204 204 204
204 204 204
204 204 204
204 204 204
204 204 204
204 204 204
204 204 204
204 204 204
204 204 204
204 204 204
204 204 204
204 204 204
204 204 204
204 204 204
204 204 204
204 204 204
204 204 204
204 204 204
204 204 204
204 204 204
204 204 204
204 204 204
204 204 204
204 204 204
204 204 204
204 204 204
204 204 204
204 204 204
204 204 204
204 204 204
204 204 204
204 204 204
204 204 204
204 204 204
204 204 204
204 204 204
204 204 204
204 204 204
204 204 204
204 204 204
204 204 204
204 204 204
204 204 204
204 204 204
204 204 204
204 204 204
204 204 204
204 204 204
204 204 204
204 204 204
204 204 204
204 204 204
204 204 204
204 204 204
204 204 204
204 204 204
204 204 204
204 204 204
204 204 204
204 204 204
204 204 204
204 204 204
204 204 204
204 204 204
204 204 204
204 204 204
204 204 204
204 204 204
204 204 204
204 204 204
204 204 204
204 204 204
204 204 204
204 204 204
204 204 204
204 204 204
204 204 204
204 204 204
204 204 204
204 204 204
204 204 204
204 204 204
204 204 204
204 204 204
204 204 204
204 204 204
204 204 204
204 204 204
204 204 204
204 204 204
204 204 204
204 204 204
204 204 204
204 204 204
204 204 204
204 204 204
204 204 204
204 204 204
204 204 204
204 204 204
204 204 204
204 204 204
204 204 204
204 204 204
204 204 204
204 204 204
204 204 204
204 204 204
204 204 204
204 204 204
204 204 204
204 204 204
204 204 204
204 204 204
204 204 204
204 204 204
204 204 204
204 204 204
204 204 204
204 204 204
204 204 204
204 204 204
204 204 204
204 204 204
204 204 204
204 204 204
204 204 204
204 204 204
204 204 204
204 204 204
204 204 204
204 204 204
204 204 204
204 204 204
204 204 204
204 204 204
204 204 204
204 204 204
204 204 204
204 204 204
204 204 204
204 204 204
204 204 204
204 204 204
204 204 204
204 204 204
204 204 204
204 204 204
204 204 204
204 204 204
204 204 204
204 204 204
204 204 204
204 204 204
204 204 204
204 204 204
204 204 204
204 204 204
204 204 204
204 204 204
204 204 204
204 204 204
204 204 204
204 204 204
204 204 204
204 204 204
204 204 204
204 204 204
204 204 204
204 204 204
204 204 204
204 204 204
204 204 204
204 204 204
204 204 204
204 204 204
204 204 204
204 204 204
204 204 204
204 204 204
204 204 204
204 204 204
204 204 204
204 204 204
204 204 204
204 204 204
204 204 204
204 204 204
204 204 204
204 204 204
204 204 204
204 204 204
204 204 204
204 204 204
204 204 204
204 204 204
204 204 204
204 204 204
204 204 204
204 204 204
204 204 204
204 204 204
204 204 204
204 204 204
204 204 204
204 204 204
204 204 204
204 204 204
204 204 204
204 204 204
204 204 204
204 204 204
204 204 204
204 204 204
204 204 204
204 204 204
204 204 204
204 204 204
204 204 204
204 204 204
204 204 204
204 204 204
204 204 204
204 204 204
204 204 204
204 204 204
204 204 204
204 204 204
204 204 204
204 204 204
204 204 204
204 204 204
204 204 204
204 204 204
204 204 204
204 204 204
204 204 204
204 204 204
204 204 204
204 204 204
204 204 204
204 204 204
204 204 204
204 204 204
204 204 204
204 204 204
204 204 204
204 204 204
204 204 204
204 204 204
204 204 204
204 204 204
204 204 204
204 204 204
204 204 204
204 204 204
204 204 204
204 204 204
204 204 204
204 204 204
204 204 204
204 204 204
204 204 204
204 204 204
204 204 204
204 204 204
204 204 204
204 204 204
204 204 204
204 204 204
204 204 204
204 204 204
204 204 204
204 204 204
204 204 204
204 204 204
204 204 204
204 204 204
204 204 204
204 204 204
204 204 204
204 204 204
204 204 204
204 204 204
204 204 204
204 204 204
204 204 204
204 204 204
204 204 204
204 204 204
204 204 204
204 204 204
204 204 204
204 204 204
204 204 204
204 204 204
204 204 204
204 204 204
204 204 204
204 204 204
204 204 204
204 204 204
204 204 204
204 204 204
204 204 204
204 204 204
204 204 204
204 204 204
204 204 204
204 204 204
204 204 204
204 204 204
204 204 204
204 204 204
204 204 204
204 204 204
204 204 204
204 204 204
204 204 204
204 204 204
204 204 204
204 204 204
204 204 204
204 204 204
204 204 204
204 204 204
204 204 204
204 204 204
204 204 204
204 204 204
204 204 204
204 204 204
204 204 204
204 204 204
204 204 204
204 204 204
204 204 204
204 204 204
204 204 204
204 204 204
204 204 204
204 204 204
204 204 204
204 204 204
204 204 204
204 204 204
204 204 204
204 204 204
204 204 204
204 204 204
204 204 204
204 204 204
204 204 204
204 204 204
204 204 204
204 204 204
204 204 204
204 204 204
204 204 204
204 204 204
204 204 204
204 204 204
204 204 204
204 204 204
204 204 204
204 204 204
204 204 204
204 204 204
204 204 204
204 204 204
204 204 204
204 204 204
204 204 204
204 204 204
204 204 204
204 204 204
204 204 204
204 204 204
204 204 204
204 204 204
204 204 204
204 204 204
204 204 204
204 204 204
204 204 204
204 204 204
204 204 204
204 204 204
204 204 204
204 204 204
204 204 204
204 204 204
204 204 204
204 204 204
204 204 204
204 204 204
204 204 204
204 204 204
204 204 204
204 204 204
204 204 204
204 204 204
204 204 204
204 204 204
204 204 204
204 204 204
204 204 204
204 204 204
204 204 204
204 204 204
204 204 204
204 204 204
204 204 204
204 204 204
204 204 204
204 204 204
204 204 204
204 204 204
204 204 204
204 204 204
204 204 204
204 204 204
204 204 204
204 204 204
204 204 204
204 204 204
204 204 204
204 204 204
204 204 204
204 204 204
204 204 204
204 204 204
204 204 204
204 204 204
204 204 204
204 204 204
204 204 204
204 204 204
204 204 204
204 204 204
204 204 204
204 204 204
204 204 204
204 204 204
204 204 204
204 204 204
204 204 204
204 204 204
204 204 204
204 204 204
204 204 204
204 204 204
204 204 204
204 204 204
204 204 204
204 204 204
204 204 204
204 204 204
204 204 204
204 204 204
204 204 204
204 204 204
204 204 204
204 204 204
204 204 204
204 204 204
204 204 204
204 204 204
204 204 204
204 204 204
204 204 204
204 204 204
204 204 204
204 204 204
204 204 204
204 204 204
204 204 204
204 204 204
204 204 204
204 204 204
204 204 204
204 204 204
204 204 204
204 204 204
204 204 204
204 204 204
204 204 204
204 204 204
204 204 204
204 204 204
204 204 204
204 204 204
204 204 204
204 204 204
204 204 204
204 204 204
204 204 204
204 204 204
204 204 204
204 204 204
204 204 204
204 204 204
204 204 204
204 204 204
204 204 204
204 204 204
204 204 204
204 204 204
204 204 204
204 204 204
204 204 204
204 204 204
204 204 204
204 204 204
204 204 204
204 204 204
204 204 204
204 204 204
204 204 204
204 204 204
204 204 204
204 204 204
204 204 204
204 204 204
204 204 204
204 204 204
204 204 204
204 204 204
204 204 204
204 204 204
204 204 204
204 204 204
204 204 204
204 204 204
204 204 204
204 204 204
204 204 204
204 204 204
204 204 204
204 204 204
204 204 204
204 204 204
204 204 204
204 204 204
204 204 204
204 204 204
204 204 204
204 204 204
204 204 204
204 204 204
204 204 204
204 204 204
204 204 204
204 204 204
204 204 204
204 204 204
204 204 204
204 204 204
204 204 204
204 204 204
204 204 204
204 204 204
204 204 204
204 204 204
204 204 204
204 204 204
204 204 204
204 204 204
204 204 204
204 204 204
204 204 204
204 204 204
204 204 204
204 204 204
204 204 204
204 204 204
204 204 204
204 204 204
204 204 204
204 204 204
204 204 204
204 204 204
204 204 204
204 204 204
204 204 204
204 204 204
204 204 204
204 204 204
204 204 204
204 204 204
204 204 204
204 204 204
204 204 204
204 204 204
204 204 204
204 204 204
204 204 204
204 204 204
204 204 204
204 204 204
204 204 204
204 204 204
204 204 204
204 204 204
204 204 204
204 204 204
204 204 204
204 204 204
204 204 204
204 204 204
204 204 204
204 204 204
204 204 204
204 204 204
204 204 204
204 204 204
204 204 204
204 204 204
204 204 204
204 204 204
204 204 204
204 204 204
204 204 204
204 204 204
204 204 204
204 204 204
204 204 204
204 204 204
204 204 204
204 204 204
204 204 204
204 204 204
204 204 204
204 204 204
204 204 204
204 204 204
204 204 204
204 204 204
204 204 204
204 204 204
204 204 204
204 204 204
204 204 204
204 204 204
204 204 204
204 204 204
204 204 204
204 204 204
204 204 204
204 204 204
204 204 204
204 204 204
204 204 204
204 204 204
204 204 204
204 204 204
204 204 204
204 204 204
204 204 204
204 204 204
204 204 204
204 204 204
204 204 204
204 204 204
204 204 204
204 204 204
204 204 204
204 204 204
204 204 204
204 204 204
204 204 204
204 204 204
204 204 204
204 204 204
204 204 204
204 204 204
204 204 204
204 204 204
204 204 204
204 204 204
204 204 204
204 204 204
204 204 204
204 204 204
204 204 204
204 204 204
204 204 204
204 204 204
204 204 204
204 204 204
204 204 204
204 204 204
204 204 204
204 204 204
204 204 204
204 204 204
204 204 204
204 204 204
204 204 204
204 204 204
204 204 204
204 204 204
204 204 204
204 204 204
204 204 204
204 204 204
204 204 204
204 204 204
204 204 204
204 204 204
204 204 204
204 204 204
204 204 204
204 204 204
204 204 204
204 204 204
204 204 204
204 204 204
204 204 204
204 204 204
204 204 204
204 204 204
204 204 204
204 204 204
204 204 204
204 204 204
204 204 204
204 204 204
204 204 204
204 204 204
204 204 204
204 204 204
204 204 204
204 204 204
204 204 204
204 204 204
204 204 204
204 204 204
204 204 204
204 204 204
204 204 204
204 204 204
204 204 204
204 204 204
204 204 204
204 204 204
204 204 204
204 204 204
204 204 204
204 204 204
204 204 204
204 204 204
204 204 204
204 204 204
204 204 204
204 204 204
204 204 204
204 204 204
204 204 204
204 204 204
204 204 204
204 204 204
204 204 204
204 204 204
204 204 204
204 204 204
204 204 204
204 204 204
204 204 204
204 204 204
204 204 204
204 204 204
204 204 204
204 204 204
204 204 204
204 204 204
204 204 204
204 204 204
204 204 204
204 204 204
204 204 204
204 204 204
204 204 204
204 204 204
204 204 204
204 204 204
204 204 204
204 204 204
204 204 204
204 204 204
204 204 204
204 204 204
204 204 204
204 204 204
204 204 204
204 204 204
204 204 204
204 204 204
204 204 204
204 204 204
204 204 204
204 204 204
204 204 204
204 204 204
204 204 204
204 204 204
204 204 204
204 204 204
204 204 204
204 204 204
204 204 204
204 204 204
204 204 204
204 204 204
204 204 204
204 204 204
204 204 204
204 204 204
204 204 204
204 204 204
204 204 204
204 204 204
204 204 204
204 204 204
204 204 204
204 204 204
204 204 204
204 204 204
204 204 204
204 204 204
204 204 204
204 204 204
204 204 204
204 204 204
204 204 204
204 204 204
204 204 204
204 204 204
204 204 204
204 204 204
204 204 204
204 204 204
204 204 204
204 204 204
204 204 204
204 204 204
204 204 204
204 204 204
204 204 204
204 204 204
204 204 204
204 204 204
204 204 204
204 204 204
204 204 204
204 204 204
204 204 204
204 204 204
204 204 204
204 204 204
204 204 204
204 204 204
204 204 204
204 204 204
204 204 204
204 204 204
204 204 204
204 204 204
204 204 204
204 204 204
204 204 204
204 204 204
204 204 204
204 204 204
204 204 204
204 204 204
204 204 204
204 204 204
204 204 204
204 204 204
204 204 204
204 204 204
204 204 204
204 204 204
204 204 204
204 204 204
204 204 204
204 204 204
204 204 204
204 204 204
204 204 204
204 204 204
204 204 204
204 204 204
204 204 204
204 204 204
204 204 204
204 204 204
204 204 204
204 204 204
204 204 204
204 204 204
204 204 204
204 204 204
204 204 204
204 204 204
204 204 204
204 204 204
204 204 204
204 204 204
204 204 204
204 204 204
204 204 204
204 204 204
204 204 204
204 204 204
204 204 204
204 204 204
204 204 204
204 204 204
204 204 204
204 204 204
204 204 204
204 204 204
204 204 204
204 204 204
204 204 204
204 204 204
204 204 204
204 204 204
204 204 204
204 204 204
204 204 204
204 204 204
204 204 204
204 204 204
204 204 204
204 204 204
204 204 204
204 204 204
204 204 204
204 204 204
204 204 204
204 204 204
204 204 204
204 204 204
204 204 204
204 204 204
204 204 204
204 204 204
204 204 204
204 204 204
204 204 204
204 204 204
204 204 204
204 204 204
204 204 204
204 204 204
204 204 204
204 204 204
204 204 204
204 204 204
204 204 204
204 204 204
204 204 204
204 204 204
204 204 204
204 204 204
204 204 204
204 204 204
204 204 204
204 204 204
204 204 204
204 204 204
204 204 204
204 204 204
204 204 204
204 204 204
204 204 204
204 204 204
204 204 204
204 204 204
204 204 204
204 204 204
204 204 204
204 204 204
204 204 204
204 204 204
204 204 204
204 204 204
204 204 204
204 204 204
204 204 204
204 204 204
204 204 204
204 204 204
204 204 204
204 204 204
204 204 204
204 204 204
204 204 204
204 204 204
204 204 204
204 204 204
204 204 204
204 204 204
204 204 204
204 204 204
204 204 204
204 204 204
204 204 204
204 204 204
204 204 204
204 204 204
204 204 204
204 204 204
204 204 204
204 204 204
204 204 204
204 204 204
204 204 204
204 204 204
204 204 204
204 204 204
204 204 204
204 204 204
204 204 204
204 204 204
204 204 204
204 204 204
204 204 204
204 204 204
204 204 204
204 204 204
204 204 204
204 204 204
204 204 204
204 204 204
204 204 204
204 204 204
204 204 204
204 204 204
204 204 204
204 204 204
204 204 204
204 204 204
204 204 204
204 204 204
204 204 204
204 204 204
204 204 204
204 204 204
204 204 204
204 204 204
204 204 204
204 204 204
204 204 204
204 204 204
204 204 204
204 204 204
204 204 204
204 204 204
204 204 204
204 204 204
204 204 204
204 204 204
204 204 204
204 204 204
204 204 204
204 204 204
204 204 204
204 204 204
204 204 204
204 204 204
204 204 204
204 204 204
204 204 204
204 204 204
204 204 204
204 204 204
204 204 204
204 204 204
204 204 204
204 204 204
204 204 204
204 204 204
204 204 204
204 204 204
204 204 204
204 204 204
204 204 204
204 204 204
204 204 204
204 204 204
204 204 204
204 204 204
204 204 204
204 204 204
204 204 204
204 204 204
204 204 204
204 204 204
204 204 204
204 204 204
204 204 204
204 204 204
204 204 204
204 204 204
204 204 204
204 204 204
204 204 204
204 204 204
204 204 204
204 204 204
204 204 204
204 204 204
204 204 204
204 204 204
204 204 204
204 204 204
204 204 204
204 204 204
204 204 204
204 204 204
204 204 204
204 204 204
204 204 204
204 204 204
204 204 204
204 204 204
204 204 204
204 204 204
204 204 204
204 204 204
204 204 204
204 204 204
204 204 204
204 204 204
204 204 204
204 204 204
204 204 204
204 204 204
204 204 204
204 204 204
204 204 204
204 204 204
204 204 204
204 204 204
204 204 204
204 204 204
204 204 204
204 204 204
204 204 204
204 204 204
204 204 204
204 204 204
204 204 204
204 204 204
204 204 204
204 204 204
204 204 204
204 204 204
204 204 204
204 204 204
204 204 204
204 204 204
204 204 204
204 204 204
204 204 204
204 204 204
204 204 204
204 204 204
204 204 204
204 204 204
204 204 204
204 204 204
204 204 204
204 204 204
204 204 204
204 204 204
204 204 204
204 204 204
204 204 204
204 204 204
204 204 204
204 204 204
204 204 204
204 204 204
204 204 204
204 204 204
204 204 204
204 204 204
204 204 204
204 204 204
204 204 204
204 204 204
204 204 204
204 204 204
204 204 204
204 204 204
204 204 204
204 204 204
204 204 204
204 204 204
204 204 204
204 204 204
204 204 204
204 204 204
204 204 204
204 204 204
204 204 204
204 204 204
204 204 204
204 204 204
204 204 204
204 204 204
204 204 204
204 204 204
204 204 204
204 204 204
204 204 204
204 204 204
204 204 204
204 204 204
204 204 204
204 204 204
204 204 204
204 204 204
204 204 204
204 204 204
204 204 204
204 204 204
204 204 204
204 204 204
204 204 204
204 204 204
204 204 204
204 204 204
204 204 204
204 204 204
204 204 204
204 204 204
204 204 204
204 204 204
204 204 204
204 204 204
204 204 204
204 204 204
204 204 204
204 204 204
204 204 204
204 204 204
204 204 204
204 204 204
204 204 204
204 204 204
204 204 204
204 204 204
204 204 204
204 204 204
204 204 204
204 204 204
204 204 204
204 204 204
204 204 204
204 204 204
204 204 204
204 204 204
204 204 204
204 204 204
204 204 204
204 204 204
204 204 204
204 204 204
204 204 204
204 204 204
204 204 204
204 204 204
204 204 204
204 204 204
204 204 204
204 204 204
204 204 204
204 204 204
204 204 204
204 204 204
204 204 204
204 204 204
204 204 204
204 204 204
204 204 204
204 204 204
204 204 204
204 204 204
204 204 204
204 204 204
204 204 204
204 204 204
204 204 204
204 204 204
204 204 204
204 204 204
204 204 204
204 204 204
204 204 204
204 204 204
204 204 204
204 204 204
204 204 204
204 204 204
204 204 204
204 204 204
204 204 204
204 204 204
204 204 204
204 204 204
204 204 204
204 204 204
204 204 204
204 204 204
204 204 204
204 204 204
204 204 204
204 204 204
204 204 204
204 204 204
204 204 204
204 204 204
204 204 204
204 204 204
204 204 204
204 204 204
204 204 204
204 204 204
204 204 204
204 204 204
204 204 204
204 204 204
204 204 204
204 204 204
204 204 204
204 204 204
204 204 204
204 204 204
204 204 204
204 204 204
204 204 204
204 204 204
204 204 204
204 204 204
204 204 204
204 204 204
204 204 204
204 204 204
204 204 204
204 204 204
204 204 204
204 204 204
204 204 204
204 204 204
204 204 204
204 204 204
204 204 204
204 204 204
204 204 204
204 204 204
204 204 204
204 204 204
204 204 204
204 204 204
204 204 204
204 204 204
204 204 204
204 204 204
204 204 204
204 204 204
204 204 204
204 204 204
204 204 204
204 204 204
204 204 204
204 204 204
204 204 204
204 204 204
204 204 204
204 204 204
204 204 204
204 204 204
204 204 204
204 204 204
204 204 204
204 204 204
204 204 204
204 204 204
204 204 204
204 204 204
204 204 204
204 204 204
204 204 204
204 204 204
204 204 204
204 204 204
204 204 204
204 204 204
204 204 204
204 204 204
204 204 204
204 204 204
204 204 204
204 204 204
204 204 204
204 204 204
204 204 204
204 204 204
204 204 204
204 204 204
204 204 204
204 204 204
204 204 204
204 204 204
204 204 204
204 204 204
204 204 204
204 204 204
204 204 204
204 204 204
204 204 204
204 204 204
204 204 204
204 204 204
204 204 204
204 204 204
204 204 204
204 204 204
204 204 204
204 204 204
204 204 204
204 204 204
204 204 204
204 204 204
204 204 204
204 204 204
204 204 204
204 204 204
204 204 204
204 204 204
204 204 204
204 204 204
204 204 204
204 204 204
204 204 204
204 204 204
204 204 204
204 204 204
204 204 204
204 204 204
204 204 204
204 204 204
204 204 204
204 204 204
204 204 204
204 204 204
204 204 204
204 204 204
204 204 204
204 204 204
204 204 204
204 204 204
204 204 204
204 204 204
204 204 204
204 204 204
204 204 204
204 204 204
204 204 204
204 204 204
204 204 204
204 204 204
204 204 204
204 204 204
204 204 204
204 204 204
204 204 204
204 204 204
204 204 204
204 204 204
204 204 204
204 204 204
204 204 204
204 204 204
204 204 204
204 204 204
204 204 204
204 204 204
204 204 204
204 204 204
204 204 204
204 204 204
204 204 204
204 204 204
204 204 204
204 204 204
204 204 204
204 204 204
204 204 204
204 204 204
204 204 204
204 204 204
204 204 204
204 204 204
204 204 204
204 204 204
204 204 204
204 204 204
204 204 204
204 204 204
204 204 204
204 204 204
204 204 204
204 204 204
204 204 204
204 204 204
204 204 204
204 204 204
204 204 204
204 204 204
204 204 204
204 204 204
204 204 204
204 204 204
204 204 204
204 204 204
204 204 204
204 204 204
204 204 204
204 204 204
204 204 204
204 204 204
204 204 204
204 204 204
204 204 204
204 204 204
204 204 204
204 204 204
204 204 204
204 204 204
204 204 204
204 204 204
204 204 204
204 204 204
204 204 204
204 204 204
204 204 204
204 204 204
204 204 204
204 204 204
204 204 204
204 204 204
204 204 204
204 204 204
204 204 204
204 204 204
204 204 204
204 204 204
204 204 204
204 204 204
204 204 204
204 204 204
204 204 204
204 204 204
204 204 204
204 204 204
204 204 204
204 204 204
204 204 204
204 204 204
204 204 204
204 204 204
204 204 204
204 204 204
204 204 204
204 204 204
204 204 204
204 204 204
204 204 204
204 204 204
204 204 204
204 204 204
204 204 204
204 204 204
204 204 204
204 204 204
204 204 204
204 204 204
204 204 204
204 204 204
204 204 204
204 204 204
204 204 204
204 204 204
204 204 204
204 204 204
204 204 204
204 204 204
204 204 204
204 204 204
204 204 204
204 204 204
204 204 204
204 204 204
204 204 204
204 204 204
204 204 204
204 204 204
204 204 204
204 204 204
204 204 204
204 204 204
204 204 204
204 204 204
204 204 204
204 204 204
204 204 204
204 204 204
204 204 204
204 204 204
204 204 204
204 204 204
204 204 204
204 204 204
204 204 204
204 204 204
204 204 204
204 204 204
204 204 204
204 204 204
204 204 204
204 204 204
204 204 204
204 204 204
204 204 204
204 204 204
204 204 204
204 204 204
204 204 204
204 204 204
204 204 204
204 204 204
204 204 204
204 204 204
204 204 204
204 204 204
204 204 204
204 204 204
204 204 204
204 204 204
204 204 204
204 204 204
204 204 204
204 204 204
204 204 204
204 204 204
204 204 204
204 204 204
204 204 204
204 204 204
204 204 204
204 204 204
204 204 204
204 204 204
204 204 204
204 204 204
204 204 204
204 204 204
204 204 204
204 204 204
204 204 204
204 204 204
204 204 204
204 204 204
204 204 204
204 204 204
204 204 204
204 204 204
204 204 204
204 204 204
204 204 204
204 204 204
204 204 204
204 204 204
204 204 204
204 204 204
204 204 204
204 204 204
204 204 204
204 204 204
204 204 204
204 204 204
204 204 204
204 204 204
204 204 204
204 204 204
204 204 204
204 204 204
204 204 204
204 204 204
204 204 204
204 204 204
204 204 204
204 204 204
204 204 204
204 204 204
204 204 204
204 204 204
204 204 204
204 204 204
204 204 204
204 204 204
204 204 204
204 204 204
204 204 204
204 204 204
204 204 204
204 204 204
204 204 204
204 204 204
204 204 204
204 204 204
204 204 204
204 204 204
204 204 204
204 204 204
204 204 204
204 204 204
204 204 204
204 204 204
204 204 204
204 204 204
204 204 204
204 204 204
204 204 204
204 204 204
204 204 204
204 204 204
204 204 204
204 204 204
204 204 204
204 204 204
204 204 204
204 204 204
204 204 204
204 204 204
204 204 204
204 204 204
204 204 204
204 204 204
204 204 204
204 204 204
204 204 204
204 204 204
204 204 204
204 204 204
204 204 204
204 204 204
204 204 204
204 204 204
204 204 204
204 204 204
204 204 204
204 204 204
204 204 204
204 204 204
204 204 204
204 204 204
204 204 204
204 204 204
204 204 204
204 204 204
204 204 204
204 204 204
204 204 204
204 204 204
204 204 204
204 204 204
204 204 204
204 204 204
204 204 204
204 204 204
204 204 204
204 204 204
204 204 204
204 204 204
204 204 204
204 204 204
204 204 204
204 204 204
204 204 204
204 204 204
204 204 204
204 204 204
204 204 204
204 204 204
204 204 204
204 204 204
204 204 204
204 204 204
204 204 204
204 204 204
204 204 204
204 204 204
204 204 204
204 204 204
204 204 204
204 204 204
204 204 204
204 204 204
204 204 204
204 204 204
204 204 204
204 204 204
204 204 204
204 204 204
204 204 204
204 204 204
204 204 204
204 204 204
204 204 204
204 204 204
204 204 204
204 204 204
204 204 204
204 204 204
204 204 204
204 204 204
204 204 204
204 204 204
204 204 204
204 204 204
204 204 204
204 204 204
204 204 204
204 204 204
204 204 204
204 204 204
204 204 204
204 204 204
204 204 204
204 204 204
204 204 204
204 204 204
204 204 204
204 204 204
204 204 204
204 204 204
204 204 204
204 204 204
204 204 204
204 204 204
204 204 204
204 204 204
204 204 204
204 204 204
204 204 204
204 204 204
204 204 204
204 204 204
204 204 204
204 204 204
204 204 204
204 204 204
204 204 204
204 204 204
204 204 204
204 204 204
204 204 204
204 204 204
204 204 204
204 204 204
204 204 204
204 204 204
204 204 204
204 204 204
204 204 204
204 204 204
204 204 204
204 204 204
204 204 204
204 204 204
204 204 204
204 204 204
204 204 204
204 204 204
204 204 204
204 204 204
204 204 204
204 204 204
204 204 204
204 204 204
204 204 204
204 204 204
204 204 204
204 204 204
204 204 204
204 204 204
204 204 204
204 204 204
204 204 204
204 204 204
204 204 204
204 204 204
204 204 204
204 204 204
204 204 204
204 204 204
204 204 204
204 204 204
204 204 204
204 204 204
204 204 204
204 204 204
204 204 204
204 204 204
204 204 204
204 204 204
204 204 204
204 204 204
204 204 204
204 204 204
204 204 204
204 204 204
204 204 204
204 204 204
204 204 204
204 204 204
204 204 204
204 204 204
204 204 204
204 204 204
204 204 204
204 204 204
204 204 204
204 204 204
204 204 204
204 204 204
204 204 204
204 204 204
204 204 204
204 204 204
204 204 204
204 204 204
204 204 204
204 204 204
204 204 204
204 204 204
204 204 204
204 204 204
204 204 204
204 204 204
204 204 204
204 204 204
204 204 204
204 204 204
204 204 204
204 204 204
204 204 204
204 204 204
204 204 204
204 204 204
204 204 204
204 204 204
204 204 204
204 204 204
204 204 204
204 204 204
204 204 204
204 204 204
204 204 204
204 204 204
204 204 204
204 204 204
204 204 204
204 204 204
204 204 204
204 204 204
204 204 204
204 204 204
204 204 204
204 204 204
204 204 204
204 204 204
204 204 204
204 204 204
204 204 204
204 204 204
204 204 204
204 204 204
204 204 204
204 204 204
204 204 204
204 204 204
204 204 204
204 204 204
204 204 204
204 204 204
204 204 204
204 204 204
204 204 204
204 204 204
204 204 204
204 204 204
204 204 204
204 204 204
204 204 204
204 204 204
204 204 204
204 204 204
204 204 204
204 204 204
204 204 204
204 204 204
204 204 204
204 204 204
204 204 204
204 204 204
204 204 204
204 204 204
204 204 204
204 204 204
204 204 204
204 204 204
204 204 204
204 204 204
204 204 204
204 204 204
204 204 204
204 204 204
204 204 204
204 204 204
204 204 204
204 204 204
204 204 204
204 204 204
204 204 204
204 204 204
204 204 204
204 204 204
204 204 204
204 204 204
204 204 204
204 204 204
204 204 204
204 204 204
204 204 204
204 204 204
204 204 204
204 204 204
204 204 204
204 204 204
204 204 204
204 204 204
204 204 204
204 204 204
204 204 204
204 204 204
204 204 204
204 204 204
204 204 204
204 204 204
204 204 204
204 204 204
204 204 204
204 204 204
204 204 204
204 204 204
204 204 204
204 204 204
204 204 204
204 204 204
204 204 204
204 204 204
204 204 204
204 204 204
204 204 204
204 204 204
204 204 204
204 204 204
204 204 204
204 204 204
204 204 204
204 204 204
204 204 204
204 204 204
204 204 204
204 204 204
204 204 204
204 204 204
204 204 204
204 204 204
204 204 204
204 204 204
204 204 204
204 204 204
204 204 204
204 204 204
204 204 204
204 204 204
204 204 204
204 204 204
204 204 204
204 204 204
204 204 204
204 204 204
204 204 204
204 204 204
204 204 204
204 204 204
204 204 204
204 204 204
204 204 204
204 204 204
204 204 204
204 204 204
204 204 204
204 204 204
204 204 204
204 204 204
204 204 204
204 204 204
204 204 204
204 204 204
204 204 204
204 204 204
204 204 204
204 204 204
204 204 204
204 204 204
204 204 204
204 204 204
204 204 204
204 204 204
204 204 204
204 204 204
204 204 204
204 204 204
204 204 204
204 204 204
204 204 204
204 204 204
204 204 204
204 204 204
204 204 204
204 204 204
204 204 204
204 204 204
204 204 204
204 204 204
204 204 204
204 204 204
204 204 204
204 204 204
204 204 204
204 204 204
204 204 204
204 204 204
204 204 204
204 204 204
204 204 204
204 204 204
204 204 204
204 204 204
204 204 204
204 204 204
204 204 204
204 204 204
204 204 204
204 204 204
204 204 204
204 204 204
204 204 204
204 204 204
204 204 204
204 204 204
204 204 204
204 204 204
204 204 204
204 204 204
204 204 204
204 204 204
204 204 204
204 204 204
204 204 204
204 204 204
204 204 204
204 204 204
204 204 204
204 204 204
204 204 204
204 204 204
204 204 204
204 204 204
204 204 204
204 204 204
204 204 204
204 204 204
204 204 204
204 204 204
204 204 204
204 204 204
204 204 204
204 204 204
204 204 204
204 204 204
204 204 204
204 204 204
204 204 204
204 204 204
204 204 204
204 204 204
204 204 204
204 204 204
204 204 204
204 204 204
204 204 204
204 204 204
204 204 204
204 204 204
204 204 204
204 204 204
204 204 204
204 204 204
204 204 204
204 204 204
204 204 204
204 204 204
204 204 204
204 204 204
204 204 204
204 204 204
204 204 204
204 204 204
204 204 204
204 204 204
204 204 204
204 204 204
204 204 204
204 204 204
204 204 204
204 204 204
204 204 204
204 204 204
204 204 204
204 204 204
204 204 204
204 204 204
204 204 204
204 204 204
204 204 204
204 204 204
204 204 204
204 204 204
204 204 204
204 204 204
204 204 204
204 204 204
204 204 204
204 204 204
204 204 204
204 204 204
204 204 204
204 204 204
204 204 204
204 204 204
204 204 204
204 204 204
204 204 204
204 204 204
204 204 204
204 204 204
204 204 204
204 204 204
204 204 204
204 204 204
204 204 204
204 204 204
204 204 204
204 204 204
204 204 204
204 204 204
204 204 204
204 204 204
204 204 204
204 204 204
204 204 204
204 204 204
204 204 204
204 204 204
204 204 204
204 204 204
204 204 204
204 204 204
204 204 204
204 204 204
204 204 204
204 204 204
204 204 204
204 204 204
204 204 204
204 204 204
204 204 204
204 204 204
204 204 204
204 204 204
204 204 204
204 204 204
204 204 204
204 204 204
204 204 204
204 204 204
204 204 204
204 204 204
204 204 204
204 204 204
204 204 204
204 204 204
204 204 204
204 204 204
204 204 204
204 204 204
204 204 204
204 204 204
204 204 204
204 204 204
204 204 204
204 204 204
204 204 204
204 204 204
204 204 204
204 204 204
204 204 204
204 204 204
204 204 204
204 204 204
204 204 204
204 204 204
204 204 204
204 204 204
204 204 204
204 204 204
204 204 204
204 204 204
204 204 204
204 204 204
204 204 204
204 204 204
204 204 204
204 204 204
204 204 204
204 204 204
204 204 204
204 204 204
204 204 204
204 204 204
204 204 204
204 204 204
204 204 204
204 204 204
204 204 204
204 204 204
204 204 204
204 204 204
204 204 204
204 204 204
204 204 204
204 204 204
204 204 204
204 204 204
204 204 204
204 204 204
204 204 204
204 204 204
204 204 204
204 204 204
204 204 204
204 204 204
204 204 204
204 204 204
204 204 204
204 204 204
204 204 204
204 204 204
204 204 204
204 204 204
204 204 204
204 204 204
204 204 204
204 204 204
204 204 204
204 204 204
204 204 204
204 204 204
204 204 204
204 204 204
204 204 204
204 204 204
204 204 204
204 204 204
204 204 204
204 204 204
204 204 204
204 204 204
204 204 204
204 204 204
204 204 204
204 204 204
204 204 204
204 204 204
204 204 204
204 204 204
204 204 204
204 204 204
204 204 204
204 204 204
204 204 204
204 204 204
204 204 204
204 204 204
204 204 204
204 204 204
204 204 204
204 204 204
204 204 204
204 204 204
204 204 204
204 204 204
204 204 204
204 204 204
204 204 204
204 204 204
204 204 204
204 204 204
204 204 204
204 204 204
204 204 204
204 204 204
204 204 204
204 204 204
204 204 204
204 204 204
204 204 204
204 204 204
204 204 204
204 204 204
204 204 204
204 204 204
204 204 204
204 204 204
204 204 204
204 204 204
204 204 204
204 204 204
204 204 204
204 204 204
204 204 204
204 204 204
204 204 204
204 204 204
204 204 204
204 204 204
204 204 204
204 204 204
204 204 204
204 204 204
204 204 204
204 204 204
204 204 204
204 204 204
204 204 204
204 204 204
204 204 204
204 204 204
204 204 204
204 204 204
204 204 204
204 204 204
204 204 204
204 204 204
204 204 204
204 204 204
204 204 204
204 204 204
204 204 204
204 204 204
204 204 204
204 204 204
204 204 204
204 204 204
204 204 204
204 204 204
204 204 204
204 204 204
204 204 204
204 204 204
204 204 204
204 204 204
204 204 204
204 204 204
204 204 204
204 204 204
204 204 204
204 204 204
204 204 204
204 204 204
204 204 204
204 204 204
204 204 204
204 204 204
204 204 204
204 204 204
204 204 204
204 204 204
204 204 204
204 204 204
204 204 204
204 204 204
204 204 204
204 204 204
204 204 204
204 204 204
204 204 204
204 204 204
204 204 204
204 204 204
204 204 204
204 204 204
204 204 204
204 204 204
204 204 204
204 204 204
204 204 204
204 204 204
204 204 204
204 204 204
204 204 204
204 204 204
204 204 204
204 204 204
204 204 204
204 204 204
204 204 204
204 204 204
204 204 204
204 204 204
204 204 204
204 204 204
204 204 204
204 204 204
204 204 204
204 204 204
204 204 204
204 204 204
204 204 204
204 204 204
204 204 204
204 204 204
204 204 204
204 204 204
204 204 204
204 204 204
204 204 204
204 204 204
204 204 204
204 204 204
204 204 204
204 204 204
204 204 204
204 204 204
204 204 204
204 204 204
204 204 204
204 204 204
204 204 204
204 204 204
204 204 204
204 204 204
204 204 204
204 204 204
204 204 204
204 204 204
204 204 204
204 204 204
204 204 204
204 204 204
204 204 204
204 204 204
204 204 204
204 204 204
204 204 204
204 204 204
204 204 204
204 204 204
204 204 204
204 204 204
204 204 204
204 204 204
204 204 204
204 204 204
204 204 204
204 204 204
204 204 204
204 204 204
204 204 204
204 204 204
204 204 204
204 204 204
204 204 204
204 204 204
204 204 204
204 204 204
204 204 204
204 204 204
204 204 204
204 204 204
204 204 204
204 204 204
204 204 204
204 204 204
204 204 204
204 204 204
204 204 204
204 204 204
204 204 204
204 204 204
204 204 204
204 204 204
204 204 204
204 204 204
204 204 204
204 204 204
204 204 204
204 204 204
204 204 204
204 204 204
204 204 204
204 204 204
204 204 204
204 204 204
204 204 204
204 204 204
204 204 204
204 204 204
204 204 204
204 204 204
204 204 204
204 204 204
204 204 204
204 204 204
204 204 204
204 204 204
204 204 204
204 204 204
204 204 204
204 204 204
204 204 204
204 204 204
204 204 204
204 204 204
204 204 204
204 204 204
204 204 204
204 204 204
204 204 204
204 204 204
204 204 204
204 204 204
204 204 204
204 204 204
204 204 204
204 204 204
204 204 204
204 204 204
204 204 204
204 204 204
204 204 204
204 204 204
204 204 204
204 204 204
204 204 204
204 204 204
204 204 204
204 204 204
204 204 204
204 204 204
204 204 204
204 204 204
204 204 204
204 204 204
204 204 204
204 204 204
204 204 204
204 204 204
204 204 204
204 204 204
204 204 204
204 204 204
204 204 204
204 204 204
204 204 204
204 204 204
204 204 204
204 204 204
204 204 204
204 204 204
204 204 204
204 204 204
204 204 204
204 204 204
204 204 204
204 204 204
204 204 204
204 204 204
204 204 204
204 204 204
204 204 204
204 204 204
204 204 204
204 204 204
204 204 204
204 204 204
204 204 204
204 204 204
204 204 204
204 204 204
204 204 204
204 204 204
204 204 204
204 204 204
204 204 204
204 204 204
204 204 204
204 204 204
204 204 204
204 204 204
204 204 204
204 204 204
204 204 204
204 204 204
204 204 204
204 204 204
204 204 204
204 204 204
204 204 204
204 204 204
204 204 204
204 204 204
204 204 204
204 204 204
204 204 204
204 204 204
204 204 204
204 204 204
204 204 204
204 204 204
204 204 204
204 204 204
204 204 204
204 204 204
204 204 204
204 204 204
204 204 204
204 204 204
204 204 204
204 204 204
204 204 204
204 204 204
204 204 204
204 204 204
204 204 204
204 204 204
204 204 204
204 204 204
204 204 204
204 204 204
204 204 204
204 204 204
204 204 204
204 204 204
204 204 204
204 204 204
204 204 204
204 204 204
204 204 204
204 204 204
204 204 204
204 204 204
204 204 204
204 204 204
204 204 204
204 204 204
204 204 204
204 204 204
204 204 204
204 204 204
204 204 204
204 204 204
204 204 204
204 204 204
204 204 204
204 204 204
204 204 204
204 204 204
204 204 204
204 204 204
204 204 204
204 204 204
204 204 204
204 204 204
204 204 204
204 204 204
204 204 204
204 204 204
204 204 204
204 204 204
204 204 204
204 204 204
204 204 204
204 204 204
204 204 204
204 204 204
204 204 204
204 204 204
204 204 204
204 204 204
204 204 204
204 204 204
204 204 204
204 204 204
204 204 204
204 204 204
204 204 204
204 204 204
204 204 204
204 204 204
204 204 204
204 204 204
204 204 204
204 204 204
204 204 204
204 204 204
204 204 204
204 204 204
204 204 204
204 204 204
204 204 204
204 204 204
204 204 204
204 204 204
204 204 204
204 204 204
204 204 204
204 204 204
204 204 204
204 204 204
204 204 204
204 204 204
204 204 204
204 204 204
204 204 204
204 204 204
204 204 204
204 204 204
204 204 204
204 204 204
204 204 204
204 204 204
204 204 204
204 204 204
204 204 204
204 204 204
204 204 204
204 204 204
204 204 204
204 204 204
204 204 204
204 204 204
204 204 204
204 204 204
204 204 204
204 204 204
204 204 204
204 204 204
204 204 204
204 204 204
204 204 204
204 204 204
204 204 204
204 204 204
204 204 204
204 204 204
204 204 204
204 204 204
204 204 204
204 204 204
204 204 204
204 204 204
204 204 204
204 204 204
204 204 204
204 204 204
204 204 204
204 204 204
204 204 204
204 204 204
204 204 204
204 204 204
204 204 204
204 204 204
204 204 204
204 204 204
204 204 204
204 204 204
204 204 204
204 204 204
204 204 204
204 204 204
204 204 204
204 204 204
204 204 204
204 204 204
204 204 204
204 204 204
204 204 204
204 204 204
204 204 204
204 204 204
204 204 204
204 204 204
204 204 204
204 204 204
204 204 204
204 204 204
204 204 204
204 204 204
204 204 204
204 204 204
204 204 204
204 204 204
204 204 204
204 204 204
204 204 204
204 204 204
204 204 204
204 204 204
204 204 204
204 204 204
204 204 204
204 204 204
204 204 204
204 204 204
204 204 204
204 204 204
204 204 204
204 204 204
204 204 204
204 204 204
204 204 204
204 204 204
204 204 204
204 204 204
204 204 204
204 204 204
204 204 204
204 204 204
204 204 204
204 204 204
204 204 204
204 204 204
204 204 204
204 204 204
204 204 204
204 204 204
204 204 204
204 204 204
204 204 204
204 204 204
204 204 204
204 204 204
204 204 204
204 204 204
204 204 204
204 204 204
204 204 204
204 204 204
204 204 204
204 204 204
204 204 204
204 204 204
204 204 204
204 204 204
204 204 204
204 204 204
204 204 204
204 204 204
204 204 204
204 204 204
204 204 204
204 204 204
204 204 204
204 204 204
204 204 204
204 204 204
204 204 204
204 204 204
204 204 204
204 204 204
204 204 204
204 204 204
204 204 204
204 204 204
204 204 204
204 204 204
204 204 204
204 204 204
204 204 204
204 204 204
204 204 204
204 204 204
204 204 204
204 204 204
204 204 204
204 204 204
204 204 204
204 204 204
204 204 204
204 204 204
204 204 204
204 204 204
204 204 204
204 204 204
204 204 204
204 204 204
204 204 204
204 204 204
204 204 204
204 204 204
204 204 204
204 204 204
204 204 204
204 204 204
204 204 204
204 204 204
204 204 204
204 204 204
204 204 204
204 204 204
204 204 204
204 204 204
204 204 204
204 204 204
204 204 204
204 204 204
204 204 204
204 204 204
204 204 204
204 204 204
204 204 204
204 204 204
204 204 204
204 204 204
204 204 204
204 204 204
204 204 204
204 204 204
204 204 204
204 204 204
204 204 204
204 204 204
204 204 204
204 204 204
204 204 204
204 204 204
204 204 204
204 204 204
204 204 204
204 204 204
204 204 204
204 204 204
204 204 204
204 204 204
204 204 204
204 204 204
204 204 204
204 204 204
204 204 204
204 204 204
204 204 204
204 204 204
204 204 204
204 204 204
204 204 204
204 204 204
204 204 204
204 204 204
204 204 204
204 204 204
204 204 204
204 204 204
204 204 204
204 204 204
204 204 204
204 204 204
204 204 204
204 204 204
204 204 204
204 204 204
204 204 204
204 204 204
204 204 204
204 204 204
204 204 204
204 204 204
204 204 204
204 204 204
204 204 204
204 204 204
204 204 204
204 204 204
204 204 204
204 204 204
204 204 204
204 204 204
204 204 204
204 204 204
204 204 204
204 204 204
204 204 204
204 204 204
204 204 204
204 204 204
204 204 204
204 204 204
204 204 204
204 204 204
204 204 204
204 204 204
204 204 204
204 204 204
204 204 204
204 204 204
204 204 204
204 204 204
204 204 204
204 204 204
204 204 204
204 204 204
204 204 204
204 204 204
204 204 204
204 204 204
204 204 204
204 204 204
204 204 204
204 204 204
204 204 204
204 204 204
204 204 204
204 204 204
204 204 204
204 204 204
204 204 204
204 204 204
204 204 204
204 204 204
204 204 204
204 204 204
204 204 204
204 204 204
204 204 204
204 204 204
204 204 204
204 204 204
204 204 204
204 204 204
204 204 204
204 204 204
204 204 204
204 204 204
204 204 204
204 204 204
204 204 204
204 204 204
204 204 204
204 204 204
204 204 204
204 204 204
204 204 204
204 204 204
204 204 204
204 204 204
204 204 204
204 204 204
204 204 204
204 204 204
204 204 204
204 204 204
204 204 204
204 204 204
204 204 204
204 204 204
204 204 204
204 204 204
204 204 204
204 204 204
204 204 204
204 204 204
204 204 204
204 204 204
204 204 204
204 204 204
204 204 204
204 204 204
204 204 204
204 204 204
204 204 204
204 204 204
204 204 204
204 204 204
204 204 204
204 204 204
204 204 204
204 204 204
204 204 204
204 204 204
204 204 204
204 204 204
204 204 204
204 204 204
204 204 204
204 204 204
204 204 204
204 204 204
204 204 204
204 204 204
204 204 204
204 204 204
204 204 204
204 204 204
204 204 204
204 204 204
204 204 204
204 204 204
204 204 204
204 204 204
204 204 204
204 204 204
204 204 204
204 204 204
204 204 204
204 204 204
204 204 204
204 204 204
204 204 204
204 204 204
204 204 204
204 204 204
204 204 204
204 204 204
204 204 204
204 204 204
204 204 204
204 204 204
204 204 204
204 204 204
204 204 204
204 204 204
204 204 204
204 204 204
204 204 204
204 204 204
204 204 204
204 204 204
204 204 204
204 204 204
204 204 204
204 204 204
204 204 204
204 204 204
204 204 204
204 204 204
204 204 204
204 204 204
204 204 204
204 204 204
204 204 204
204 204 204
204 204 204
204 204 204
204 204 204
204 204 204
204 204 204
204 204 204
204 204 204
204 204 204
204 204 204
204 204 204
204 204 204
204 204 204
204 204 204
204 204 204
204 204 204
204 204 204
204 204 204
204 204 204
204 204 204
204 204 204
204 204 204
204 204 204
204 204 204
204 204 204
204 204 204
204 204 204
204 204 204
204 204 204
204 204 204
204 204 204
204 204 204
204 204 204
204 204 204
204 204 204
204 204 204
204 204 204
204 204 204
204 204 204
204 204 204
204 204 204
204 204 204
204 204 204
204 204 204
204 204 204
204 204 204
204 204 204
204 204 204
204 204 204
204 204 204
204 204 204
204 204 204
204 204 204
204 204 204
204 204 204
204 204 204
204 204 204
204 204 204
204 204 204
204 204 204
204 204 204
204 204 204
204 204 204
204 204 204
204 204 204
204 204 204
204 204 204
204 204 204
204 204 204
204 204 204
204 204 204
204 204 204
204 204 204
204 204 204
204 204 204
204 204 204
204 204 204
204 204 204
204 204 204
204 204 204
204 204 204
204 204 204
204 204 204
204 204 204
204 204 204
204 204 204
204 204 204
204 204 204
204 204 204
204 204 204
204 204 204
204 204 204
204 204 204
204 204 204
204 204 204
204 204 204
204 204 204
204 204 204
204 204 204
204 204 204
204 204 204
204 204 204
204 204 204
204 204 204
204 204 204
204 204 204
204 204 204
204 204 204
204 204 204
204 204 204
204 204 204
204 204 204
204 204 204
204 204 204
204 204 204
204 204 204
204 204 204
204 204 204
204 204 204
204 204 204
204 204 204
204 204 204
204 204 204
204 204 204
204 204 204
204 204 204
204 204 204
204 204 204
204 204 204
204 204 204
204 204 204
204 204 204
204 204 204
204 204 204
204 204 204
204 204 204
204 204 204
204 204 204
204 204 204
204 204 204
204 204 204
204 204 204
204 204 204
204 204 204
204 204 204
204 204 204
204 204 204
204 204 204
204 204 204
204 204 204
204 204 204
204 204 204
204 204 204
204 204 204
204 204 204
204 204 204
204 204 204
204 204 204
204 204 204
204 204 204
204 204 204
204 204 204
204 204 204
204 204 204
204 204 204
204 204 204
204 204 204
204 204 204
204 204 204
204 204 204
204 204 204
204 204 204
204 204 204
204 204 204
204 204 204
204 204 204
204 204 204
204 204 204
204 204 204
204 204 204
204 204 204
204 204 204
204 204 204
204 204 204
204 204 204
204 204 204
204 204 204
204 204 204
204 204 204
204 204 204
204 204 204
204 204 204
204 204 204
204 204 204
204 204 204
204 204 204
204 204 204
204 204 204
204 204 204
204 204 204
204 204 204
204 204 204
204 204 204
204 204 204
204 204 204
204 204 204
204 204 204
204 204 204
204 204 204
204 204 204
204 204 204
204 204 204
204 204 204
204 204 204
204 204 204
204 204 204
204 204 204
204 204 204
204 204 204
204 204 204
204 204 204
204 204 204
204 204 204
204 204 204
204 204 204
204 204 204
204 204 204
204 204 204
204 204 204
204 204 204
204 204 204
204 204 204
204 204 204
204 204 204
204 204 204
204 204 204
204 204 204
204 204 204
204 204 204
204 204 204
204 204 204
204 204 204
204 204 204
204 204 204
204 204 204
204 204 204
204 204 204
204 204 204
204 204 204
204 204 204
204 204 204
204 204 204
204 204 204
204 204 204
204 204 204
204 204 204
204 204 204
204 204 204
204 204 204
204 204 204
204 204 204
204 204 204
204 204 204
204 204 204
204 204 204
204 204 204
204 204 204
204 204 204
204 204 204
204 204 204
204 204 204
204 204 204
204 204 204
204 204 204
204 204 204
204 204 204
204 204 204
204 204 204
204 204 204
204 204 204
204 204 204
204 204 204
204 204 204
204 204 204
204 204 204
204 204 204
204 204 204
204 204 204
204 204 204
204 204 204
204 204 204
204 204 204
204 204 204
204 204 204
204 204 204
204 204 204
204 204 204
204 204 204
204 204 204
204 204 204
204 204 204
204 204 204
204 204 204
204 204 204
204 204 204
204 204 204
204 204 204
204 204 204
204 204 204
204 204 204
204 204 204
204 204 204
204 204 204
204 204 204
204 204 204
204 204 204
204 204 204
204 204 204
204 204 204
204 204 204
204 204 204
204 204 204
204 204 204
204 204 204
204 204 204
204 204 204
204 204 204
204 204 204
204 204 204
204 204 204
204 204 204
204 204 204
204 204 204
204 204 204
204 204 204
204 204 204
204 204 204
204 204 204
204 204 204
204 204 204
204 204 204
204 204 204
204 204 204
204 204 204
204 204 204
204 204 204
204 204 204
204 204 204
204 204 204
204 204 204
204 204 204
204 204 204
204 204 204
204 204 204
204 204 204
204 204 204
204 204 204
204 204 204
204 204 204
204 204 204
204 204 204
204 204 204
204 204 204
204 204 204
204 204 204
204 204 204
204 204 204
204 204 204
204 204 204
204 204 204
204 204 204
204 204 204
204 204 204
204 204 204
204 204 204
204 204 204
204 204 204
204 204 204
204 204 204
204 204 204
204 204 204
204 204 204
204 204 204
204 204 204
204 204 204
204 204 204
204 204 204
204 204 204
204 204 204
204 204 204
204 204 204
204 204 204
204 204 204
204 204 204
204 204 204
204 204 204
204 204 204
204 204 204
204 204 204
204 204 204
204 204 204
204 204 204
204 204 204
204 204 204
204 204 204
204 204 204
204 204 204
204 204 204
204 204 204
204 204 204
204 204 204
204 204 204
204 204 204
204 204 204
204 204 204
204 204 204
204 204 204
204 204 204
204 204 204
204 204 204
204 204 204
204 204 204
204 204 204
204 204 204
204 204 204
204 204 204
204 204 204
204 204 204
204 204 204
204 204 204
204 204 204
204 204 204
204 204 204
204 204 204
204 204 204
204 204 204
204 204 204
204 204 204
204 204 204
204 204 204
204 204 204
204 204 204
204 204 204
204 204 204
204 204 204
204 204 204
204 204 204
204 204 204
204 204 204
204 204 204
204 204 204
204 204 204
204 204 204
204 204 204
204 204 204
204 204 204
204 204 204
204 204 204
204 204 204
204 204 204
204 204 204
204 204 204
204 204 204
204 204 204
204 204 204
204 204 204
204 204 204
204 204 204
204 204 204
204 204 204
204 204 204
204 204 204
204 204 204
204 204 204
204 204 204
204 204 204
204 204 204
204 204 204
204 204 204
204 204 204
204 204 204
204 204 204
204 204 204
204 204 204
204 204 204
204 204 204
204 204 204
204 204 204
204 204 204
204 204 204
204 204 204
204 204 204
204 204 204
204 204 204
204 204 204
204 204 204
204 204 204
204 204 204
204 204 204
204 204 204
204 204 204
204 204 204
204 204 204
204 204 204
204 204 204
204 204 204
204 204 204
204 204 204
204 204 204
204 204 204
204 204 204
204 204 204
204 204 204
204 204 204
204 204 204
204 204 204
204 204 204
204 204 204
204 204 204
204 204 204
204 204 204
204 204 204
204 204 204
204 204 204
204 204 204
204 204 204
204 204 204
204 204 204
204 204 204
204 204 204
204 204 204
204 204 204
204 204 204
204 204 204
204 204 204
204 204 204
204 204 204
204 204 204
204 204 204
204 204 204
204 204 204
204 204 204
204 204 204
204 204 204
204 204 204
204 204 204
204 204 204
204 204 204
204 204 204
204 204 204
204 204 204
204 204 204
204 204 204
204 204 204
204 204 204
204 204 204
204 204 204
204 204 204
204 204 204
204 204 204
204 204 204
204 204 204
204 204 204
204 204 204
204 204 204
204 204 204
204 204 204
204 204 204
204 204 204
204 204 204
204 204 204
204 204 204
204 204 204
204 204 204
204 204 204
204 204 204
204 204 204
204 204 204
204 204 204
204 204 204
204 204 204
204 204 204
204 204 204
204 204 204
204 204 204
204 204 204
204 204 204
204 204 204
204 204 204
204 204 204
204 204 204
204 204 204
204 204 204
204 204 204
204 204 204
204 204 204
204 204 204
204 204 204
204 204 204
204 204 204
204 204 204
204 204 204
204 204 204
204 204 204
204 204 204
204 204 204
204 204 204
204 204 204
204 204 204
204 204 204
204 204 204
204 204 204
204 204 204
204 204 204
204 204 204
204 204 204
204 204 204
204 204 204
204 204 204
204 204 204
204 204 204
204 204 204
204 204 204
204 204 204
204 204 204
204 204 204
204 204 204
204 204 204
204 204 204
204 204 204
204 204 204
204 204 204
204 204 204
204 204 204
204 204 204
204 204 204
204 204 204
204 204 204
204 204 204
204 204 204
204 204 204
204 204 204
204 204 204
204 204 204
204 204 204
204 204 204
204 204 204
204 204 204
204 204 204
204 204 204
204 204 204
204 204 204
204 204 204
204 204 204
204 204 204
204 204 204
204 204 204
204 204 204
204 204 204
204 204 204
204 204 204
204 204 204
204 204 204
204 204 204
204 204 204
204 204 204
204 204 204
204 204 204
204 204 204
204 204 204
204 204 204
204 204 204
204 204 204
204 204 204
204 204 204
204 204 204
204 204 204
204 204 204
204 204 204
204 204 204
204 204 204
204 204 204
204 204 204
204 204 204
204 204 204
204 204 204
204 204 204
204 204 204
204 204 204
204 204 204
204 204 204
204 204 204
204 204 204
204 204 204
204 204 204
204 204 204
204 204 204
204 204 204
204 204 204
204 204 204
204 204 204
204 204 204
204 204 204
204 204 204
204 204 204
204 204 204
204 204 204
204 204 204
204 204 204
204 204 204
204 204 204
204 204 204
204 204 204
204 204 204
204 204 204
204 204 204
204 204 204
204 204 204
204 204 204
204 204 204
204 204 204
204 204 204
204 204 204
204 204 204
204 204 204
204 204 204
204 204 204
204 204 204
204 204 204
204 204 204
204 204 204
204 204 204
204 204 204
204 204 204
204 204 204
204 204 204
204 204 204
204 204 204
204 204 204
204 204 204
204 204 204
204 204 204
204 204 204
204 204 204
204 204 204
204 204 204
204 204 204
204 204 204
204 204 204
204 204 204
204 204 204
204 204 204
204 204 204
204 204 204
204 204 204
204 204 204
204 204 204
204 204 204
204 204 204
204 204 204
204 204 204
204 204 204
204 204 204
204 204 204
204 204 204
204 204 204
204 204 204
204 204 204
204 204 204
204 204 204
204 204 204
204 204 204
204 204 204
204 204 204
204 204 204
204 204 204
204 204 204
204 204 204
204 204 204
204 204 204
204 204 204
204 204 204
204 204 204
204 204 204
204 204 204
204 204 204
204 204 204
204 204 204
204 204 204
204 204 204
204 204 204
204 204 204
204 204 204
204 204 204
204 204 204
204 204 204
204 204 204
204 204 204
204 204 204
204 204 204
204 204 204
204 204 204
204 204 204
204 204 204
204 204 204
204 204 204
204 204 204
204 204 204
204 204 204
204 204 204
204 204 204
204 204 204
204 204 204
204 204 204
204 204 204
204 204 204
204 204 204
204 204 204
204 204 204
204 204 204
204 204 204
204 204 204
204 204 204
204 204 204
204 204 204
204 204 204
204 204 204
204 204 204
204 204 204
204 204 204
204 204 204
204 204 204
204 204 204
204 204 204
204 204 204
204 204 204
204 204 204
204 204 204
204 204 204
204 204 204
204 204 204
204 204 204
204 204 204
204 204 204
204 204 204
204 204 204
204 204 204
204 204 204
204 204 204
204 204 204
204 204 204
204 204 204
204 204 204
204 204 204
204 204 204
204 204 204
204 204 204
204 204 204
204 204 204
204 204 204
204 204 204
204 204 204
204 204 204
204 204 204
204 204 204
204 204 204
204 204 204
204 204 204
204 204 204
204 204 204
204 204 204
204 204 204
204 204 204
204 204 204
204 204 204
204 204 204
204 204 204
204 204 204
204 204 204
204 204 204
204 204 204
204 204 204
204 204 204
204 204 204
204 204 204
204 204 204
204 204 204
204 204 204
204 204 204
204 204 204
204 204 204
204 204 204
204 204 204
204 204 204
204 204 204
204 204 204
204 204 204
204 204 204
204 204 204
204 204 204
204 204 204
204 204 204
204 204 204
204 204 204
204 204 204
204 204 204
204 204 204
204 204 204
204 204 204
204 204 204
204 204 204
204 204 204
204 204 204
204 204 204
204 204 204
204 204 204
204 204 204
204 204 204
204 204 204
204 204 204
204 204 204
204 204 204
204 204 204
204 204 204
204 204 204
204 204 204
204 204 204
204 204 204
204 204 204
204 204 204
204 204 204
204 204 204
204 204 204
204 204 204
204 204 204
204 204 204
204 204 204
204 204 204
204 204 204
204 204 204
204 204 204
204 204 204
204 204 204
204 204 204
204 204 204
204 204 204
204 204 204
204 204 204
204 204 204
204 204 204
204 204 204
204 204 204
204 204 204
204 204 204
204 204 204
204 204 204
204 204 204
204 204 204
204 204 204
204 204 204
204 204 204
204 204 204
204 204 204
204 204 204
204 204 204
204 204 204
204 204 204
204 204 204
204 204 204
204 204 204
204 204 204
204 204 204
204 204 204
204 204 204
204 204 204
204 204 204
204 204 204
204 204 204
204 204 204
204 204 204
204 204 204
204 204 204
204 204 204
204 204 204
204 204 204
204 204 204
204 204 204
204 204 204
204 204 204
204 204 204
204 204 204
204 204 204
204 204 204
204 204 204
204 204 204
204 204 204
204 204 204
204 204 204
204 204 204
204 204 204
204 204 204
204 204 204
204 204 204
204 204 204
204 204 204
204 204 204
204 204 204
204 204 204
204 204 204
204 204 204
204 204 204
204 204 204
204 204 204
204 204 204
204 204 204
204 204 204
204 204 204
204 204 204
204 204 204
204 204 204
204 204 204
204 204 204
204 204 204
204 204 204
204 204 204
204 204 204
204 204 204
204 204 204
204 204 204
204 204 204
204 204 204
204 204 204
204 204 204
204 204 204
204 204 204
204 204 204
204 204 204
204 204 204
204 204 204
204 204 204
204 204 204
204 204 204
204 204 204
204 204 204
204 204 204
204 204 204
204 204 204
204 204 204
204 204 204
204 204 204
204 204 204
204 204 204
204 204 204
204 204 204
204 204 204
204 204 204
204 204 204
204 204 204
204 204 204
204 204 204
204 204 204
204 204 204
204 204 204
204 204 204
204 204 204
204 204 204
204 204 204
204 204 204
204 204 204
204 204 204
204 204 204
204 204 204
204 204 204
204 204 204
204 204 204
204 204 204
204 204 204
204 204 204
204 204 204
204 204 204
204 204 204
204 204 204
204 204 204
204 204 204
204 204 204
204 204 204
204 204 204
204 204 204
204 204 204
204 204 204
204 204 204
204 204 204
204 204 204
204 204 204
204 204 204
204 204 204
204 204 204
204 204 204
204 204 204
204 204 204
204 204 204
204 204 204
204 204 204
204 204 204
204 204 204
204 204 204
204 204 204
204 204 204
204 204 204
204 204 204
204 204 204
204 204 204
204 204 204
204 204 204
204 204 204
204 204 204
204 204 204
204 204 204
204 204 204
204 204 204
204 204 204
204 204 204
204 204 204
204 204 204
204 204 204
204 204 204
204 204 204
204 204 204
204 204 204
204 204 204
204 204 204
204 204 204
204 204 204
204 204 204
204 204 204
204 204 204
204 204 204
204 204 204
204 204 204
204 204 204
204 204 204
204 204 204
204 204 204
204 204 204
204 204 204
204 204 204
204 204 204
204 204 204
204 204 204
204 204 204
204 204 204
204 204 204
204 204 204
204 204 204
204 204 204
204 204 204
204 204 204
204 204 204
204 204 204
204 204 204
204 204 204
204 204 204
204 204 204
204 204 204
204 204 204
204 204 204
204 204 204
204 204 204
204 204 204
204 204 204
204 204 204
204 204 204
204 204 204
204 204 204
204 204 204
204 204 204
204 204 204
204 204 204
204 204 204
204 204 204
204 204 204
204 204 204
204 204 204
204 204 204
204 204 204
204 204 204
204 204 204
204 204 204
204 204 204
204 204 204
204 204 204
204 204 204
204 204 204
204 204 204
204 204 204
204 204 204
204 204 204
204 204 204
204 204 204
204 204 204
204 204 204
204 204 204
204 204 204
204 204 204
204 204 204
204 204 204
204 204 204
204 204 204
204 204 204
204 204 204
204 204 204
204 204 204
204 204 204
204 204 204
204 204 204
204 204 204
204 204 204
204 204 204
204 204 204
204 204 204
204 204 204
204 204 204
204 204 204
204 204 204
204 204 204
204 204 204
204 204 204
204 204 204
204 204 204
204 204 204
204 204 204
204 204 204
204 204 204
204 204 204
204 204 204
204 204 204
204 204 204
204 204 204
204 204 204
204 204 204
204 204 204
204 204 204
204 204 204
204 204 204
204 204 204
204 204 204
204 204 204
204 204 204
204 204 204
204 204 204
204 204 204
204 204 204
204 204 204
204 204 204
204 204 204
204 204 204
204 204 204
204 204 204
204 204 204
204 204 204
204 204 204
204 204 204
204 204 204
204 204 204
204 204 204
204 204 204
204 204 204
204 204 204
204 204 204
204 204 204
204 204 204
204 204 204
204 204 204
204 204 204
204 204 204
204 204 204
204 204 204
204 204 204
204 204 204
204 204 204
204 204 204
204 204 204
204 204 204
204 204 204
204 204 204
204 204 204
204 204 204
204 204 204
204 204 204
204 204 204
204 204 204
204 204 204
204 204 204
204 204 204
204 204 204
204 204 204
204 204 204
204 204 204
204 204 204
204 204 204
204 204 204
204 204 204
204 204 204
204 204 204
204 204 204
204 204 204
204 204 204
204 204 204
204 204 204
204 204 204
204 204 204
204 204 204
204 204 204
204 204 204
204 204 204
204 204 204
204 204 204
204 204 204
204 204 204
204 204 204
204 204 204
204 204 204
204 204 204
204 204 204
204 204 204
204 204 204
204 204 204
204 204 204
204 204 204
204 204 204
204 204 204
204 204 204
204 204 204
204 204 204
204 204 204
204 204 204
204 204 204
204 204 204
204 204 204
204 204 204
204 204 204
204 204 204
204 204 204
204 204 204
204 204 204
204 204 204
204 204 204
204 204 204
204 204 204
204 204 204
204 204 204
204 204 204
204 204 204
204 204 204
204 204 204
204 204 204
204 204 204
204 204 204
204 204 204
204 204 204
204 204 204
204 204 204
204 204 204
204 204 204
204 204 204
204 204 204
204 204 204
204 204 204
204 204 204
204 204 204
204 204 204
204 204 204
204 204 204
204 204 204
204 204 204
204 204 204
204 204 204
204 204 204
204 204 204
204 204 204
204 204 204
204 204 204
204 204 204
204 204 204
204 204 204
204 204 204
204 204 204
204 204 204
204 204 204
204 204 204
204 204 204
204 204 204
204 204 204
204 204 204
204 204 204
204 204 204
204 204 204
204 204 204
204 204 204
204 204 204
204 204 204
204 204 204
204 204 204
204 204 204
204 204 204
204 204 204
204 204 204
204 204 204
204 204 204
204 204 204
204 204 204
204 204 204
204 204 204
204 204 204
204 204 204
204 204 204
204 204 204
204 204 204
204 204 204
204 204 204
204 204 204
204 204 204
204 204 204
204 204 204
204 204 204
204 204 204
204 204 204
204 204 204
204 204 204
204 204 204
204 204 204
204 204 204
204 204 204
204 204 204
204 204 204
204 204 204
204 204 204
204 204 204
204 204 204
204 204 204
204 204 204
204 204 204
204 204 204
204 204 204
204 204 204
204 204 204
204 204 204
204 204 204
204 204 204
204 204 204
204 204 204
204 204 204
204 204 204
204 204 204
204 204 204
204 204 204
204 204 204
204 204 204
204 204 204
204 204 204
204 204 204
204 204 204
204 204 204
204 204 204
204 204 204
204 204 204
204 204 204
204 204 204
204 204 204
204 204 204
204 204 204
204 204 204
204 204 204
204 204 204
204 204 204
204 204 204
204 204 204
204 204 204
204 204 204
204 204 204
204 204 204
204 204 204
204 204 204
204 204 204
204 204 204
204 204 204
204 204 204
204 204 204
204 204 204
204 204 204
204 204 204
204 204 204
204 204 204
204 204 204
204 204 204
204 204 204
204 204 204
204 204 204
204 204 204
204 204 204
204 204 204
204 204 204
204 204 204
204 204 204
204 204 204
204 204 204
204 204 204
204 204 204
204 204 204
204 204 204
204 204 204
204 204 204
204 204 204
204 204 204
204 204 204
204 204 204
204 204 204
204 204 204
204 204 204
204 204 204
204 204 204
204 204 204
204 204 204
204 204 204
204 204 204
204 204 204
204 204 204
204 204 204
204 204 204
204 204 204
204 204 204
204 204 204
204 204 204
204 204 204
204 204 204
204 204 204
204 204 204
204 204 204
204 204 204
204 204 204
204 204 204
204 204 204
204 204 204
204 204 204
204 204 204
204 204 204
204 204 204
204 204 204
204 204 204
204 204 204
204 204 204
204 204 204
204 204 204
204 204 204
204 204 204
204 204 204
204 204 204
204 204 204
204 204 204
204 204 204
204 204 204
204 204 204
204 204 204
204 204 204
204 204 204
204 204 204
204 204 204
204 204 204
204 204 204
204 204 204
204 204 204
204 204 204
204 204 204
204 204 204
204 204 204
204 204 204
204 204 204
204 204 204
204 204 204
204 204 204
204 204 204
204 204 204
204 204 204
204 204 204
204 204 204
204 204 204
204 204 204
204 204 204
204 204 204
204 204 204
204 204 204
204 204 204
204 204 204
204 204 204
204 204 204
204 204 204
204 204 204
204 204 204
204 204 204
204 204 204
204 204 204
204 204 204
204 204 204
204 204 204
204 204 204
204 204 204
204 204 204
204 204 204
204 204 204
204 204 204
204 204 204
204 204 204
204 204 204
204 204 204
204 204 204
204 204 204
204 204 204
204 204 204
204 204 204
204 204 204
204 204 204
204 204 204
204 204 204
204 204 204
204 204 204
204 204 204
204 204 204
204 204 204
204 204 204
204 204 204
204 204 204
204 204 204
204 204 204
204 204 204
204 204 204
204 204 204
204 204 204
204 204 204
204 204 204
204 204 204
204 204 204
204 204 204
204 204 204
204 204 204
204 204 204
204 204 204
204 204 204
204 204 204
204 204 204
204 204 204
204 204 204
204 204 204
204 204 204
204 204 204
204 204 204
204 204 204
204 204 204
204 204 204
204 204 204
204 204 204
204 204 204
204 204 204
204 204 204
204 204 204
204 204 204
204 204 204
204 204 204
204 204 204
204 204 204
204 204 204
204 204 204
204 204 204
204 204 204
204 204 204
204 204 204
204 204 204
204 204 204
204 204 204
204 204 204
204 204 204
204 204 204
204 204 204
204 204 204
204 204 204
204 204 204
204 204 204
204 204 204
204 204 204
204 204 204
204 204 204
204 204 204
204 204 204
204 204 204
204 204 204
204 204 204
204 204 204
204 204 204
204 204 204
204 204 204
204 204 204
204 204 204
204 204 204
204 204 204
204 204 204
204 204 204
204 204 204
204 204 204
204 204 204
204 204 204
204 204 204
204 204 204
204 204 204
204 204 204
204 204 204
204 204 204
204 204 204
204 204 204
204 204 204
204 204 204
204 204 204
204 204 204
204 204 204
204 204 204
204 204 204
204 204 204
204 204 204
204 204 204
204 204 204
204 204 204
204 204 204
204 204 204
204 204 204
204 204 204
204 204 204
204 204 204
204 204 204
204 204 204
204 204 204
204 204 204
204 204 204
204 204 204
204 204 204
204 204 204
204 204 204
204 204 204
204 204 204
204 204 204
204 204 204
204 204 204
204 204 204
204 204 204
204 204 204
204 204 204
204 204 204
204 204 204
204 204 204
204 204 204
204 204 204
204 204 204
204 204 204
204 204 204
204 204 204
204 204 204
204 204 204
204 204 204
204 204 204
204 204 204
204 204 204
204 204 204
204 204 204
204 204 204
204 204 204
204 204 204
204 204 204
204 204 204
204 204 204
204 204 204
204 204 204
204 204 204
204 204 204
204 204 204
204 204 204
204 204 204
204 204 204
204 204 204
204 204 204
204 204 204
204 204 204
204 204 204
204 204 204
204 204 204
204 204 204
204 204 204
204 204 204
204 204 204
204 204 204
204 204 204
204 204 204
204 204 204
204 204 204
204 204 204
204 204 204
204 204 204
204 204 204
204 204 204
204 204 204
204 204 204
204 204 204
204 204 204
204 204 204
204 204 204
204 204 204
204 204 204
204 204 204
204 204 204
204 204 204
204 204 204
204 204 204
204 204 204
204 204 204
204 204 204
204 204 204
204 204 204
204 204 204
204 204 204
204 204 204
204 204 204
204 204 204
204 204 204
204 204 204
204 204 204
204 204 204
204 204 204
204 204 204
204 204 204
204 204 204
204 204 204
204 204 204
204 204 204
204 204 204
204 204 204
204 204 204
204 204 204
204 204 204
204 204 204
204 204 204
204 204 204
204 204 204
204 204 204
204 204 204
204 204 204
204 204 204
204 204 204
204 204 204
204 204 204
204 204 204
204 204 204
204 204 204
204 204 204
204 204 204
204 204 204
204 204 204
204 204 204
204 204 204
204 204 204
204 204 204
204 204 204
204 204 204
204 204 204
204 204 204
204 204 204
204 204 204
204 204 204
204 204 204
204 204 204
204 204 204
204 204 204
204 204 204
204 204 204
204 204 204
204 204 204
204 204 204
204 204 204
204 204 204
204 204 204
204 204 204
204 204 204
204 204 204
204 204 204
204 204 204
204 204 204
204 204 204
204 204 204
204 204 204
204 204 204
204 204 204
204 204 204
204 204 204
204 204 204
204 204 204
204 204 204
204 204 204
204 204 204
204 204 204
204 204 204
204 204 204
204 204 204
204 204 204
204 204 204
204 204 204
204 204 204
204 204 204
204 204 204
204 204 204
204 204 204
204 204 204
204 204 204
204 204 204
204 204 204
204 204 204
204 204 204
204 204 204
204 204 204
204 204 204
204 204 204
204 204 204
204 204 204
204 204 204
204 204 204
204 204 204
204 204 204
204 204 204
204 204 204
204 204 204
204 204 204
204 204 204
204 204 204
204 204 204
204 204 204
204 204 204
204 204 204
204 204 204
204 204 204
204 204 204
204 204 204
204 204 204
204 204 204
204 204 204
204 204 204
204 204 204
204 204 204
204 204 204
204 204 204
204 204 204
204 204 204
204 204 204
204 204 204
204 204 204
204 204 204
204 204 204
204 204 204
204 204 204
204 204 204
204 204 204
204 204 204
204 204 204
204 204 204
204 204 204
204 204 204
204 204 204
204 204 204
204 204 204
204 204 204
204 204 204
204 204 204
204 204 204
204 204 204
204 204 204
204 204 204
204 204 204
204 204 204
204 204 204
204 204 204
204 204 204
204 204 204
204 204 204
204 204 204
204 204 204
204 204 204
204 204 204
204 204 204
204 204 204
204 204 204
204 204 204
204 204 204
204 204 204
204 204 204
204 204 204
204 204 204
204 204 204
204 204 204
204 204 204
204 204 204
204 204 204
204 204 204
204 204 204
204 204 204
204 204 204
204 204 204
204 204 204
204 204 204
204 204 204
204 204 204
204 204 204
204 204 204
204 204 204
204 204 204
204 204 204
204 204 204
204 204 204
204 204 204
204 204 204
204 204 204
204 204 204
204 204 204
204 204 204
204 204 204
204 204 204
204 204 204
204 204 204
204 204 204
204 204 204
204 204 204
204 204 204
204 204 204
204 204 204
204 204 204
204 204 204
204 204 204
204 204 204
204 204 204
204 204 204
204 204 204
204 204 204
204 204 204
204 204 204
204 204 204
204 204 204
204 204 204
204 204 204
204 204 204
204 204 204
204 204 204
204 204 204
204 204 204
204 204 204
204 204 204
204 204 204
204 204 204
204 204 204
204 204 204
204 204 204
204 204 204
204 204 204
204 204 204
204 204 204
204 204 204
204 204 204
204 204 204
204 204 204
204 204 204
204 204 204
204 204 204
204 204 204
204 204 204
204 204 204
204 204 204
204 204 204
204 204 204
204 204 204
204 204 204
204 204 204
204 204 204
204 204 204
204 204 204
204 204 204
204 204 204
204 204 204
204 204 204
204 204 204
204 204 204
204 204 204
204 204 204
204 204 204
204 204 204
204 204 204
204 204 204
204 204 204
204 204 204
204 204 204
204 204 204
204 204 204
204 204 204
204 204 204
204 204 204
204 204 204
204 204 204
204 204 204
204 204 204
204 204 204
204 204 204
204 204 204
204 204 204
204 204 204
204 204 204
204 204 204
204 204 204
204 204 204
204 204 204
204 204 204
204 204 204
204 204 204
204 204 204
204 204 204
204 204 204
204 204 204
204 204 204
204 204 204
204 204 204
204 204 204
204 204 204
204 204 204
204 204 204
204 204 204
204 204 204
204 204 204
204 204 204
204 204 204
204 204 204
204 204 204
204 204 204
204 204 204
204 204 204
204 204 204
204 204 204
204 204 204
204 204 204
204 204 204
204 204 204
204 204 204
204 204 204
204 204 204
204 204 204
204 204 204
204 204 204
204 204 204
204 204 204
204 204 204
204 204 204
204 204 204
204 204 204
204 204 204
204 204 204
204 204 204
204 204 204
204 204 204
204 204 204
204 204 204
204 204 204
204 204 204
204 204 204
204 204 204
204 204 204
204 204 204
204 204 204
204 204 204
204 204 204
204 204 204
204 204 204
204 204 204
204 204 204
204 204 204
204 204 204
204 204 204
204 204 204
204 204 204
204 204 204
204 204 204
204 204 204
204 204 204
204 204 204
204 204 204
204 204 204
204 204 204
204 204 204
204 204 204
204 204 204
204 204 204
204 204 204
204 204 204
204 204 204
204 204 204
204 204 204
204 204 204
204 204 204
204 204 204
204 204 204
204 204 204
204 204 204
204 204 204
204 204 204
204 204 204
204 204 204
204 204 204
204 204 204
204 204 204
204 204 204
204 204 204
204 204 204
204 204 204
204 204 204
204 204 204
204 204 204
204 204 204
204 204 204
204 204 204
204 204 204
204 204 204
204 204 204
204 204 204
204 204 204
204 204 204
204 204 204
204 204 204
204 204 204
204 204 204
204 204 204
204 204 204
204 204 204
204 204 204
204 204 204
204 204 204
204 204 204
204 204 204
204 204 204
204 204 204
204 204 204
204 204 204
204 204 204
204 204 204
204 204 204
204 204 204
204 204 204
204 204 204
204 204 204
204 204 204
204 204 204
204 204 204
204 204 204
204 204 204
204 204 204
204 204 204
204 204 204
204 204 204
204 204 204
204 204 204
204 204 204
204 204 204
204 204 204
204 204 204
204 204 204
204 204 204
204 204 204
204 204 204
204 204 204
204 204 204
204 204 204
204 204 204
204 204 204
204 204 204
204 204 204
204 204 204
204 204 204
204 204 204
204 204 204
204 204 204
204 204 204
204 204 204
204 204 204
204 204 204
204 204 204
204 204 204
204 204 204
204 204 204
204 204 204
204 204 204
204 204 204
204 204 204
204 204 204
204 204 204
204 204 204
204 204 204
204 204 204
204 204 204
204 204 204
204 204 204
204 204 204
204 204 204
204 204 204
204 204 204
204 204 204
204 204 204
204 204 204
204 204 204
204 204 204
204 204 204
204 204 204
204 204 204
204 204 204
204 204 204
204 204 204
204 204 204
204 204 204
204 204 204
204 204 204
204 204 204
204 204 204
204 204 204
204 204 204
204 204 204
204 204 204
204 204 204
204 204 204
204 204 204
204 204 204
204 204 204
204 204 204
204 204 204
204 204 204
204 204 204
204 204 204
204 204 204
204 204 204
204 204 204
204 204 204
204 204 204
204 204 204
204 204 204
204 204 204
204 204 204
204 204 204
204 204 204
204 204 204
204 204 204
204 204 204
204 204 204
204 204 204
204 204 204
204 204 204
204 204 204
204 204 204
204 204 204
204 204 204
204 204 204
204 204 204
204 204 204
204 204 204
204 204 204
204 204 204
204 204 204
204 204 204
204 204 204
204 204 204
204 204 204
204 204 204
204 204 204
204 204 204
204 204 204
204 204 204
204 204 204
204 204 204
204 204 204
204 204 204
204 204 204
204 204 204
204 204 204
204 204 204
204 204 204
204 204 204
204 204 204
204 204 204
204 204 204
204 204 204
204 204 204
204 204 204
204 204 204
204 204 204
204 204 204
204 204 204
204 204 204
204 204 204
204 204 204
204 204 204
204 204 204
204 204 204
204 204 204
204 204 204
204 204 204
204 204 204
204 204 204
204 204 204
204 204 204
204 204 204
204 204 204
204 204 204
204 204 204
204 204 204
204 204 204
204 204 204
204 204 204
204 204 204
204 204 204
204 204 204
204 204 204
204 204 204
204 204 204
204 204 204
204 204 204
204 204 204
204 204 204
204 204 204
204 204 204
204 204 204
204 204 204
204 204 204
204 204 204
204 204 204
204 204 204
204 204 204
204 204 204
204 204 204
204 204 204
204 204 204
204 204 204
204 204 204
204 204 204
204 204 204
204 204 204
204 204 204
204 204 204
204 204 204
204 204 204
204 204 204
204 204 204
204 204 204
204 204 204
204 204 204
204 204 204
204 204 204
204 204 204
204 204 204
204 204 204
204 204 204
204 204 204
204 204 204
204 204 204
204 204 204
204 204 204
204 204 204
204 204 204
204 204 204
204 204 204
204 204 204
204 204 204
204 204 204
204 204 204
204 204 204
204 204 204
204 204 204
204 204 204
204 204 204
204 204 204
204 204 204
204 204 204
204 204 204
204 204 204
204 204 204
204 204 204
204 204 204
204 204 204
204 204 204
204 204 204
204 204 204
204 204 204
204 204 204
204 204 204
204 204 204
204 204 204
204 204 204
204 204 204
204 204 204
204 204 204
204 204 204
204 204 204
204 204 204
204 204 204
204 204 204
204 204 204
204 204 204
204 204 204
204 204 204
204 204 204
204 204 204
204 204 204
204 204 204
204 204 204
204 204 204
204 204 204
204 204 204
204 204 204
204 204 204
204 204 204
204 204 204
204 204 204
204 204 204
204 204 204
204 204 204
204 204 204
204 204 204
204 204 204
204 204 204
204 204 204
204 204 204
204 204 204
204 204 204
204 204 204
204 204 204
204 204 204
204 204 204
204 204 204
204 204 204
204 204 204
204 204 204
204 204 204
204 204 204
204 204 204
204 204 204
204 204 204
204 204 204
204 204 204
204 204 204
204 204 204
204 204 204
204 204 204
204 204 204
204 204 204
204 204 204
204 204 204
204 204 204
204 204 204
204 204 204
204 204 204
204 204 204
204 204 204
204 204 204
204 204 204
204 204 204
204 204 204
204 204 204
204 204 204
204 204 204
204 204 204
204 204 204
204 204 204
204 204 204
204 204 204
204 204 204
204 204 204
204 204 204
204 204 204
204 204 204
204 204 204
204 204 204
204 204 204
204 204 204
204 204 204
204 204 204
204 204 204
204 204 204
204 204 204
204 204 204
204 204 204
204 204 204
204 204 204
204 204 204
204 204 204
204 204 204
204 204 204
204 204 204
204 204 204
204 204 204
204 204 204
204 204 204
204 204 204
204 204 204
204 204 204
204 204 204
204 204 204
204 204 204
204 204 204
204 204 204
204 204 204
204 204 204
204 204 204
204 204 204
204 204 204
204 204 204
204 204 204
204 204 204
204 204 204
204 204 204
204 204 204
204 204 204
204 204 204
204 204 204
204 204 204
204 204 204
204 204 204
204 204 204
204 204 204
204 204 204
204 204 204
204 204 204
204 204 204
204 204 204
204 204 204
204 204 204
204 204 204
204 204 204
204 204 204
204 204 204
204 204 204
204 204 204
204 204 204
204 204 204
204 204 204
204 204 204
204 204 204
204 204 204
204 204 204
204 204 204
204 204 204
204 204 204
204 204 204
204 204 204
204 204 204
204 204 204
204 204 204
204 204 204
204 204 204
204 204 204
204 204 204
204 204 204
204 204 204
204 204 204
204 204 204
204 204 204
204 204 204
204 204 204
204 204 204
204 204 204
204 204 204
204 204 204
204 204 204
204 204 204
204 204 204
204 204 204
204 204 204
204 204 204
204 204 204
204 204 204
204 204 204
204 204 204
204 204 204
204 204 204
204 204 204
204 204 204
204 204 204
204 204 204
204 204 204
204 204 204
204 204 204
204 204 204
204 204 204
204 204 204
204 204 204
204 204 204
204 204 204
204 204 204
204 204 204
204 204 204
204 204 204
204 204 204
204 204 204
204 204 204
204 204 204
204 204 204
204 204 204
204 204 204
204 204 204
204 204 204
204 204 204
204 204 204
204 204 204
204 204 204
204 204 204
204 204 204
204 204 204
204 204 204
204 204 204
204 204 204
204 204 204
204 204 204
204 204 204
204 204 204
204 204 204
204 204 204
204 204 204
204 204 204
204 204 204
204 204 204
204 204 204
204 204 204
204 204 204
204 204 204
204 204 204
204 204 204
204 204 204
204 204 204
204 204 204
204 204 204
204 204 204
204 204 204
204 204 204
204 204 204
204 204 204
204 204 204
204 204 204
204 204 204
204 204 204
204 204 204
204 204 204
204 204 204
204 204 204
204 204 204
204 204 204
204 204 204
204 204 204
204 204 204
204 204 204
204 204 204
204 204 204
204 204 204
204 204 204
204 204 204
204 204 204
204 204 204
204 204 204
204 204 204
204 204 204
204 204 204
204 204 204
204 204 204
204 204 204
204 204 204
204 204 204
204 204 204
204 204 204
204 204 204
204 204 204
204 204 204
204 204 204
204 204 204
204 204 204
204 204 204
204 204 204
204 204 204
204 204 204
204 204 204
204 204 204
204 204 204
204 204 204
204 204 204
204 204 204
204 204 204
204 204 204
204 204 204
204 204 204
204 204 204
204 204 204
204 204 204
204 204 204
204 204 204
204 204 204
204 204 204
204 204 204
204 204 204
204 204 204
204 204 204
204 204 204
204 204 204
204 204 204
204 204 204
204 204 204
204 204 204
204 204 204
204 204 204
204 204 204
204 204 204
204 204 204
204 204 204
204 204 204
204 204 204
204 204 204
204 204 204
204 204 204
204 204 204
204 204 204
204 204 204
204 204 204
204 204 204
204 204 204
204 204 204
204 204 204
204 204 204
204 204 204
204 204 204
204 204 204
204 204 204
204 204 204
204 204 204
204 204 204
204 204 204
204 204 204
204 204 204
204 204 204
204 204 204
204 204 204
204 204 204
204 204 204
204 204 204
204 204 204
204 204 204
204 204 204
204 204 204
204 204 204
204 204 204
204 204 204
204 204 204
204 204 204
204 204 204
204 204 204
204 204 204
204 204 204
204 204 204
204 204 204
204 204 204
204 204 204
204 204 204
204 204 204
204 204 204
204 204 204
204 204 204
204 204 204
204 204 204
204 204 204
204 204 204
204 204 204
204 204 204
204 204 204
204 204 204
204 204 204
204 204 204
204 204 204
204 204 204
204 204 204
204 204 204
204 204 204
204 204 204
204 204 204
204 204 204
204 204 204
204 204 204
204 204 204
204 204 204
204 204 204
204 204 204
204 204 204
204 204 204
204 204 204
204 204 204
204 204 204
204 204 204
204 204 204
204 204 204
204 204 204
204 204 204
204 204 204
204 204 204
204 204 204
204 204 204
204 204 204
204 204 204
204 204 204
204 204 204
204 204 204
204 204 204
204 204 204
204 204 204
204 204 204
204 204 204
204 204 204
204 204 204
204 204 204
204 204 204
204 204 204
204 204 204
204 204 204
204 204 204
204 204 204
204 204 204
204 204 204
204 204 204
204 204 204
204 204 204
204 204 204
204 204 204
204 204 204
204 204 204
204 204 204
204 204 204
204 204 204
204 204 204
204 204 204
204 204 204
204 204 204
204 204 204
204 204 204
204 204 204
204 204 204
204 204 204
204 204 204
204 204 204
204 204 204
204 204 204
204 204 204
204 204 204
204 204 204
204 204 204
204 204 204
204 204 204
204 204 204
204 204 204
204 204 204
204 204 204
204 204 204
204 204 204
204 204 204
204 204 204
204 204 204
204 204 204
204 204 204
204 204 204
204 204 204
204 204 204
204 204 204
204 204 204
204 204 204
204 204 204
204 204 204
204 204 204
204 204 204
204 204 204
204 204 204
204 204 204
204 204 204
204 204 204
204 204 204
204 204 204
204 204 204
204 204 204
204 204 204
204 204 204
204 204 204
204 204 204
204 204 204
204 204 204
204 204 204
204 204 204
204 204 204
204 204 204
204 204 204
204 204 204
204 204 204
204 204 204
204 204 204
204 204 204
204 204 204
204 204 204
204 204 204
204 204 204
204 204 204
204 204 204
204 204 204
204 204 204
204 204 204
204 204 204
204 204 204
204 204 204
204 204 204
204 204 204
204 204 204
204 204 204
204 204 204
204 204 204
204 204 204
204 204 204
204 204 204
204 204 204
204 204 204
204 204 204
204 204 204
204 204 204
204 204 204
204 204 204
204 204 204
204 204 204
204 204 204
204 204 204
204 204 204
204 204 204
204 204 204
204 204 204
204 204 204
204 204 204
204 204 204
204 204 204
204 204 204
204 204 204
204 204 204
204 204 204
204 204 204
204 204 204
204 204 204
204 204 204
204 204 204
204 204 204
204 204 204
204 204 204
204 204 204
204 204 204
204 204 204
204 204 204
204 204 204
204 204 204
204 204 204
204 204 204
204 204 204
204 204 204
204 204 204
204 204 204
204 204 204
204 204 204
204 204 204
204 204 204
204 204 204
204 204 204
204 204 204
204 204 204
204 204 204
204 204 204
204 204 204
204 204 204
204 204 204
204 204 204
204 204 204
204 204 204
204 204 204
204 204 204
204 204 204
204 204 204
204 204 204
204 204 204
204 204 204
204 204 204
204 204 204
204 204 204
204 204 204
204 204 204
204 204 204
204 204 204
204 204 204
204 204 204
204 204 204
204 204 204
204 204 204
204 204 204
204 204 204
204 204 204
204 204 204
204 204 204
204 204 204
204 204 204
204 204 204
204 204 204
204 204 204
204 204 204
204 204 204
204 204 204
204 204 204
204 204 204
204 204 204
204 204 204
204 204 204
204 204 204
204 204 204
204 204 204
204 204 204
204 204 204
204 204 204
204 204 204
204 204 204
204 204 204
204 204 204
204 204 204
204 204 204
204 204 204
204 204 204
204 204 204
204 204 204
204 204 204
204 204 204
204 204 204
204 204 204
204 204 204
204 204 204
204 204 204
204 204 204
204 204 204
204 204 204
204 204 204
204 204 204
204 204 204
204 204 204
204 204 204
204 204 204
204 204 204
204 204 204
204 204 204
204 204 204
204 204 204
204 204 204
204 204 204
204 204 204
204 204 204
204 204 204
204 204 204
204 204 204
204 204 204
204 204 204
204 204 204
204 204 204
204 204 204
204 204 204
204 204 204
204 204 204
204 204 204
204 204 204
204 204 204
204 204 204
204 204 204
204 204 204
204 204 204
204 204 204
204 204 204
204 204 204
204 204 204
204 204 204
204 204 204
204 204 204
204 204 204
204 204 204
204 204 204
204 204 204
204 204 204
204 204 204
204 204 204
204 204 204
204 204 204
204 204 204
204 204 204
204 204 204
204 204 204
204 204 204
204 204 204
204 204 204
204 204 204
204 204 204
204 204 204
204 204 204
204 204 204
204 204 204
204 204 204
204 204 204
204 204 204
204 204 204
204 204 204
204 204 204
204 204 204
204 204 204
204 204 204
204 204 204
204 204 204
204 204 204
204 204 204
204 204 204
204 204 204
204 204 204
204 204 204
204 204 204
204 204 204
204 204 204
204 204 204
204 204 204
204 204 204
204 204 204
204 204 204
204 204 204
204 204 204
204 204 204
204 204 204
204 204 204
204 204 204
204 204 204
204 204 204
204 204 204
204 204 204
204 204 204
204 204 204
204 204 204
204 204 204
204 204 204
204 204 204
204 204 204
204 204 204
204 204 204
204 204 204
204 204 204
204 204 204
204 204 204
204 204 204
204 204 204
204 204 204
204 204 204
204 204 204
204 204 204
204 204 204
204 204 204
204 204 204
204 204 204
204 204 204
204 204 204
204 204 204
204 204 204
204 204 204
204 204 204
204 204 204
204 204 204
204 204 204
204 204 204
204 204 204
204 204 204
204 204 204
204 204 204
204 204 204
204 204 204
204 204 204
204 204 204
204 204 204
204 204 204
204 204 204
204 204 204
204 204 204
204 204 204
204 204 204
204 204 204
204 204 204
204 204 204
204 204 204
204 204 204
204 204 204
204 204 204
204 204 204
204 204 204
204 204 204
204 204 204
204 204 204
204 204 204
204 204 204
204 204 204
204 204 204
204 204 204
204 204 204
204 204 204
204 204 204
204 204 204
204 204 204
204 204 204
204 204 204
204 204 204
204 204 204
204 204 204
204 204 204
204 204 204
204 204 204
204 204 204
204 204 204
204 204 204
204 204 204
204 204 204
204 204 204
204 204 204
204 204 204
204 204 204
204 204 204
204 204 204
204 204 204
204 204 204
204 204 204
204 204 204
204 204 204
204 204 204
204 204 204
204 204 204
204 204 204
204 204 204
204 204 204
204 204 204
204 204 204
204 204 204
204 204 204
204 204 204
204 204 204
204 204 204
204 204 204
204 204 204
204 204 204
204 204 204
204 204 204
204 204 204
204 204 204
204 204 204
204 204 204
204 204 204
204 204 204
204 204 204
204 204 204
204 204 204
204 204 204
204 204 204
204 204 204
204 204 204
204 204 204
204 204 204
204 204 204
204 204 204
204 204 204
204 204 204
204 204 204
204 204 204
204 204 204
204 204 204
204 204 204
204 204 204
204 204 204
204 204 204
204 204 204
204 204 204
204 204 204
204 204 204
204 204 204
204 204 204
204 204 204
204 204 204
204 204 204
204 204 204
204 204 204
204 204 204
204 204 204
204 204 204
204 204 204
204 204 204
204 204 204
204 204 204
204 204 204
204 204 204
204 204 204
204 204 204
204 204 204
204 204 204
204 204 204
204 204 204
204 204 204
204 204 204
204 204 204
204 204 204
204 204 204
204 204 204
204 204 204
204 204 204
204 204 204
204 204 204
204 204 204
204 204 204
204 204 204
204 204 204
204 204 204
204 204 204
204 204 204
204 204 204
204 204 204
204 204 204
204 204 204
204 204 204
204 204 204
204 204 204
204 204 204
204 204 204
204 204 204
204 204 204
204 204 204
204 204 204
204 204 204
204 204 204
204 204 204
204 204 204
204 204 204
204 204 204
204 204 204
204 204 204
204 204 204
204 204 204
204 204 204
204 204 204
204 204 204
204 204 204
204 204 204
204 204 204
204 204 204
204 204 204
204 204 204
204 204 204
204 204 204
204 204 204
204 204 204
204 204 204
204 204 204
204 204 204
204 204 204
204 204 204
204 204 204
204 204 204
204 204 204
204 204 204
204 204 204
204 204 204
204 204 204
204 204 204
204 204 204
204 204 204
204 204 204
204 204 204
204 204 204
204 204 204
204 204 204
204 204 204
204 204 204
204 204 204
204 204 204
204 204 204
204 204 204
204 204 204
204 204 204
204 204 204
204 204 204
204 204 204
204 204 204
204 204 204
204 204 204
204 204 204
204 204 204
204 204 204
204 204 204
204 204 204
204 204 204
204 204 204
204 204 204
204 204 204
204 204 204
204 204 204
204 204 204
204 204 204
204 204 204
204 204 204
204 204 204
204 204 204
204 204 204
204 204 204
204 204 204
204 204 204
204 204 204
204 204 204
204 204 204
204 204 204
204 204 204
204 204 204
204 204 204
204 204 204
204 204 204
204 204 204
204 204 204
204 204 204
204 204 204
204 204 204
204 204 204
204 204 204
204 204 204
204 204 204
204 204 204
204 204 204
204 204 204
204 204 204
204 204 204
204 204 204
204 204 204
204 204 204
204 204 204
204 204 204
204 204 204
204 204 204
204 204 204
204 204 204
204 204 204
204 204 204
204 204 204
204 204 204
204 204 204
204 204 204
204 204 204
204 204 204
204 204 204
204 204 204
204 204 204
204 204 204
204 204 204
204 204 204
204 204 204
204 204 204
204 204 204
204 204 204
204 204 204
204 204 204
204 204 204
204 204 204
204 204 204
204 204 204
204 204 204
204 204 204
204 204 204
204 204 204
204 204 204
204 204 204
204 204 204
204 204 204
204 204 204
204 204 204
204 204 204
204 204 204
204 204 204
204 204 204
204 204 204
204 204 204
204 204 204
204 204 204
204 204 204
204 204 204
204 204 204
204 204 204
204 204 204
204 204 204
204 204 204
204 204 204
204 204 204
204 204 204
204 204 204
204 204 204
204 204 204
204 204 204
204 204 204
204 204 204
204 204 204
204 204 204
204 204 204
204 204 204
204 204 204
204 204 204
204 204 204
204 204 204
204 204 204
204 204 204
204 204 204
204 204 204
204 204 204
204 204 204
204 204 204
204 204 204
204 204 204
204 204 204
204 204 204
204 204 204
204 204 204
204 204 204
204 204 204
204 204 204
204 204 204
204 204 204
204 204 204
204 204 204
204 204 204
204 204 204
204 204 204
204 204 204
204 204 204
204 204 204
204 204 204
204 204 204
204 204 204
204 204 204
204 204 204
204 204 204
204 204 204
204 204 204
204 204 204
204 204 204
204 204 204
204 204 204
204 204 204
204 204 204
204 204 204
204 204 204
204 204 204
204 204 204
204 204 204
204 204 204
204 204 204
204 204 204
204 204 204
204 204 204
204 204 204
204 204 204
204 204 204
204 204 204
204 204 204
204 204 204
204 204 204
204 204 204
204 204 204
204 204 204
204 204 204
204 204 204
204 204 204
204 204 204
204 204 204
204 204 204
204 204 204
204 204 204
204 204 204
204 204 204
204 204 204
204 204 204
204 204 204
204 204 204
204 204 204
204 204 204
204 204 204
204 204 204
204 204 204
204 204 204
204 204 204
204 204 204
204 204 204
204 204 204
204 204 204
204 204 204
204 204 204
204 204 204
204 204 204
204 204 204
204 204 204
204 204 204
204 204 204
204 204 204
204 204 204
204 204 204
204 204 204
204 204 204
204 204 204
204 204 204
204 204 204
204 204 204
204 204 204
204 204 204
204 204 204
204 204 204
204 204 204
204 204 204
204 204 204
204 204 204
204 204 204
204 204 204
204 204 204
204 204 204
204 204 204
204 204 204
204 204 204
204 204 204
204 204 204
204 204 204
204 204 204
204 204 204
204 204 204
204 204 204
204 204 204
204 204 204
204 204 204
204 204 204
204 204 204
204 204 204
204 204 204
204 204 204
204 204 204
204 204 204
204 204 204
204 204 204
204 204 204
204 204 204
204 204 204
204 204 204
204 204 204
204 204 204
204 204 204
204 204 204
204 204 204
204 204 204
204 204 204
204 204 204
204 204 204
204 204 204
204 204 204
204 204 204
204 204 204
204 204 204
204 204 204
204 204 204
204 204 204
204 204 204
204 204 204
204 204 204
204 204 204
204 204 204
204 204 204
204 204 204
204 204 204
204 204 204
204 204 204
204 204 204
204 204 204
204 204 204
204 204 204
204 204 204
204 204 204
204 204 204
204 204 204
204 204 204
204 204 204
204 204 204
204 204 204
204 204 204
204 204 204
204 204 204
204 204 204
204 204 204
204 204 204
204 204 204
204 204 204
204 204 204
204 204 204
204 204 204
204 204 204
204 204 204
204 204 204
204 204 204
204 204 204
204 204 204
204 204 204
204 204 204
204 204 204
204 204 204
204 204 204
204 204 204
204 204 204
204 204 204
204 204 204
204 204 204
204 204 204
204 204 204
204 204 204
204 204 204
204 204 204
204 204 204
204 204 204
204 204 204
204 204 204
204 204 204
204 204 204
204 204 204
204 204 204
204 204 204
204 204 204
204 204 204
204 204 204
204 204 204
204 204 204
204 204 204
204 204 204
204 204 204
204 204 204
204 204 204
204 204 204
204 204 204
204 204 204
204 204 204
204 204 204
204 204 204
204 204 204
204 204 204
204 204 204
204 204 204
204 204 204
204 204 204
204 204 204
204 204 204
204 204 204
204 204 204
204 204 204
204 204 204
204 204 204
204 204 204
204 204 204
204 204 204
204 204 204
204 204 204
204 204 204
204 204 204
204 204 204
204 204 204
204 204 204
204 204 204
204 204 204
204 204 204
204 204 204
204 204 204
204 204 204
204 204 204
204 204 204
204 204 204
204 204 204
204 204 204
204 204 204
204 204 204
204 204 204
204 204 204
204 204 204
204 204 204
204 204 204
204 204 204
204 204 204
204 204 204
204 204 204
204 204 204
204 204 204
204 204 204
204 204 204
204 204 204
204 204 204
204 204 204
204 204 204
204 204 204
204 204 204
204 204 204
204 204 204
204 204 204
204 204 204
204 204 204
204 204 204
204 204 204
204 204 204
204 204 204
204 204 204
204 204 204
204 204 204
204 204 204
204 204 204
204 204 204
204 204 204
204 204 204
204 204 204
204 204 204
204 204 204
204 204 204
204 204 204
204 204 204
204 204 204
204 204 204
204 204 204
204 204 204
204 204 204
204 204 204
204 204 204
204 204 204
204 204 204
204 204 204
204 204 204
204 204 204
204 204 204
204 204 204
204 204 204
204 204 204
204 204 204
204 204 204
204 204 204
204 204 204
204 204 204
204 204 204
204 204 204
204 204 204
204 204 204
204 204 204
204 204 204
204 204 204
204 204 204
204 204 204
204 204 204
204 204 204
204 204 204
204 204 204
204 204 204
204 204 204
204 204 204
204 204 204
204 204 204
204 204 204
204 204 204
204 204 204
204 204 204
204 204 204
204 204 204
204 204 204
204 204 204
204 204 204
204 204 204
204 204 204
204 204 204
204 204 204
204 204 204
204 204 204
204 204 204
204 204 204
204 204 204
204 204 204
204 204 204
204 204 204
204 204 204
204 204 204
204 204 204
204 204 204
204 204 204
204 204 204
204 204 204
204 204 204
204 204 204
204 204 204
204 204 204
204 204 204
204 204 204
204 204 204
204 204 204
204 204 204
204 204 204
204 204 204
204 204 204
204 204 204
204 204 204
204 204 204
204 204 204
204 204 204
204 204 204
204 204 204
204 204 204
204 204 204
204 204 204
204 204 204
204 204 204
204 204 204
204 204 204
204 204 204
204 204 204
204 204 204
204 204 204
204 204 204
204 204 204
204 204 204
204 204 204
204 204 204
204 204 204
204 204 204
204 204 204
204 204 204
204 204 204
204 204 204
204 204 204
204 204 204
204 204 204
204 204 204
204 204 204
204 204 204
204 204 204
204 204 204
204 204 204
204 204 204
204 204 204
204 204 204
204 204 204
204 204 204
204 204 204
204 204 204
204 204 204
204 204 204
204 204 204
204 204 204
204 204 204
204 204 204
204 204 204
204 204 204
204 204 204
204 204 204
204 204 204
204 204 204
204 204 204
204 204 204
204 204 204
204 204 204
204 204 204
204 204 204
204 204 204
204 204 204
204 204 204
204 204 204
204 204 204
204 204 204
204 204 204
204 204 204
204 204 204
204 204 204
204 204 204
204 204 204
204 204 204
204 204 204
204 204 204
204 204 204
204 204 204
204 204 204
204 204 204
204 204 204
204 204 204
204 204 204
204 204 204
204 204 204
204 204 204
204 204 204
204 204 204
204 204 204
204 204 204
204 204 204
204 204 204
204 204 204
204 204 204
204 204 204
204 204 204
204 204 204
204 204 204
204 204 204
204 204 204
204 204 204
204 204 204
204 204 204
204 204 204
204 204 204
204 204 204
204 204 204
204 204 204
204 204 204
204 204 204
204 204 204
204 204 204
204 204 204
204 204 204
204 204 204
204 204 204
204 204 204
204 204 204
204 204 204
204 204 204
204 204 204
204 204 204
204 204 204
204 204 204
204 204 204
204 204 204
204 204 204
204 204 204
204 204 204
204 204 204
204 204 204
204 204 204
204 204 204
204 204 204
204 204 204
204 204 204
204 204 204
204 204 204
204 204 204
204 204 204
204 204 204
204 204 204
204 204 204
204 204 204
204 204 204
204 204 204
204 204 204
204 204 204
204 204 204
204 204 204
204 204 204
204 204 204
204 204 204
204 204 204
204 204 204
204 204 204
204 204 204
204 204 204
204 204 204
204 204 204
204 204 204
204 204 204
204 204 204
204 204 204
204 204 204
204 204 204
204 204 204
204 204 204
204 204 204
204 204 204
204 204 204
204 204 204
204 204 204
204 204 204
204 204 204
204 204 204
204 204 204
204 204 204
204 204 204
204 204 204
204 204 204
204 204 204
204 204 204
204 204 204
204 204 204
204 204 204
204 204 204
204 204 204
204 204 204
204 204 204
204 204 204
204 204 204
204 204 204
204 204 204
204 204 204
204 204 204
204 204 204
204 204 204
204 204 204
204 204 204
204 204 204
204 204 204
204 204 204
204 204 204
204 204 204
204 204 204
204 204 204
204 204 204
204 204 204
204 204 204
204 204 204
204 204 204
204 204 204
204 204 204
204 204 204
204 204 204
204 204 204
204 204 204
204 204 204
204 204 204
204 204 204
204 204 204
204 204 204
204 204 204
204 204 204
204 204 204
204 204 204
204 204 204
204 204 204
204 204 204
204 204 204
204 204 204
204 204 204
204 204 204
204 204 204
204 204 204
204 204 204
204 204 204
204 204 204
204 204 204
204 204 204
204 204 204
204 204 204
204 204 204
204 204 204
204 204 204
204 204 204
204 204 204
204 204 204
204 204 204
204 204 204
204 204 204
204 204 204
204 204 204
204 204 204
204 204 204
204 204 204
204 204 204
204 204 204
204 204 204
204 204 204
204 204 204
204 204 204
204 204 204
204 204 204
204 204 204
204 204 204
204 204 204
204 204 204
204 204 204
204 204 204
204 204 204
204 204 204
204 204 204
204 204 204
204 204 204
204 204 204
204 204 204
204 204 204
204 204 204
204 204 204
204 204 204
204 204 204
204 204 204
204 204 204
204 204 204
204 204 204
204 204 204
204 204 204
204 204 204
204 204 204
204 204 204
204 204 204
204 204 204
204 204 204
204 204 204
204 204 204
204 204 204
204 204 204
204 204 204
204 204 204
204 204 204
204 204 204
204 204 204
204 204 204
204 204 204
204 204 204
204 204 204
204 204 204
204 204 204
204 204 204
204 204 204
204 204 204
204 204 204
204 204 204
204 204 204
204 204 204
204 204 204
204 204 204
204 204 204
204 204 204
204 204 204
204 204 204
204 204 204
204 204 204
204 204 204
204 204 204
204 204 204
204 204 204
204 204 204
204 204 204
204 204 204
204 204 204
204 204 204
204 204 204
204 204 204
204 204 204
204 204 204
204 204 204
204 204 204
204 204 204
204 204 204
204 204 204
204 204 204
204 204 204
204 204 204
204 204 204
204 204 204
204 204 204
204 204 204
204 204 204
204 204 204
204 204 204
204 204 204
204 204 204
204 204 204
204 204 204
204 204 204
204 204 204
204 204 204
204 204 204
204 204 204
204 204 204
204 204 204
204 204 204
204 204 204
204 204 204
204 204 204
204 204 204
204 204 204
204 204 204
204 204 204
204 204 204
204 204 204
204 204 204
204 204 204
204 204 204
204 204 204
204 204 204
204 204 204
204 204 204
204 204 204
204 204 204
204 204 204
204 204 204
204 204 204
204 204 204
204 204 204
204 204 204
204 204 204
204 204 204
204 204 204
204 204 204
204 204 204
204 204 204
204 204 204
204 204 204
204 204 204
204 204 204
204 204 204
204 204 204
204 204 204
204 204 204
204 204 204
204 204 204
204 204 204
204 204 204
204 204 204
204 204 204
204 204 204
204 204 204
204 204 204
204 204 204
204 204 204
204 204 204
204 204 204
204 204 204
204 204 204
204 204 204
204 204 204
204 204 204
204 204 204
204 204 204
204 204 204
204 204 204
204 204 204
204 204 204
204 204 204
204 204 204
204 204 204
204 204 204
204 204 204
204 204 204
204 204 204
204 204 204
204 204 204
204 204 204
204 204 204
204 204 204
204 204 204
204 204 204
204 204 204
204 204 204
204 204 204
204 204 204
204 204 204
204 204 204
204 204 204
204 204 204
204 204 204
204 204 204
204 204 204
204 204 204
204 204 204
204 204 204
204 204 204
204 204 204
204 204 204
204 204 204
204 204 204
204 204 204
204 204 204
204 204 204
204 204 204
204 204 204
204 204 204
204 204 204
204 204 204
204 204 204
204 204 204
204 204 204
204 204 204
204 204 204
204 204 204
204 204 204
204 204 204
204 204 204
204 204 204
204 204 204
204 204 204
204 204 204
204 204 204
204 204 204
204 204 204
204 204 204
204 204 204
204 204 204
204 204 204
204 204 204
204 204 204
204 204 204
204 204 204
204 204 204
204 204 204
204 204 204
204 204 204
204 204 204
204 204 204
204 204 204
204 204 204
204 204 204
204 204 204
204 204 204
204 204 204
204 204 204
204 204 204
204 204 204
204 204 204
204 204 204
204 204 204
204 204 204
204 204 204
204 204 204
204 204 204
204 204 204
204 204 204
204 204 204
204 204 204
204 204 204
204 204 204
204 204 204
204 204 204
204 204 204
204 204 204
204 204 204
204 204 204
204 204 204
204 204 204
204 204 204
204 204 204
204 204 204
204 204 204
204 204 204
204 204 204
204 204 204
204 204 204
204 204 204
204 204 204
204 204 204
204 204 204
204 204 204
204 204 204
204 204 204
204 204 204
204 204 204
204 204 204
204 204 204
204 204 204
204 204 204
204 204 204
204 204 204
204 204 204
204 204 204
204 204 204
204 204 204
204 204 204
204 204 204
204 204 204
204 204 204
204 204 204
204 204 204
204 204 204
204 204 204
204 204 204
204 204 204
204 204 204
204 204 204
204 204 204
204 204 204
204 204 204
204 204 204
204 204 204
204 204 204
204 204 204
204 204 204
204 204 204
204 204 204
204 204 204
204 204 204
204 204 204
204 204 204
204 204 204
204 204 204
204 204 204
204 204 204
204 204 204
204 204 204
204 204 204
204 204 204
204 204 204
204 204 204
204 204 204
204 204 204
204 204 204
204 204 204
204 204 204
204 204 204
204 204 204
204 204 204
204 204 204
204 204 204
204 204 204
204 204 204
204 204 204
204 204 204
204 204 204
204 204 204
204 204 204
204 204 204
204 204 204
204 204 204
204 204 204
204 204 204
204 204 204
204 204 204
204 204 204
204 204 204
204 204 204
204 204 204
204 204 204
204 204 204
204 204 204
204 204 204
204 204 204
204 204 204
204 204 204
204 204 204
204 204 204
204 204 204
204 204 204
204 204 204
204 204 204
204 204 204
204 204 204
204 204 204
204 204 204
204 204 204
204 204 204
204 204 204
204 204 204
204 204 204
204 204 204
204 204 204
204 204 204
204 204 204
204 204 204
204 204 204
204 204 204
204 204 204
204 204 204
204 204 204
204 204 204
204 204 204
204 204 204
204 204 204
204 204 204
204 204 204
204 204 204
204 204 204
204 204 204
204 204 204
204 204 204
204 204 204
204 204 204
204 204 204
204 204 204
204 204 204
204 204 204
204 204 204
204 204 204
204 204 204
204 204 204
204 204 204
204 204 204
204 204 204
204 204 204
204 204 204
204 204 204
204 204 204
204 204 204
204 204 204
204 204 204
204 204 204
204 204 204
204 204 204
204 204 204
204 204 204
204 204 204
204 204 204
204 204 204
204 204 204
204 204 204
204 204 204
204 204 204
204 204 204
204 204 204
204 204 204
204 204 204
204 204 204
204 204 204
204 204 204
204 204 204
204 204 204
204 204 204
204 204 204
204 204 204
204 204 204
204 204 204
204 204 204
204 204 204
204 204 204
204 204 204
204 204 204
204 204 204
204 204 204
204 204 204
204 204 204
204 204 204
204 204 204
204 204 204
204 204 204
204 204 204
204 204 204
204 204 204
204 204 204
204 204 204
204 204 204
204 204 204
204 204 204
204 204 204
204 204 204
204 204 204
204 204 204
204 204 204
204 204 204
204 204 204
204 204 204
204 204 204
204 204 204
204 204 204
204 204 204
204 204 204
204 204 204
204 204 204
204 204 204
204 204 204
204 204 204
204 204 204
204 204 204
204 204 204
204 204 204
204 204 204
204 204 204
204 204 204
204 204 204
204 204 204
204 204 204
204 204 204
204 204 204
204 204 204
204 204 204
204 204 204
204 204 204
204 204 204
204 204 204
204 204 204
204 204 204
204 204 204
204 204 204
204 204 204
204 204 204
204 204 204
204 204 204
204 204 204
204 204 204
204 204 204
204 204 204
204 204 204
204 204 204
204 204 204
204 204 204
204 204 204
204 204 204
204 204 204
204 204 204
204 204 204
204 204 204
204 204 204
204 204 204
204 204 204
204 204 204
204 204 204
204 204 204
204 204 204
204 204 204
204 204 204
204 204 204
204 204 204
204 204 204
204 204 204
204 204 204
204 204 204
204 204 204
204 204 204
204 204 204
204 204 204
204 204 204
204 204 204
204 204 204
204 204 204
204 204 204
204 204 204
204 204 204
204 204 204
204 204 204
204 204 204
204 204 204
204 204 204
204 204 204
204 204 204
204 204 204
204 204 204
204 204 204
204 204 204
204 204 204
204 204 204
204 204 204
204 204 204
204 204 204
204 204 204
204 204 204
204 204 204
204 204 204
204 204 204
204 204 204
204 204 204
204 204 204
204 204 204
204 204 204
204 204 204
204 204 204
204 204 204
204 204 204
204 204 204
204 204 204
204 204 204
204 204 204
204 204 204
204 204 204
204 204 204
204 204 204
204 204 204
204 204 204
204 204 204
204 204 204
204 204 204
204 204 204
204 204 204
204 204 204
204 204 204
204 204 204
204 204 204
204 204 204
204 204 204
204 204 204
204 204 204
204 204 204
204 204 204
204 204 204
204 204 204
204 204 204
204 204 204
204 204 204
204 204 204
204 204 204
204 204 204
204 204 204
204 204 204
204 204 204
204 204 204
204 204 204
204 204 204
204 204 204
204 204 204
204 204 204
204 204 204
204 204 204
204 204 204
204 204 204
204 204 204
204 204 204
204 204 204
204 204 204
204 204 204
204 204 204
204 204 204
204 204 204
204 204 204
204 204 204
204 204 204
204 204 204
204 204 204
204 204 204
204 204 204
204 204 204
204 204 204
204 204 204
204 204 204
204 204 204
204 204 204
204 204 204
204 204 204
204 204 204
204 204 204
204 204 204
204 204 204
204 204 204
204 204 204
204 204 204
204 204 204
204 204 204
204 204 204
204 204 204
204 204 204
204 204 204
204 204 204
204 204 204
204 204 204
204 204 204
204 204 204
204 204 204
204 204 204
204 204 204
204 204 204
204 204 204
204 204 204
204 204 204
204 204 204
204 204 204
204 204 204
204 204 204
204 204 204
204 204 204
204 204 204
204 204 204
204 204 204
204 204 204
204 204 204
204 204 204
204 204 204
204 204 204
204 204 204
204 204 204
204 204 204
204 204 204
204 204 204
204 204 204
204 204 204
204 204 204
204 204 204
204 204 204
204 204 204
204 204 204
204 204 204
204 204 204
204 204 204
204 204 204
204 204 204
204 204 204
204 204 204
204 204 204
204 204 204
204 204 204
204 204 204
204 204 204
204 204 204
204 204 204
204 204 204
204 204 204
204 204 204
204 204 204
204 204 204
204 204 204
204 204 204
204 204 204
204 204 204
204 204 204
204 204 204
204 204 204
204 204 204
204 204 204
204 204 204
204 204 204
204 204 204
204 204 204
204 204 204
204 204 204
204 204 204
204 204 204
204 204 204
204 204 204
204 204 204
204 204 204
204 204 204
204 204 204
204 204 204
204 204 204
204 204 204
204 204 204
204 204 204
204 204 204
204 204 204
204 204 204
204 204 204
204 204 204
204 204 204
204 204 204
204 204 204
204 204 204
204 204 204
204 204 204
204 204 204
204 204 204
204 204 204
204 204 204
204 204 204
204 204 204
204 204 204
204 204 204
204 204 204
204 204 204
204 204 204
204 204 204
204 204 204
204 204 204
204 204 204
204 204 204
204 204 204
204 204 204
204 204 204
204 204 204
204 204 204
204 204 204
204 204 204
204 204 204
204 204 204
204 204 204
204 204 204
204 204 204
204 204 204
204 204 204
204 204 204
204 204 204
204 204 204
204 204 204
204 204 204
204 204 204
204 204 204
204 204 204
204 204 204
204 204 204
204 204 204
204 204 204
204 204 204
204 204 204
204 204 204
204 204 204
204 204 204
204 204 204
204 204 204
204 204 204
204 204 204
204 204 204
204 204 204
204 204 204
204 204 204
204 204 204
204 204 204
204 204 204
204 204 204
204 204 204
204 204 204
204 204 204
204 204 204
204 204 204
204 204 204
204 204 204
204 204 204
204 204 204
204 204 204
204 204 204
204 204 204
204 204 204
204 204 204
204 204 204
204 204 204
204 204 204
204 204 204
204 204 204
204 204 204
204 204 204
204 204 204
204 204 204
204 204 204
204 204 204
204 204 204
204 204 204
204 204 204
204 204 204
204 204 204
204 204 204
204 204 204
204 204 204
204 204 204
204 204 204
204 204 204
204 204 204
204 204 204
204 204 204
204 204 204
204 204 204
204 204 204
204 204 204
204 204 204
204 204 204
204 204 204
204 204 204
204 204 204
204 204 204
204 204 204
204 204 204
204 204 204
204 204 204
204 204 204
204 204 204
204 204 204
204 204 204
204 204 204
204 204 204
204 204 204
204 204 204
204 204 204
204 204 204
204 204 204
204 204 204
204 204 204
204 204 204
204 204 204
204 204 204
204 204 204
204 204 204
204 204 204
204 204 204
204 204 204
204 204 204
204 204 204
204 204 204
204 204 204
204 204 204
204 204 204
204 204 204
204 204 204
204 204 204
204 204 204
204 204 204
204 204 204
204 204 204
204 204 204
204 204 204
204 204 204
204 204 204
204 204 204
204 204 204
204 204 204
204 204 204
204 204 204
204 204 204
204 204 204
204 204 204
204 204 204
204 204 204
204 204 204
204 204 204
204 204 204
204 204 204
204 204 204
204 204 204
204 204 204
204 204 204
204 204 204
204 204 204
204 204 204
204 204 204
204 204 204
204 204 204
204 204 204
204 204 204
204 204 204
204 204 204
204 204 204
204 204 204
204 204 204
204 204 204
204 204 204
204 204 204
204 204 204
204 204 204
204 204 204
204 204 204
204 204 204
204 204 204
204 204 204
204 204 204
204 204 204
204 204 204
204 204 204
204 204 204
204 204 204
204 204 204
204 204 204
204 204 204
204 204 204
204 204 204
204 204 204
204 204 204
204 204 204
204 204 204
204 204 204
204 204 204
204 204 204
204 204 204
204 204 204
204 204 204
204 204 204
204 204 204
204 204 204
204 204 204
204 204 204
204 204 204
204 204 204
204 204 204
204 204 204
204 204 204
204 204 204
204 204 204
204 204 204
204 204 204
204 204 204
204 204 204
204 204 204
204 204 204
204 204 204
204 204 204
204 204 204
204 204 204
204 204 204
204 204 204
204 204 204
204 204 204
204 204 204
204 204 204
204 204 204
204 204 204
204 204 204
204 204 204
204 204 204
204 204 204
204 204 204
204 204 204
204 204 204
204 204 204
204 204 204
204 204 204
204 204 204
204 204 204
204 204 204
204 204 204
204 204 204
204 204 204
204 204 204
204 204 204
204 204 204
204 204 204
204 204 204
204 204 204
204 204 204
204 204 204
204 204 204
204 204 204
204 204 204
204 204 204
204 204 204
204 204 204
204 204 204
204 204 204
204 204 204
204 204 204
204 204 204
204 204 204
204 204 204
204 204 204
204 204 204
204 204 204
204 204 204
204 204 204
204 204 204
204 204 204
204 204 204
204 204 204
204 204 204
204 204 204
204 204 204
204 204 204
204 204 204
204 204 204
204 204 204
204 204 204
204 204 204
204 204 204
204 204 204
204 204 204
204 204 204
204 204 204
204 204 204
204 204 204
204 204 204
204 204 204
204 204 204
204 204 204
204 204 204
204 204 204
204 204 204
204 204 204
204 204 204
204 204 204
204 204 204
204 204 204
204 204 204
204 204 204
204 204 204
204 204 204
204 204 204
204 204 204
204 204 204
204 204 204
204 204 204
204 204 204
204 204 204
204 204 204
204 204 204
204 204 204
204 204 204
204 204 204
204 204 204
204 204 204
204 204 204
204 204 204
204 204 204
204 204 204
204 204 204
204 204 204
204 204 204
204 204 204
204 204 204
204 204 204
204 204 204
204 204 204
204 204 204
204 204 204
204 204 204
204 204 204
204 204 204
204 204 204
204 204 204
204 204 204
204 204 204
204 204 204
204 204 204
204 204 204
204 204 204
204 204 204
204 204 204
204 204 204
204 204 204
204 204 204
204 204 204
204 204 204
204 204 204
204 204 204
204 204 204
204 204 204
204 204 204
204 204 204
204 204 204
204 204 204
204 204 204
204 204 204
204 204 204
204 204 204
204 204 204
204 204 204
204 204 204
204 204 204
204 204 204
204 204 204
204 204 204
204 204 204
204 204 204
204 204 204
204 204 204
204 204 204
204 204 204
204 204 204
204 204 204
204 204 204
204 204 204
204 204 204
204 204 204
204 204 204
204 204 204
204 204 204
204 204 204
204 204 204
204 204 204
204 204 204
204 204 204
204 204 204
204 204 204
204 204 204
204 204 204
204 204 204
204 204 204
204 204 204
204 204 204
204 204 204
204 204 204
204 204 204
204 204 204
204 204 204
204 204 204
204 204 204
204 204 204
204 204 204
204 204 204
204 204 204
204 204 204
204 204 204
204 204 204
204 204 204
204 204 204
204 204 204
204 204 204
204 204 204
204 204 204
204 204 204
204 204 204
204 204 204
204 204 204
204 204 204
204 204 204
204 204 204
204 204 204
204 204 204
204 204 204
204 204 204
204 204 204
204 204 204
204 204 204
204 204 204
204 204 204
204 204 204
204 204 204
204 204 204
204 204 204
204 204 204
204 204 204
204 204 204
204 204 204
204 204 204
204 204 204
204 204 204
204 204 204
204 204 204
204 204 204
204 204 204
204 204 204
204 204 204
204 204 204
204 204 204
204 204 204
204 204 204
204 204 204
204 204 204
204 204 204
204 204 204
204 204 204
204 204 204
204 204 204
204 204 204
204 204 204
204 204 204
204 204 204
204 204 204
204 204 204
204 204 204
204 204 204
204 204 204
204 204 204
204 204 204
204 204 204
204 204 204
204 204 204
204 204 204
204 204 204
204 204 204
204 204 204
204 204 204
204 204 204
204 204 204
204 204 204
204 204 204
204 204 204
204 204 204
204 204 204
204 204 204
204 204 204
204 204 204
204 204 204
204 204 204
204 204 204
204 204 204
204 204 204
204 204 204
204 204 204
204 204 204
204 204 204
204 204 204
204 204 204
204 204 204
204 204 204
204 204 204
204 204 204
204 204 204
204 204 204
204 204 204
204 204 204
204 204 204
204 204 204
204 204 204
204 204 204
204 204 204
204 204 204
204 204 204
204 204 204
204 204 204
204 204 204
204 204 204
204 204 204
204 204 204
204 204 204
204 204 204
204 204 204
204 204 204
204 204 204
204 204 204
204 204 204
204 204 204
204 204 204
204 204 204
204 204 204
204 204 204
204 204 204
204 204 204
204 204 204
204 204 204
204 204 204
204 204 204
204 204 204
204 204 204
204 204 204
204 204 204
204 204 204
204 204 204
204 204 204
204 204 204
204 204 204
204 204 204
204 204 204
204 204 204
204 204 204
204 204 204
204 204 204
204 204 204
204 204 204
204 204 204
204 204 204
204 204 204
204 204 204
204 204 204
204 204 204
204 204 204
204 204 204
204 204 204
204 204 204
204 204 204
204 204 204
204 204 204
204 204 204
204 204 204
204 204 204
204 204 204
204 204 204
204 204 204
204 204 204
204 204 204
204 204 204
204 204 204
204 204 204
204 204 204
204 204 204
204 204 204
204 204 204
204 204 204
204 204 204
204 204 204
204 204 204
204 204 204
204 204 204
204 204 204
204 204 204
204 204 204
204 204 204
204 204 204
204 204 204
204 204 204
204 204 204
204 204 204
204 204 204
204 204 204
204 204 204
204 204 204
204 204 204
204 204 204
204 204 204
204 204 204
204 204 204
204 204 204
204 204 204
204 204 204
204 204 204
204 204 204
204 204 204
204 204 204
204 204 204
204 204 204
204 204 204
204 204 204
204 204 204
204 204 204
204 204 204
204 204 204
204 204 204
204 204 204
204 204 204
204 204 204
204 204 204
204 204 204
204 204 204
204 204 204
204 204 204
204 204 204
204 204 204
204 204 204
204 204 204
204 204 204
204 204 204
204 204 204
204 204 204
204 204 204
204 204 204
204 204 204
204 204 204
204 204 204
204 204 204
204 204 204
204 204 204
204 204 204
204 204 204
204 204 204
204 204 204
204 204 204
204 204 204
204 204 204
204 204 204
204 204 204
204 204 204
204 204 204
204 204 204
204 204 204
204 204 204
204 204 204
204 204 204
204 204 204
204 204 204
204 204 204
204 204 204
204 204 204
204 204 204
204 204 204
204 204 204
204 204 204
204 204 204
204 204 204
204 204 204
204 204 204
204 204 204
204 204 204
204 204 204
204 204 204
204 204 204
204 204 204
204 204 204
204 204 204
204 204 204
204 204 204
204 204 204
204 204 204
204 204 204
204 204 204
204 204 204
204 204 204
204 204 204
204 204 204
204 204 204
204 204 204
204 204 204
204 204 204
204 204 204
204 204 204
204 204 204
204 204 204
204 204 204
204 204 204
204 204 204
204 204 204
204 204 204
204 204 204
204 204 204
204 204 204
204 204 204
204 204 204
204 204 204
204 204 204
204 204 204
204 204 204
204 204 204
204 204 204
204 204 204
204 204 204
204 204 204
204 204 204
204 204 204
204 204 204
204 204 204
204 204 204
204 204 204
204 204 204
204 204 204
204 204 204
204 204 204
204 204 204
204 204 204
204 204 204
204 204 204
204 204 204
204 204 204
204 204 204
204 204 204
204 204 204
204 204 204
204 204 204
204 204 204
204 204 204
204 204 204
204 204 204
204 204 204
204 204 204
204 204 204
204 204 204
204 204 204
204 204 204
204 204 204
204 204 204
204 204 204
204 204 204
204 204 204
204 204 204
204 204 204
204 204 204
204 204 204
204 204 204
204 204 204
204 204 204
204 204 204
204 204 204
204 204 204
204 204 204
204 204 204
204 204 204
204 204 204
204 204 204
204 204 204
204 204 204
204 204 204
204 204 204
204 204 204
204 204 204
204 204 204
204 204 204
204 204 204
204 204 204
204 204 204
204 204 204
204 204 204
204 204 204
204 204 204
204 204 204
204 204 204
204 204 204
204 204 204
204 204 204
204 204 204
204 204 204
204 204 204
204 204 204
204 204 204
204 204 204
204 204 204
204 204 204
204 204 204
204 204 204
204 204 204
204 204 204
204 204 204
204 204 204
204 204 204
204 204 204
204 204 204
204 204 204
204 204 204
204 204 204
204 204 204
204 204 204
204 204 204
204 204 204
204 204 204
204 204 204
204 204 204
204 204 204
204 204 204
204 204 204
204 204 204
204 204 204
204 204 204
204 204 204
204 204 204
204 204 204
204 204 204
204 204 204
204 204 204
204 204 204
204 204 204
204 204 204
204 204 204
204 204 204
204 204 204
204 204 204
204 204 204
204 204 204
204 204 204
204 204 204
204 204 204
204 204 204
204 204 204
204 204 204
204 204 204
204 204 204
204 204 204
204 204 204
204 204 204
204 204 204
204 204 204
204 204 204
204 204 204
204 204 204
204 204 204
204 204 204
204 204 204
204 204 204
204 204 204
204 204 204
204 204 204
204 204 204
204 204 204
204 204 204
204 204 204
204 204 204
204 204 204
204 204 204
204 204 204
204 204 204
204 204 204
204 204 204
204 204 204
204 204 204
204 204 204
204 204 204
204 204 204
204 204 204
204 204 204
204 204 204
204 204 204
204 204 204
204 204 204
204 204 204
204 204 204
204 204 204
204 204 204
204 204 204
204 204 204
204 204 204
204 204 204
204 204 204
204 204 204
204 204 204
204 204 204
204 204 204
204 204 204
204 204 204
204 204 204
204 204 204
204 204 204
204 204 204
204 204 204
204 204 204
204 204 204
204 204 204
204 204 204
204 204 204
204 204 204
204 204 204
204 204 204
204 204 204
204 204 204
204 204 204
204 204 204
204 204 204
204 204 204
204 204 204
204 204 204
204 204 204
204 204 204
204 204 204
204 204 204
204 204 204
204 204 204
204 204 204
204 204 204
204 204 204
204 204 204
204 204 204
204 204 204
204 204 204
204 204 204
204 204 204
204 204 204
204 204 204
204 204 204
204 204 204
204 204 204
204 204 204
204 204 204
204 204 204
204 204 204
204 204 204
204 204 204
204 204 204
204 204 204
204 204 204
204 204 204
204 204 204
204 204 204
204 204 204
204 204 204
204 204 204
204 204 204
204 204 204
204 204 204
204 204 204
204 204 204
204 204 204
204 204 204
204 204 204
204 204 204
204 204 204
204 204 204
204 204 204
204 204 204
204 204 204
204 204 204
204 204 204
204 204 204
204 204 204
204 204 204
204 204 204
204 204 204
204 204 204
204 204 204
204 204 204
204 204 204
204 204 204
204 204 204
204 204 204
204 204 204
204 204 204
204 204 204
204 204 204
204 204 204
204 204 204
204 204 204
204 204 204
204 204 204
204 204 204
204 204 204
204 204 204
204 204 204
204 204 204
204 204 204
204 204 204
204 204 204
204 204 204
204 204 204
204 204 204
204 204 204
204 204 204
204 204 204
204 204 204
204 204 204
204 204 204
204 204 204
204 204 204
204 204 204
204 204 204
204 204 204
204 204 204
204 204 204
204 204 204
204 204 204
204 204 204
204 204 204
204 204 204
204 204 204
204 204 204
204 204 204
204 204 204
204 204 204
204 204 204
204 204 204
204 204 204
204 204 204
204 204 204
204 204 204
204 204 204
204 204 204
204 204 204
204 204 204
204 204 204
204 204 204
204 204 204
204 204 204
204 204 204
204 204 204
204 204 204
204 204 204
204 204 204
204 204 204
204 204 204
204 204 204
204 204 204
204 204 204
204 204 204
204 204 204
204 204 204
204 204 204
204 204 204
204 204 204
204 204 204
204 204 204
204 204 204
204 204 204
204 204 204
204 204 204
204 204 204
204 204 204
204 204 204
204 204 204
204 204 204
204 204 204
204 204 204
204 204 204
204 204 204
204 204 204
204 204 204
204 204 204
204 204 204
204 204 204
204 204 204
204 204 204
204 204 204
204 204 204
204 204 204
204 204 204
204 204 204
204 204 204
204 204 204
204 204 204
204 204 204
204 204 204
204 204 204
204 204 204
204 204 204
204 204 204
204 204 204
204 204 204
204 204 204
204 204 204
204 204 204
204 204 204
204 204 204
204 204 204
204 204 204
204 204 204
204 204 204
204 204 204
204 204 204
204 204 204
204 204 204
204 204 204
204 204 204
204 204 204
204 204 204
204 204 204
204 204 204
204 204 204
204 204 204
204 204 204
204 204 204
204 204 204
204 204 204
204 204 204
204 204 204
204 204 204
204 204 204
204 204 204
204 204 204
204 204 204
204 204 204
204 204 204
204 204 204
204 204 204
204 204 204
204 204 204
204 204 204
204 204 204
204 204 204
204 204 204
204 204 204
204 204 204
204 204 204
204 204 204
204 204 204
204 204 204
204 204 204
204 204 204
204 204 204
204 204 204
204 204 204
204 204 204
204 204 204
204 204 204
204 204 204
204 204 204
204 204 204
204 204 204
204 204 204
204 204 204
204 204 204
204 204 204
204 204 204
204 204 204
204 204 204
204 204 204
204 204 204
204 204 204
204 204 204
204 204 204
204 204 204
204 204 204
204 204 204
204 204 204
204 204 204
204 204 204
204 204 204
204 204 204
204 204 204
204 204 204
204 204 204
204 204 204
204 204 204
204 204 204
204 204 204
204 204 204
204 204 204
204 204 204
204 204 204
204 204 204
204 204 204
204 204 204
204 204 204
204 204 204
204 204 204
204 204 204
204 204 204
204 204 204
204 204 204
204 204 204
204 204 204
204 204 204
204 204 204
204 204 204
204 204 204
204 204 204
204 204 204
204 204 204
204 204 204
204 204 204
204 204 204
204 204 204
204 204 204
204 204 204
204 204 204
204 204 204
204 204 204
204 204 204
204 204 204
204 204 204
204 204 204
204 204 204
204 204 204
204 204 204
204 204 204
204 204 204
204 204 204
204 204 204
204 204 204
204 204 204
204 204 204
204 204 204
204 204 204
204 204 204
204 204 204
204 204 204
204 204 204
204 204 204
204 204 204
204 204 204
204 204 204
204 204 204
204 204 204
204 204 204
204 204 204
204 204 204
204 204 204
204 204 204
204 204 204
204 204 204
204 204 204
204 204 204
204 204 204
204 204 204
204 204 204
204 204 204
204 204 204
204 204 204
204 204 204
204 204 204
204 204 204
204 204 204
204 204 204
204 204 204
204 204 204
204 204 204
204 204 204
204 204 204
204 204 204
204 204 204
204 204 204
204 204 204
204 204 204
204 204 204
204 204 204
204 204 204
204 204 204
204 204 204
204 204 204
204 204 204
204 204 204
204 204 204
204 204 204
204 204 204
204 204 204
204 204 204
204 204 204
204 204 204
204 204 204
204 204 204
204 204 204
204 204 204
204 204 204
204 204 204
204 204 204
204 204 204
204 204 204
204 204 204
204 204 204
204 204 204
204 204 204
204 204 204
204 204 204
204 204 204
204 204 204
204 204 204
204 204 204
204 204 204
204 204 204
204 204 204
204 204 204
204 204 204
204 204 204
204 204 204
204 204 204
204 204 204
204 204 204
204 204 204
204 204 204
204 204 204
204 204 204
204 204 204
204 204 204
204 204 204
204 204 204
204 204 204
204 204 204
204 204 204
204 204 204
204 204 204
204 204 204
204 204 204
204 204 204
204 204 204
204 204 204
204 204 204
204 204 204
204 204 204
204 204 204
204 204 204
204 204 204
204 204 204
204 204 204
204 204 204
204 204 204
204 204 204
204 204 204
204 204 204
204 204 204
204 204 204
204 204 204
204 204 204
204 204 204
204 204 204
204 204 204
204 204 204
204 204 204
204 204 204
204 204 204
204 204 204
204 204 204
204 204 204
204 204 204
204 204 204
204 204 204
204 204 204
204 204 204
204 204 204
204 204 204
204 204 204
204 204 204
204 204 204
204 204 204
204 204 204
204 204 204
204 204 204
204 204 204
204 204 204
204 204 204
204 204 204
204 204 204
204 204 204
204 204 204
204 204 204
204 204 204
204 204 204
204 204 204
204 204 204
204 204 204
204 204 204
204 204 204
204 204 204
204 204 204
204 204 204
204 204 204
204 204 204
204 204 204
204 204 204
204 204 204
204 204 204
204 204 204
204 204 204
204 204 204
204 204 204
204 204 204
204 204 204
204 204 204
204 204 204
204 204 204
204 204 204
204 204 204
204 204 204
204 204 204
204 204 204
204 204 204
204 204 204
204 204 204
204 204 204
204 204 204
204 204 204
204 204 204
204 204 204
204 204 204
204 204 204
204 204 204
204 204 204
204 204 204
204 204 204
204 204 204
204 204 204
204 204 204
204 204 204
204 204 204
204 204 204
204 204 204
204 204 204
204 204 204
204 204 204
204 204 204
204 204 204
204 204 204
204 204 204
204 204 204
204 204 204
204 204 204
204 204 204
204 204 204
204 204 204
204 204 204
204 204 204
204 204 204
204 204 204
204 204 204
204 204 204
204 204 204
204 204 204
204 204 204
204 204 204
204 204 204
204 204 204
204 204 204
204 204 204
204 204 204
204 204 204
204 204 204
204 204 204
204 204 204
204 204 204
204 204 204
204 204 204
204 204 204
204 204 204
204 204 204
204 204 204
204 204 204
204 204 204
204 204 204
204 204 204
204 204 204
204 204 204
204 204 204
204 204 204
204 204 204
204 204 204
204 204 204
204 204 204
204 204 204
204 204 204
204 204 204
204 204 204
204 204 204
204 204 204
204 204 204
204 204 204
204 204 204
204 204 204
204 204 204
204 204 204
204 204 204
204 204 204
204 204 204
204 204 204
204 204 204
204 204 204
204 204 204
204 204 204
204 204 204
204 204 204
204 204 204
204 204 204
204 204 204
204 204 204
204 204 204
204 204 204
204 204 204
204 204 204
204 204 204
204 204 204
204 204 204
204 204 204
204 204 204
204 204 204
204 204 204
204 204 204
204 204 204
204 204 204
204 204 204
204 204 204
204 204 204
204 204 204
204 204 204
204 204 204
204 204 204
204 204 204
204 204 204
204 204 204
204 204 204
204 204 204
204 204 204
204 204 204
204 204 204
204 204 204
204 204 204
204 204 204
204 204 204
204 204 204
204 204 204
204 204 204
204 204 204
204 204 204
204 204 204
204 204 204
204 204 204
204 204 204
204 204 204
204 204 204
204 204 204
204 204 204
204 204 204
204 204 204
204 204 204
204 204 204
204 204 204
204 204 204
204 204 204
204 204 204
204 204 204
204 204 204
204 204 204
204 204 204
204 204 204
204 204 204
204 204 204
204 204 204
204 204 204
204 204 204
204 204 204
204 204 204
204 204 204
204 204 204
204 204 204
204 204 204
204 204 204
204 204 204
204 204 204
204 204 204
204 204 204
204 204 204
204 204 204
204 204 204
204 204 204
204 204 204
204 204 204
204 204 204
204 204 204
204 204 204
204 204 204
204 204 204
204 204 204
204 204 204
204 204 204
204 204 204
204 204 204
204 204 204
204 204 204
204 204 204
204 204 204
204 204 204
204 204 204
204 204 204
204 204 204
204 204 204
204 204 204
204 204 204
204 204 204
204 204 204
204 204 204
204 204 204
204 204 204
204 204 204
204 204 204
204 204 204
204 204 204
204 204 204
204 204 204
204 204 204
204 204 204
204 204 204
204 204 204
204 204 204
204 204 204
204 204 204
204 204 204
204 204 204
204 204 204
204 204 204
204 204 204
204 204 204
204 204 204
204 204 204
204 204 204
204 204 204
204 204 204
204 204 204
204 204 204
204 204 204
204 204 204
204 204 204
204 204 204
204 204 204
204 204 204
204 204 204
204 204 204
204 204 204
204 204 204
204 204 204
204 204 204
204 204 204
204 204 204
204 204 204
204 204 204
204 204 204
204 204 204
204 204 204
204 204 204
204 204 204
204 204 204
204 204 204
204 204 204
204 204 204
204 204 204
204 204 204
204 204 204
204 204 204
204 204 204
204 204 204
204 204 204
204 204 204
204 204 204
204 204 204
204 204 204
204 204 204
204 204 204
204 204 204
204 204 204
204 204 204
204 204 204
204 204 204
204 204 204
204 204 204
204 204 204
204 204 204
204 204 204
204 204 204
204 204 204
204 204 204
204 204 204
204 204 204
204 204 204
204 204 204
204 204 204
204 204 204
204 204 204
204 204 204
204 204 204
204 204 204
204 204 204
204 204 204
204 204 204
204 204 204
204 204 204
204 204 204
204 204 204
204 204 204
204 204 204
204 204 204
204 204 204
204 204 204
204 204 204
204 204 204
204 204 204
204 204 204
204 204 204
204 204 204
204 204 204
204 204 204
204 204 204
204 204 204
204 204 204
204 204 204
204 204 204
204 204 204
204 204 204
204 204 204
204 204 204
204 204 204
204 204 204
204 204 204
204 204 204
204 204 204
204 204 204
204 204 204
204 204 204
204 204 204
204 204 204
204 204 204
204 204 204
204 204 204
204 204 204
204 204 204
204 204 204
204 204 204
204 204 204
204 204 204
204 204 204
204 204 204
204 204 204
204 204 204
204 204 204
204 204 204
204 204 204
204 204 204
204 204 204
204 204 204
204 204 204
204 204 204
204 204 204
204 204 204
204 204 204
204 204 204
204 204 204
204 204 204
204 204 204
204 204 204
204 204 204
204 204 204
204 204 204
204 204 204
204 204 204
204 204 204
204 204 204
204 204 204
204 204 204
204 204 204
204 204 204
204 204 204
204 204 204
204 204 204
204 204 204
204 204 204
204 204 204
204 204 204
204 204 204
204 204 204
204 204 204
204 204 204
204 204 204
204 204 204
204 204 204
204 204 204
204 204 204
204 204 204
204 204 204
204 204 204
204 204 204
204 204 204
204 204 204
204 204 204
204 204 204
204 204 204
204 204 204
204 204 204
204 204 204
204 204 204
204 204 204
204 204 204
204 204 204
204 204 204
204 204 204
204 204 204
204 204 204
204 204 204
204 204 204
204 204 204
204 204 204
204 204 204
204 204 204
204 204 204
204 204 204
204 204 204
204 204 204
204 204 204
204 204 204
204 204 204
204 204 204
204 204 204
204 204 204
204 204 204
204 204 204
204 204 204
204 204 204
204 204 204
204 204 204
204 204 204
204 204 204
204 204 204
204 204 204
204 204 204
204 204 204
204 204 204
204 204 204
204 204 204
204 204 204
204 204 204
204 204 204
204 204 204
204 204 204
204 204 204
204 204 204
204 204 204
204 204 204
204 204 204
204 204 204
204 204 204
204 204 204
204 204 204
204 204 204
204 204 204
204 204 204
204 204 204
204 204 204
204 204 204
204 204 204
204 204 204
204 204 204
204 204 204
204 204 204
204 204 204
204 204 204
204 204 204
204 204 204
204 204 204
204 204 204
204 204 204
204 204 204
204 204 204
204 204 204
204 204 204
204 204 204
204 204 204
204 204 204
204 204 204
204 204 204
204 204 204
204 204 204
204 204 204
204 204 204
204 204 204
204 204 204
204 204 204
204 204 204
204 204 204
204 204 204
204 204 204
204 204 204
204 204 204
204 204 204
204 204 204
204 204 204
204 204 204
204 204 204
204 204 204
204 204 204
204 204 204
204 204 204
204 204 204
204 204 204
204 204 204
204 204 204
204 204 204
204 204 204
204 204 204
204 204 204
204 204 204
204 204 204
204 204 204
204 204 204
204 204 204
204 204 204
204 204 204
204 204 204
204 204 204
204 204 204
204 204 204
204 204 204
204 204 204
204 204 204
204 204 204
204 204 204
204 204 204
204 204 204
204 204 204
204 204 204
204 204 204
204 204 204
204 204 204
204 204 204
204 204 204
204 204 204
204 204 204
204 204 204
204 204 204
204 204 204
204 204 204
204 204 204
204 204 204
204 204 204
204 204 204
204 204 204
204 204 204
204 204 204
204 204 204
204 204 204
204 204 204
204 204 204
204 204 204
204 204 204
204 204 204
204 204 204
204 204 204
204 204 204
204 204 204
204 204 204
204 204 204
204 204 204
204 204 204
204 204 204
204 204 204
204 204 204
204 204 204
204 204 204
204 204 204
204 204 204
204 204 204
204 204 204
204 204 204
204 204 204
204 204 204
204 204 204
204 204 204
204 204 204
204 204 204
204 204 204
204 204 204
204 204 204
204 204 204
204 204 204
204 204 204
204 204 204
204 204 204
204 204 204
204 204 204
204 204 204
204 204 204
204 204 204
204 204 204
204 204 204
204 204 204
204 204 204
204 204 204
204 204 204
204 204 204
204 204 204
204 204 204
204 204 204
204 204 204
204 204 204
204 204 204
204 204 204
204 204 204
204 204 204
204 204 204
204 204 204
204 204 204
204 204 204
204 204 204
204 204 204
204 204 204
204 204 204
204 204 204
204 204 204
204 204 204
204 204 204
204 204 204
204 204 204
204 204 204
204 204 204
204 204 204
204 204 204
204 204 204
204 204 204
204 204 204
204 204 204
204 204 204
204 204 204
204 204 204
204 204 204
204 204 204
204 204 204
204 204 204
204 204 204
204 204 204
204 204 204
204 204 204
204 204 204
204 204 204
204 204 204
204 204 204
204 204 204
204 204 204
204 204 204
204 204 204
204 204 204
204 204 204
204 204 204
204 204 204
204 204 204
204 204 204
204 204 204
204 204 204
204 204 204
204 204 204
204 204 204
204 204 204
204 204 204
204 204 204
204 204 204
204 204 204
204 204 204
204 204 204
204 204 204
204 204 204
204 204 204
204 204 204
204 204 204
204 204 204
204 204 204
204 204 204
204 204 204
204 204 204
204 204 204
204 204 204
204 204 204
204 204 204
204 204 204
204 204 204
204 204 204
204 204 204
204 204 204
204 204 204
204 204 204
204 204 204
204 204 204
204 204 204
204 204 204
204 204 204
204 204 204
204 204 204
204 204 204
204 204 204
204 204 204
204 204 204
204 204 204
204 204 204
204 204 204
204 204 204
204 204 204
204 204 204
204 204 204
204 204 204
204 204 204
204 204 204
204 204 204
204 204 204
204 204 204
204 204 204
204 204 204
204 204 204
204 204 204
204 204 204
204 204 204
204 204 204
204 204 204
204 204 204
204 204 204
204 204 204
204 204 204
204 204 204
204 204 204
204 204 204
204 204 204
204 204 204
204 204 204
204 204 204
204 204 204
204 204 204
204 204 204
204 204 204
204 204 204
204 204 204
204 204 204
204 204 204
204 204 204
204 204 204
204 204 204
204 204 204
204 204 204
204 204 204
204 204 204
204 204 204
204 204 204
204 204 204
204 204 204
204 204 204
204 204 204
204 204 204
204 204 204
204 204 204
204 204 204
204 204 204
204 204 204
204 204 204
204 204 204
204 204 204
204 204 204
204 204 204
204 204 204
204 204 204
204 204 204
204 204 204
204 204 204
204 204 204
204 204 204
204 204 204
204 204 204
204 204 204
204 204 204
204 204 204
204 204 204
204 204 204
204 204 204
204 204 204
204 204 204
204 204 204
204 204 204
204 204 204
204 204 204
204 204 204
204 204 204
204 204 204
204 204 204
204 204 204
204 204 204
204 204 204
204 204 204
204 204 204
204 204 204
204 204 204
204 204 204
204 204 204
204 204 204
204 204 204
204 204 204
204 204 204
204 204 204
204 204 204
204 204 204
204 204 204
204 204 204
204 204 204
204 204 204
204 204 204
204 204 204
204 204 204
204 204 204
204 204 204
204 204 204
204 204 204
204 204 204
204 204 204
204 204 204
204 204 204
204 204 204
204 204 204
204 204 204
204 204 204
204 204 204
204 204 204
204 204 204
204 204 204
204 204 204
204 204 204
204 204 204
204 204 204
204 204 204
204 204 204
204 204 204
204 204 204
204 204 204
204 204 204
204 204 204
204 204 204
204 204 204
204 204 204
204 204 204
204 204 204
204 204 204
204 204 204
204 204 204
204 204 204
204 204 204
204 204 204
204 204 204
204 204 204
204 204 204
204 204 204
204 204 204
204 204 204
204 204 204
204 204 204
204 204 204
204 204 204
204 204 204
204 204 204
204 204 204
204 204 204
204 204 204
204 204 204
204 204 204
204 204 204
204 204 204
204 204 204
204 204 204
204 204 204
204 204 204
204 204 204
204 204 204
204 204 204
204 204 204
204 204 204
204 204 204
204 204 204
204 204 204
204 204 204
204 204 204
204 204 204
204 204 204
204 204 204
204 204 204
204 204 204
204 204 204
204 204 204
204 204 204
204 204 204
204 204 204
204 204 204
204 204 204
204 204 204
204 204 204
204 204 204
204 204 204
204 204 204
204 204 204
204 204 204
204 204 204
204 204 204
204 204 204
204 204 204
204 204 204
204 204 204
204 204 204
204 204 204
204 204 204
204 204 204
204 204 204
204 204 204
204 204 204
204 204 204
204 204 204
204 204 204
204 204 204
204 204 204
204 204 204
204 204 204
204 204 204
204 204 204
204 204 204
204 204 204
204 204 204
204 204 204
204 204 204
204 204 204
204 204 204
204 204 204
204 204 204
204 204 204
204 204 204
204 204 204
204 204 204
204 204 204
204 204 204
204 204 204
204 204 204
204 204 204
204 204 204
204 204 204
204 204 204
204 204 204
204 204 204
204 204 204
204 204 204
204 204 204
204 204 204
204 204 204
204 204 204
204 204 204
204 204 204
204 204 204
204 204 204
204 204 204
204 204 204
204 204 204
204 204 204
204 204 204
204 204 204
204 204 204
204 204 204
204 204 204
204 204 204
204 204 204
204 204 204
204 204 204
204 204 204
204 204 204
204 204 204
204 204 204
204 204 204
204 204 204
204 204 204
204 204 204
204 204 204
204 204 204
204 204 204
204 204 204
204 204 204
204 204 204
204 204 204
204 204 204
204 204 204
204 204 204
204 204 204
204 204 204
204 204 204
204 204 204
204 204 204
204 204 204
204 204 204
204 204 204
204 204 204
204 204 204
204 204 204
204 204 204
204 204 204
204 204 204
204 204 204
204 204 204
204 204 204
204 204 204
204 204 204
204 204 204
204 204 204
204 204 204
204 204 204
204 204 204
204 204 204
204 204 204
204 204 204
204 204 204
204 204 204
204 204 204
204 204 204
204 204 204
204 204 204
204 204 204
204 204 204
204 204 204
204 204 204
204 204 204
204 204 204
204 204 204
204 204 204
204 204 204
204 204 204
204 204 204
204 204 204
204 204 204
204 204 204
204 204 204
204 204 204
204 204 204
204 204 204
204 204 204
204 204 204
204 204 204
204 204 204
204 204 204
204 204 204
204 204 204
204 204 204
204 204 204
204 204 204
204 204 204
204 204 204
204 204 204
204 204 204
204 204 204
204 204 204
204 204 204
204 204 204
204 204 204
204 204 204
204 204 204
204 204 204
204 204 204
204 204 204
204 204 204
204 204 204
204 204 204
204 204 204
204 204 204
204 204 204
204 204 204
204 204 204
204 204 204
204 204 204
204 204 204
204 204 204
204 204 204
204 204 204
204 204 204
204 204 204
204 204 204
204 204 204
204 204 204
204 204 204
204 204 204
204 204 204
204 204 204
204 204 204
204 204 204
204 204 204
204 204 204
204 204 204
204 204 204
204 204 204
204 204 204
204 204 204
204 204 204
204 204 204
204 204 204
204 204 204
204 204 204
204 204 204
204 204 204
204 204 204
204 204 204
204 204 204
204 204 204
204 204 204
204 204 204
204 204 204
204 204 204
204 204 204
204 204 204
204 204 204
204 204 204
204 204 204
204 204 204
204 204 204
204 204 204
204 204 204
204 204 204
204 204 204
204 204 204
204 204 204
204 204 204
204 204 204
204 204 204
204 204 204
204 204 204
204 204 204
204 204 204
204 204 204
204 204 204
204 204 204
204 204 204
204 204 204
204 204 204
204 204 204
204 204 204
204 204 204
204 204 204
204 204 204
204 204 204
204 204 204
204 204 204
204 204 204
204 204 204
204 204 204
204 204 204
204 204 204
204 204 204
204 204 204
204 204 204
204 204 204
204 204 204
204 204 204
204 204 204
204 204 204
204 204 204
204 204 204
204 204 204
204 204 204
204 204 204
204 204 204
204 204 204
204 204 204
204 204 204
204 204 204
204 204 204
204 204 204
204 204 204
204 204 204
204 204 204
204 204 204
204 204 204
204 204 204
204 204 204
204 204 204
204 204 204
204 204 204
204 204 204
204 204 204
204 204 204
204 204 204
204 204 204
204 204 204
204 204 204
204 204 204
204 204 204
204 204 204
204 204 204
204 204 204
204 204 204
204 204 204
204 204 204
204 204 204
204 204 204
204 204 204
204 204 204
204 204 204
204 204 204
204 204 204
204 204 204
204 204 204
204 204 204
204 204 204
204 204 204
204 204 204
204 204 204
204 204 204
204 204 204
204 204 204
204 204 204
204 204 204
204 204 204
204 204 204
204 204 204
204 204 204
204 204 204
204 204 204
204 204 204
204 204 204
204 204 204
204 204 204
204 204 204
204 204 204
204 204 204
204 204 204
204 204 204
204 204 204
204 204 204
204 204 204
204 204 204
204 204 204
204 204 204
204 204 204
204 204 204
204 204 204
204 204 204
204 204 204
204 204 204
204 204 204
204 204 204
204 204 204
204 204 204
204 204 204
204 204 204
204 204 204
204 204 204
204 204 204
204 204 204
204 204 204
204 204 204
204 204 204
204 204 204
204 204 204
204 204 204
204 204 204
204 204 204
204 204 204
204 204 204
204 204 204
204 204 204
204 204 204
204 204 204
204 204 204
204 204 204
204 204 204
204 204 204
204 204 204
204 204 204
204 204 204
204 204 204
204 204 204
204 204 204
204 204 204
204 204 204
204 204 204
204 204 204
204 204 204
204 204 204
204 204 204
204 204 204
204 204 204
204 204 204
204 204 204
204 204 204
204 204 204
204 204 204
204 204 204
204 204 204
204 204 204
204 204 204
204 204 204
204 204 204
204 204 204
204 204 204
204 204 204
204 204 204
204 204 204
204 204 204
204 204 204
204 204 204
204 204 204
204 204 204
204 204 204
204 204 204
204 204 204
204 204 204
204 204 204
204 204 204
204 204 204
204 204 204
204 204 204
204 204 204
204 204 204
204 204 204
204 204 204
204 204 204
204 204 204
204 204 204
204 204 204
204 204 204
204 204 204
204 204 204
204 204 204
204 204 204
204 204 204
204 204 204
204 204 204
204 204 204
204 204 204
204 204 204
204 204 204
204 204 204
204 204 204
204 204 204
204 204 204
204 204 204
204 204 204
204 204 204
204 204 204
204 204 204
204 204 204
204 204 204
204 204 204
204 204 204
204 204 204
204 204 204
204 204 204
204 204 204
204 204 204
204 204 204
204 204 204
204 204 204
204 204 204
204 204 204
204 204 204
204 204 204
204 204 204
204 204 204
204 204 204
204 204 204
204 204 204
204 204 204
204 204 204
204 204 204
204 204 204
204 204 204
204 204 204
204 204 204
204 204 204
204 204 204
204 204 204
204 204 204
204 204 204
204 204 204
204 204 204
204 204 204
204 204 204
204 204 204
204 204 204
204 204 204
204 204 204
204 204 204
204 204 204
204 204 204
204 204 204
204 204 204
204 204 204
204 204 204
204 204 204
204 204 204
204 204 204
204 204 204
204 204 204
204 204 204
204 204 204
204 204 204
204 204 204
204 204 204
204 204 204
204 204 204
204 204 204
204 204 204
204 204 204
204 204 204
204 204 204
204 204 204
204 204 204
204 204 204
204 204 204
204 204 204
204 204 204
204 204 204
204 204 204
204 204 204
204 204 204
204 204 204
204 204 204
204 204 204
204 204 204
204 204 204
204 204 204
204 204 204
204 204 204
204 204 204
204 204 204
204 204 204
204 204 204
204 204 204
204 204 204
204 204 204
204 204 204
204 204 204
204 204 204
204 204 204
204 204 204
204 204 204
204 204 204
204 204 204
204 204 204
204 204 204
204 204 204
204 204 204
204 204 204
204 204 204
204 204 204
204 204 204
204 204 204
204 204 204
204 204 204
204 204 204
204 204 204
204 204 204
204 204 204
204 204 204
204 204 204
204 204 204
204 204 204
204 204 204
204 204 204
204 204 204
204 204 204
204 204 204
204 204 204
204 204 204
204 204 204
204 204 204
204 204 204
204 204 204
204 204 204
204 204 204
204 204 204
204 204 204
204 204 204
204 204 204
204 204 204
204 204 204
204 204 204
204 204 204
204 204 204
204 204 204
204 204 204
204 204 204
204 204 204
204 204 204
204 204 204
204 204 204
204 204 204
204 204 204
204 204 204
204 204 204
204 204 204
204 204 204
204 204 204
204 204 204
204 204 204
204 204 204
204 204 204
204 204 204
204 204 204
204 204 204
204 204 204
204 204 204
204 204 204
204 204 204
204 204 204
204 204 204
204 204 204
204 204 204
204 204 204
204 204 204
204 204 204
204 204 204
204 204 204
204 204 204
204 204 204
204 204 204
204 204 204
204 204 204
204 204 204
204 204 204
204 204 204
204 204 204
204 204 204
204 204 204
204 204 204
204 204 204
204 204 204
204 204 204
204 204 204
204 204 204
204 204 204
204 204 204
204 204 204
204 204 204
204 204 204
204 204 204
204 204 204
204 204 204
204 204 204
204 204 204
204 204 204
204 204 204
204 204 204
204 204 204
204 204 204
204 204 204
204 204 204
204 204 204
204 204 204
204 204 204
204 204 204
204 204 204
204 204 204
204 204 204
204 204 204
204 204 204
204 204 204
204 204 204
204 204 204
204 204 204
204 204 204
204 204 204
204 204 204
204 204 204
204 204 204
204 204 204
204 204 204
204 204 204
204 204 204
204 204 204
204 204 204
204 204 204
204 204 204
204 204 204
204 204 204
204 204 204
204 204 204
204 204 204
204 204 204
204 204 204
204 204 204
204 204 204
204 204 204
204 204 204
204 204 204
204 204 204
204 204 204
204 204 204
204 204 204
204 204 204
204 204 204
204 204 204
204 204 204
204 204 204
204 204 204
204 204 204
204 204 204
204 204 204
204 204 204
204 204 204
204 204 204
204 204 204
204 204 204
204 204 204
204 204 204
204 204 204
204 204 204
204 204 204
204 204 204
204 204 204
204 204 204
204 204 204
204 204 204
204 204 204
204 204 204
204 204 204
204 204 204
204 204 204
204 204 204
204 204 204
204 204 204
204 204 204
204 204 204
204 204 204
204 204 204
204 204 204
204 204 204
204 204 204
204 204 204
204 204 204
204 204 204
204 204 204
204 204 204
204 204 204
204 204 204
204 204 204
204 204 204
204 204 204
204 204 204
204 204 204
204 204 204
204 204 204
204 204 204
204 204 204
204 204 204
204 204 204
204 204 204
204 204 204
204 204 204
204 204 204
204 204 204
204 204 204
204 204 204
204 204 204
204 204 204
204 204 204
204 204 204
204 204 204
204 204 204
204 204 204
204 204 204
204 204 204
204 204 204
204 204 204
204 204 204
204 204 204
204 204 204
204 204 204
204 204 204
204 204 204
204 204 204
204 204 204
204 204 204
204 204 204
204 204 204
204 204 204
204 204 204
204 204 204
204 204 204
204 204 204
204 204 204
204 204 204
204 204 204
204 204 204
204 204 204
204 204 204
204 204 204
204 204 204
204 204 204
204 204 204
204 204 204
204 204 204
204 204 204
204 204 204
204 204 204
204 204 204
204 204 204
204 204 204
204 204 204
204 204 204
204 204 204
204 204 204
204 204 204
204 204 204
204 204 204
204 204 204
204 204 204
204 204 204
204 204 204
204 204 204
204 204 204
204 204 204
204 204 204
204 204 204
204 204 204
204 204 204
204 204 204
204 204 204
204 204 204
204 204 204
204 204 204
204 204 204
204 204 204
204 204 204
204 204 204
204 204 204
204 204 204
204 204 204
204 204 204
204 204 204
204 204 204
204 204 204
204 204 204
204 204 204
204 204 204
204 204 204
204 204 204
204 204 204
204 204 204
204 204 204
204 204 204
204 204 204
204 204 204
204 204 204
204 204 204
204 204 204
204 204 204
204 204 204
204 204 204
204 204 204
204 204 204
204 204 204
204 204 204
204 204 204
204 204 204
204 204 204
204 204 204
204 204 204
204 204 204
204 204 204
204 204 204
204 204 204
204 204 204
204 204 204
204 204 204
204 204 204
204 204 204
204 204 204
204 204 204
204 204 204
204 204 204
204 204 204
204 204 204
204 204 204
204 204 204
204 204 204
204 204 204
204 204 204
204 204 204
204 204 204
204 204 204
204 204 204
204 204 204
204 204 204
204 204 204
204 204 204
204 204 204
204 204 204
204 204 204
204 204 204
204 204 204
204 204 204
204 204 204
204 204 204
204 204 204
204 204 204
204 204 204
204 204 204
204 204 204
204 204 204
204 204 204
204 204 204
204 204 204
204 204 204
204 204 204
204 204 204
204 204 204
204 204 204
204 204 204
204 204 204
204 204 204
204 204 204
204 204 204
204 204 204
204 204 204
204 204 204
204 204 204
204 204 204
204 204 204
204 204 204
204 204 204
204 204 204
204 204 204
204 204 204
204 204 204
204 204 204
204 204 204
204 204 204
204 204 204
204 204 204
204 204 204
204 204 204
204 204 204
204 204 204
204 204 204
204 204 204
204 204 204
204 204 204
204 204 204
204 204 204
204 204 204
204 204 204
204 204 204
204 204 204
204 204 204
204 204 204
204 204 204
204 204 204
204 204 204
204 204 204
204 204 204
204 204 204
204 204 204
204 204 204
204 204 204
204 204 204
204 204 204
204 204 204
204 204 204
204 204 204
204 204 204
204 204 204
204 204 204
204 204 204
204 204 204
204 204 204
204 204 204
204 204 204
204 204 204
204 204 204
204 204 204
204 204 204
204 204 204
204 204 204
204 204 204
204 204 204
204 204 204
204 204 204
204 204 204
204 204 204
204 204 204
204 204 204
204 204 204
204 204 204
204 204 204
204 204 204
204 204 204
204 204 204
204 204 204
204 204 204
204 204 204
204 204 204
204 204 204
204 204 204
204 204 204
204 204 204
204 204 204
204 204 204
204 204 204
204 204 204
204 204 204
204 204 204
204 204 204
204 204 204
204 204 204
204 204 204
204 204 204
204 204 204
204 204 204
204 204 204
204 204 204
204 204 204
204 204 204
204 204 204
204 204 204
204 204 204
204 204 204
204 204 204
204 204 204
204 204 204
204 204 204
204 204 204
204 204 204
204 204 204
204 204 204
204 204 204
204 204 204
204 204 204
204 204 204
204 204 204
204 204 204
204 204 204
204 204 204
204 204 204
204 204 204
204 204 204
204 204 204
204 204 204
204 204 204
204 204 204
204 204 204
204 204 204
204 204 204
204 204 204
204 204 204
204 204 204
204 204 204
204 204 204
204 204 204
204 204 204
204 204 204
204 204 204
204 204 204
204 204 204
204 204 204
204 204 204
204 204 204
204 204 204
204 204 204
204 204 204
204 204 204
204 204 204
204 204 204
204 204 204
204 204 204
204 204 204
204 204 204
204 204 204
204 204 204
204 204 204
204 204 204
204 204 204
204 204 204
204 204 204
204 204 204
204 204 204
204 204 204
204 204 204
204 204 204
204 204 204
204 204 204
204 204 204
204 204 204
204 204 204
204 204 204
204 204 204
204 204 204
204 204 204
204 204 204
204 204 204
204 204 204
204 204 204
204 204 204
204 204 204
204 204 204
204 204 204
204 204 204
204 204 204
204 204 204
204 204 204
204 204 204
204 204 204
204 204 204
204 204 204
204 204 204
204 204 204
204 204 204
204 204 204
204 204 204
204 204 204
204 204 204
204 204 204
204 204 204
204 204 204
204 204 204
204 204 204
204 204 204
204 204 204
204 204 204
204 204 204
204 204 204
204 204 204
204 204 204
204 204 204
204 204 204
204 204 204
204 204 204
204 204 204
204 204 204
204 204 204
204 204 204
204 204 204
204 204 204
204 204 204
204 204 204
204 204 204
204 204 204
204 204 204
204 204 204
204 204 204
204 204 204
204 204 204
204 204 204
204 204 204
204 204 204
204 204 204
204 204 204
204 204 204
204 204 204
204 204 204
204 204 204
204 204 204
204 204 204
204 204 204
204 204 204
204 204 204
204 204 204
204 204 204
204 204 204
204 204 204
204 204 204
204 204 204
204 204 204
204 204 204
204 204 204
204 204 204
204 204 204
204 204 204
204 204 204
204 204 204
204 204 204
204 204 204
204 204 204
204 204 204
204 204 204
204 204 204
204 204 204
204 204 204
204 204 204
204 204 204
204 204 204
204 204 204
204 204 204
204 204 204
204 204 204
204 204 204
204 204 204
204 204 204
204 204 204
204 204 204
204 204 204
204 204 204
204 204 204
204 204 204
204 204 204
204 204 204
204 204 204
204 204 204
204 204 204
204 204 204
204 204 204
204 204 204
204 204 204
204 204 204
204 204 204
204 204 204
204 204 204
204 204 204
204 204 204
204 204 204
204 204 204
204 204 204
204 204 204
204 204 204
204 204 204
204 204 204
204 204 204
204 204 204
204 204 204
204 204 204
204 204 204
204 204 204
204 204 204
204 204 204
204 204 204
204 204 204
204 204 204
204 204 204
204 204 204
204 204 204
204 204 204
204 204 204
204 204 204
204 204 204
204 204 204
204 204 204
204 204 204
204 204 204
204 204 204
204 204 204
204 204 204
204 204 204
204 204 204
204 204 204
204 204 204
204 204 204
204 204 204
204 204 204
204 204 204
204 204 204
204 204 204
204 204 204
204 204 204
204 204 204
204 204 204
204 204 204
204 204 204
204 204 204
204 204 204
204 204 204
204 204 204
204 204 204
204 204 204
204 204 204
204 204 204
204 204 204
204 204 204
204 204 204
204 204 204
204 204 204
204 204 204
204 204 204
204 204 204
204 204 204
204 204 204
204 204 204
204 204 204
204 204 204
204 204 204
204 204 204
204 204 204
204 204 204
204 204 204
204 204 204
204 204 204
204 204 204
204 204 204
204 204 204
204 204 204
204 204 204
204 204 204
204 204 204
204 204 204
204 204 204
204 204 204
204 204 204
204 204 204
204 204 204
204 204 204
204 204 204
204 204 204
204 204 204
204 204 204
204 204 204
204 204 204
204 204 204
204 204 204
204 204 204
204 204 204
204 204 204
204 204 204
204 204 204
204 204 204
204 204 204
204 204 204
204 204 204
204 204 204
204 204 204
204 204 204
204 204 204
204 204 204
204 204 204
204 204 204
204 204 204
204 204 204
204 204 204
204 204 204
204 204 204
204 204 204
204 204 204
204 204 204
204 204 204
204 204 204
204 204 204
204 204 204
204 204 204
204 204 204
204 204 204
204 204 204
204 204 204
204 204 204
204 204 204
204 204 204
204 204 204
204 204 204
204 204 204
204 204 204
204 204 204
204 204 204
204 204 204
204 204 204
204 204 204
204 204 204
204 204 204
204 204 204
204 204 204
204 204 204
204 204 204
204 204 204
204 204 204
204 204 204
204 204 204
204 204 204
204 204 204
204 204 204
204 204 204
204 204 204
204 204 204
204 204 204
204 204 204
204 204 204
204 204 204
204 204 204
204 204 204
204 204 204
204 204 204
204 204 204
204 204 204
204 204 204
204 204 204
204 204 204
204 204 204
204 204 204
204 204 204
204 204 204
204 204 204
204 204 204
204 204 204
204 204 204
204 204 204
204 204 204
204 204 204
204 204 204
204 204 204
204 204 204
204 204 204
204 204 204
204 204 204
204 204 204
204 204 204
204 204 204
204 204 204
204 204 204
204 204 204
204 204 204
204 204 204
204 204 204
204 204 204
204 204 204
204 204 204
204 204 204
204 204 204
204 204 204
204 204 204
204 204 204
204 204 204
204 204 204
204 204 204
204 204 204
204 204 204
204 204 204
204 204 204
204 204 204
204 204 204
204 204 204
204 204 204
204 204 204
204 204 204
204 204 204
204 204 204
204 204 204
204 204 204
204 204 204
204 204 204
204 204 204
204 204 204
204 204 204
204 204 204
204 204 204
204 204 204
204 204 204
204 204 204
204 204 204
204 204 204
204 204 204
204 204 204
204 204 204
204 204 204
204 204 204
204 204 204
204 204 204
204 204 204
204 204 204
204 204 204
204 204 204
204 204 204
204 204 204
204 204 204
204 204 204
204 204 204
204 204 204
204 204 204
204 204 204
204 204 204
204 204 204
204 204 204
204 204 204
204 204 204
204 204 204
204 204 204
204 204 204
204 204 204
204 204 204
204 204 204
204 204 204
204 204 204
204 204 204
204 204 204
204 204 204
204 204 204
204 204 204
204 204 204
204 204 204
204 204 204
204 204 204
204 204 204
204 204 204
204 204 204
204 204 204
204 204 204
204 204 204
204 204 204
204 204 204
204 204 204
204 204 204
204 204 204
204 204 204
204 204 204
204 204 204
204 204 204
204 204 204
204 204 204
204 204 204
204 204 204
204 204 204
204 204 204
204 204 204
204 204 204
204 204 204
204 204 204
204 204 204
204 204 204
204 204 204
204 204 204
204 204 204
204 204 204
204 204 204
204 204 204
204 204 204
204 204 204
204 204 204
204 204 204
204 204 204
204 204 204
204 204 204
204 204 204
204 204 204
204 204 204
204 204 204
204 204 204
204 204 204
204 204 204
204 204 204
204 204 204
204 204 204
204 204 204
204 204 204
204 204 204
204 204 204
204 204 204
204 204 204
204 204 204
204 204 204
204 204 204
204 204 204
204 204 204
204 204 204
204 204 204
204 204 204
204 204 204
204 204 204
204 204 204
204 204 204
204 204 204
204 204 204
204 204 204
204 204 204
204 204 204
204 204 204
204 204 204
204 204 204
204 204 204
204 204 204
204 204 204
204 204 204
204 204 204
204 204 204
204 204 204
204 204 204
204 204 204
204 204 204
204 204 204
204 204 204
204 204 204
204 204 204
204 204 204
204 204 204
204 204 204
204 204 204
204 204 204
204 204 204
204 204 204
204 204 204
204 204 204
204 204 204
204 204 204
204 204 204
204 204 204
204 204 204
204 204 204
204 204 204
204 204 204
204 204 204
204 204 204
204 204 204
204 204 204
204 204 204
204 204 204
204 204 204
204 204 204
204 204 204
204 204 204
204 204 204
204 204 204
204 204 204
204 204 204
204 204 204
204 204 204
204 204 204
204 204 204
204 204 204
204 204 204
204 204 204
204 204 204
204 204 204
204 204 204
204 204 204
204 204 204
204 204 204
204 204 204
204 204 204
204 204 204
204 204 204
204 204 204
204 204 204
204 204 204
204 204 204
204 204 204
204 204 204
204 204 204
204 204 204
204 204 204
204 204 204
204 204 204
204 204 204
204 204 204
204 204 204
204 204 204
204 204 204
204 204 204
204 204 204
204 204 204
204 204 204
204 204 204
204 204 204
204 204 204
204 204 204
204 204 204
204 204 204
204 204 204
204 204 204
204 204 204
204 204 204
204 204 204
204 204 204
204 204 204
204 204 204
204 204 204
204 204 204
204 204 204
204 204 204
204 204 204
204 204 204
204 204 204
204 204 204
204 204 204
204 204 204
204 204 204
204 204 204
204 204 204
204 204 204
204 204 204
204 204 204
204 204 204
204 204 204
204 204 204
204 204 204
204 204 204
204 204 204
204 204 204
204 204 204
204 204 204
204 204 204
204 204 204
204 204 204
204 204 204
204 204 204
204 204 204
204 204 204
204 204 204
204 204 204
204 204 204
204 204 204
204 204 204
204 204 204
204 204 204
204 204 204
204 204 204
204 204 204
204 204 204
204 204 204
204 204 204
204 204 204
204 204 204
204 204 204
204 204 204
204 204 204
204 204 204
204 204 204
204 204 204
204 204 204
204 204 204
204 204 204
204 204 204
204 204 204
204 204 204
204 204 204
204 204 204
204 204 204
204 204 204
204 204 204
204 204 204
204 204 204
204 204 204
204 204 204
204 204 204
204 204 204
204 204 204
204 204 204
204 204 204
204 204 204
204 204 204
204 204 204
204 204 204
204 204 204
204 204 204
204 204 204
204 204 204
204 204 204
204 204 204
204 204 204
204 204 204
204 204 204
204 204 204
204 204 204
204 204 204
204 204 204
204 204 204
204 204 204
204 204 204
204 204 204
204 204 204
204 204 204
204 204 204
204 204 204
204 204 204
204 204 204
204 204 204
204 204 204
204 204 204
204 204 204
204 204 204
204 204 204
204 204 204
204 204 204
204 204 204
204 204 204
204 204 204
204 204 204
204 204 204
204 204 204
204 204 204
204 204 204
204 204 204
204 204 204
204 204 204
204 204 204
204 204 204
204 204 204
204 204 204
204 204 204
204 204 204
204 204 204
204 204 204
204 204 204
204 204 204
204 204 204
204 204 204
204 204 204
204 204 204
204 204 204
204 204 204
204 204 204
204 204 204
204 204 204
204 204 204
204 204 204
204 204 204
204 204 204
204 204 204
204 204 204
204 204 204
204 204 204
204 204 204
204 204 204
204 204 204
204 204 204
204 204 204
204 204 204
204 204 204
204 204 204
204 204 204
204 204 204
204 204 204
204 204 204
204 204 204
204 204 204
204 204 204
204 204 204
204 204 204
204 204 204
204 204 204
204 204 204
204 204 204
204 204 204
204 204 204
204 204 204
204 204 204
204 204 204
204 204 204
204 204 204
204 204 204
204 204 204
204 204 204
204 204 204
204 204 204
204 204 204
204 204 204
204 204 204
204 204 204
204 204 204
204 204 204
204 204 204
204 204 204
204 204 204
204 204 204
204 204 204
204 204 204
204 204 204
204 204 204
204 204 204
204 204 204
204 204 204
204 204 204
204 204 204
204 204 204
204 204 204
204 204 204
204 204 204
204 204 204
204 204 204
204 204 204
204 204 204
204 204 204
204 204 204
204 204 204
204 204 204
204 204 204
204 204 204
204 204 204
204 204 204
204 204 204
204 204 204
204 204 204
204 204 204
204 204 204
204 204 204
204 204 204
204 204 204
204 204 204
204 204 204
204 204 204
204 204 204
204 204 204
204 204 204
204 204 204
204 204 204
204 204 204
204 204 204
204 204 204
204 204 204
204 204 204
204 204 204
204 204 204
204 204 204
204 204 204
204 204 204
204 204 204
204 204 204
204 204 204
204 204 204
204 204 204
204 204 204
204 204 204
204 204 204
204 204 204
204 204 204
204 204 204
204 204 204
204 204 204
204 204 204
204 204 204
204 204 204
204 204 204
204 204 204
204 204 204
204 204 204
204 204 204
204 204 204
204 204 204
204 204 204
204 204 204
204 204 204
204 204 204
204 204 204
204 204 204
204 204 204
204 204 204
204 204 204
204 204 204
204 204 204
204 204 204
204 204 204
204 204 204
204 204 204
204 204 204
204 204 204
204 204 204
204 204 204
204 204 204
204 204 204
204 204 204
204 204 204
204 204 204
204 204 204
204 204 204
204 204 204
204 204 204
204 204 204
204 204 204
204 204 204
204 204 204
204 204 204
204 204 204
204 204 204
204 204 204
204 204 204
204 204 204
204 204 204
204 204 204
204 204 204
204 204 204
204 204 204
204 204 204
204 204 204
204 204 204
204 204 204
204 204 204
204 204 204
204 204 204
204 204 204
204 204 204
204 204 204
204 204 204
204 204 204
204 204 204
204 204 204
204 204 204
204 204 204
204 204 204
204 204 204
204 204 204
204 204 204
204 204 204
204 204 204
204 204 204
204 204 204
204 204 204
204 204 204
204 204 204
204 204 204
204 204 204
204 204 204
204 204 204
204 204 204
204 204 204
204 204 204
204 204 204
204 204 204
204 204 204
204 204 204
204 204 204
204 204 204
204 204 204
204 204 204
204 204 204
204 204 204
204 204 204
204 204 204
204 204 204
204 204 204
204 204 204
204 204 204
204 204 204
204 204 204
204 204 204
204 204 204
204 204 204
204 204 204
204 204 204
204 204 204
204 204 204
204 204 204
204 204 204
204 204 204
204 204 204
204 204 204
204 204 204
204 204 204
204 204 204
204 204 204
204 204 204
204 204 204
204 204 204
204 204 204
204 204 204
204 204 204
204 204 204
204 204 204
204 204 204
204 204 204
204 204 204
204 204 204
204 204 204
204 204 204
204 204 204
204 204 204
204 204 204
204 204 204
204 204 204
204 204 204
204 204 204
204 204 204
204 204 204
204 204 204
204 204 204
204 204 204
204 204 204
204 204 204
204 204 204
204 204 204
204 204 204
204 204 204
204 204 204
204 204 204
204 204 204
204 204 204
204 204 204
204 204 204
204 204 204
204 204 204
204 204 204
204 204 204
204 204 204
204 204 204
204 204 204
204 204 204
204 204 204
204 204 204
204 204 204
204 204 204
204 204 204
204 204 204
204 204 204
204 204 204
204 204 204
204 204 204
204 204 204
204 204 204
204 204 204
204 204 204
204 204 204
204 204 204
204 204 204
204 204 204
204 204 204
204 204 204
204 204 204
204 204 204
204 204 204
204 204 204
204 204 204
204 204 204
204 204 204
204 204 204
204 204 204
204 204 204
204 204 204
204 204 204
204 204 204
204 204 204
204 204 204
204 204 204
204 204 204
204 204 204
204 204 204
204 204 204
204 204 204
204 204 204
204 204 204
204 204 204
204 204 204
204 204 204
204 204 204
204 204 204
204 204 204
204 204 204
204 204 204
204 204 204
204 204 204
204 204 204
204 204 204
204 204 204
204 204 204
204 204 204
204 204 204
204 204 204
204 204 204
204 204 204
204 204 204
204 204 204
204 204 204
204 204 204
204 204 204
204 204 204
204 204 204
204 204 204
204 204 204
204 204 204
204 204 204
204 204 204
204 204 204
204 204 204
204 204 204
204 204 204
204 204 204
204 204 204
204 204 204
204 204 204
204 204 204
204 204 204
204 204 204
204 204 204
204 204 204
204 204 204
204 204 204
204 204 204
204 204 204
204 204 204
204 204 204
204 204 204
204 204 204
204 204 204
204 204 204
204 204 204
204 204 204
204 204 204
204 204 204
204 204 204
204 204 204
204 204 204
204 204 204
204 204 204
204 204 204
204 204 204
204 204 204
204 204 204
204 204 204
204 204 204
204 204 204
204 204 204
204 204 204
204 204 204
204 204 204
204 204 204
204 204 204
204 204 204
204 204 204
204 204 204
204 204 204
204 204 204
204 204 204
204 204 204
204 204 204
204 204 204
204 204 204
204 204 204
204 204 204
204 204 204
204 204 204
204 204 204
204 204 204
204 204 204
204 204 204
204 204 204
204 204 204
204 204 204
204 204 204
204 204 204
204 204 204
204 204 204
204 204 204
204 204 204
204 204 204
204 204 204
204 204 204
204 204 204
204 204 204
204 204 204
204 204 204
204 204 204
204 204 204
204 204 204
204 204 204
204 204 204
204 204 204
204 204 204
204 204 204
204 204 204
204 204 204
204 204 204
204 204 204
204 204 204
204 204 204
204 204 204
204 204 204
204 204 204
204 204 204
204 204 204
204 204 204
204 204 204
204 204 204
204 204 204
204 204 204
204 204 204
204 204 204
204 204 204
204 204 204
204 204 204
204 204 204
204 204 204
204 204 204
204 204 204
204 204 204
204 204 204
204 204 204
204 204 204
204 204 204
204 204 204
204 204 204
204 204 204
204 204 204
204 204 204
204 204 204
204 204 204
204 204 204
204 204 204
204 204 204
204 204 204
204 204 204
204 204 204
204 204 204
204 204 204
204 204 204
204 204 204
204 204 204
204 204 204
204 204 204
204 204 204
204 204 204
204 204 204
204 204 204
204 204 204
204 204 204
204 204 204
204 204 204
204 204 204
204 204 204
204 204 204
204 204 204
204 204 204
204 204 204
204 204 204
204 204 204
204 204 204
204 204 204
204 204 204
204 204 204
204 204 204
204 204 204
204 204 204
204 204 204
204 204 204
204 204 204
204 204 204
204 204 204
204 204 204
204 204 204
204 204 204
204 204 204
204 204 204
204 204 204
204 204 204
204 204 204
204 204 204
204 204 204
204 204 204
204 204 204
204 204 204
204 204 204
204 204 204
204 204 204
204 204 204
204 204 204
204 204 204
204 204 204
204 204 204
204 204 204
204 204 204
204 204 204
204 204 204
204 204 204
204 204 204
204 204 204
204 204 204
204 204 204
204 204 204
204 204 204
204 204 204
204 204 204
204 204 204
204 204 204
204 204 204
204 204 204
204 204 204
204 204 204
204 204 204
204 204 204
204 204 204
204 204 204
204 204 204
204 204 204
204 204 204
204 204 204
204 204 204
204 204 204
204 204 204
204 204 204
204 204 204
204 204 204
204 204 204
204 204 204
204 204 204
204 204 204
204 204 204
204 204 204
204 204 204
204 204 204
204 204 204
204 204 204
204 204 204
204 204 204
204 204 204
204 204 204
204 204 204
204 204 204
204 204 204
204 204 204
204 204 204
204 204 204
204 204 204
204 204 204
204 204 204
204 204 204
204 204 204
204 204 204
204 204 204
204 204 204
204 204 204
204 204 204
204 204 204
204 204 204
204 204 204
204 204 204
204 204 204
204 204 204
204 204 204
204 204 204
204 204 204
204 204 204
204 204 204
204 204 204
204 204 204
204 204 204
204 204 204
204 204 204
204 204 204
204 204 204
204 204 204
204 204 204
204 204 204
204 204 204
204 204 204
204 204 204
204 204 204
204 204 204
204 204 204
204 204 204
204 204 204
204 204 204
204 204 204
204 204 204
204 204 204
204 204 204
204 204 204
204 204 204
204 204 204
204 204 204
204 204 204
204 204 204
204 204 204
204 204 204
204 204 204
204 204 204
204 204 204
204 204 204
204 204 204
204 204 204
204 204 204
204 204 204
204 204 204
204 204 204
204 204 204
204 204 204
204 204 204
204 204 204
204 204 204
204 204 204
204 204 204
204 204 204
204 204 204
204 204 204
204 204 204
204 204 204
204 204 204
204 204 204
204 204 204
204 204 204
204 204 204
204 204 204
204 204 204
204 204 204
204 204 204
204 204 204
204 204 204
204 204 204
204 204 204
204 204 204
204 204 204
204 204 204
204 204 204
204 204 204
204 204 204
204 204 204
204 204 204
204 204 204
204 204 204
204 204 204
204 204 204
204 204 204
204 204 204
204 204 204
204 204 204
204 204 204
204 204 204
204 204 204
204 204 204
204 204 204
204 204 204
204 204 204
204 204 204
204 204 204
204 204 204
204 204 204
204 204 204
204 204 204
204 204 204
204 204 204
204 204 204
204 204 204
204 204 204
204 204 204
204 204 204
204 204 204
204 204 204
204 204 204
204 204 204
204 204 204
204 204 204
204 204 204
204 204 204
204 204 204
204 204 204
204 204 204
204 204 204
204 204 204
204 204 204
204 204 204
204 204 204
204 204 204
204 204 204
204 204 204
204 204 204
204 204 204
204 204 204
204 204 204
204 204 204
204 204 204
204 204 204
204 204 204
204 204 204
204 204 204
204 204 204
204 204 204
204 204 204
204 204 204
204 204 204
204 204 204
204 204 204
204 204 204
204 204 204
204 204 204
204 204 204
204 204 204
204 204 204
204 204 204
204 204 204
204 204 204
204 204 204
204 204 204
204 204 204
204 204 204
204 204 204
204 204 204
204 204 204
204 204 204
204 204 204
204 204 204
204 204 204
204 204 204
204 204 204
204 204 204
204 204 204
204 204 204
204 204 204
204 204 204
204 204 204
204 204 204
204 204 204
204 204 204
204 204 204
204 204 204
204 204 204
204 204 204
204 204 204
204 204 204
204 204 204
204 204 204
204 204 204
204 204 204
204 204 204
204 204 204
204 204 204
204 204 204
204 204 204
204 204 204
204 204 204
204 204 204
204 204 204
204 204 204
204 204 204
204 204 204
204 204 204
204 204 204
204 204 204
204 204 204
204 204 204
204 204 204
204 204 204
204 204 204
204 204 204
204 204 204
204 204 204
204 204 204
204 204 204
204 204 204
204 204 204
204 204 204
204 204 204
204 204 204
204 204 204
204 204 204
204 204 204
204 204 204
204 204 204
204 204 204
204 204 204
204 204 204
204 204 204
204 204 204
204 204 204
204 204 204
204 204 204
204 204 204
204 204 204
204 204 204
204 204 204
204 204 204
204 204 204
204 204 204
204 204 204
204 204 204
204 204 204
204 204 204
204 204 204
204 204 204
204 204 204
204 204 204
204 204 204
204 204 204
204 204 204
204 204 204
204 204 204
204 204 204
204 204 204
204 204 204
204 204 204
204 204 204
204 204 204
204 204 204
204 204 204
204 204 204
204 204 204
204 204 204
204 204 204
204 204 204
204 204 204
204 204 204
204 204 204
204 204 204
204 204 204
204 204 204
204 204 204
204 204 204
204 204 204
204 204 204
204 204 204
204 204 204
204 204 204
204 204 204
204 204 204
204 204 204
204 204 204
204 204 204
204 204 204
204 204 204
204 204 204
204 204 204
204 204 204
204 204 204
204 204 204
204 204 204
204 204 204
204 204 204
204 204 204
204 204 204
204 204 204
204 204 204
204 204 204
204 204 204
204 204 204
204 204 204
204 204 204
204 204 204
204 204 204
204 204 204
204 204 204
204 204 204
204 204 204
204 204 204
204 204 204
204 204 204
204 204 204
204 204 204
204 204 204
204 204 204
204 204 204
204 204 204
204 204 204
204 204 204
204 204 204
204 204 204
204 204 204
204 204 204
204 204 204
204 204 204
204 204 204
204 204 204
204 204 204
204 204 204
204 204 204
204 204 204
204 204 204
204 204 204
204 204 204
204 204 204
204 204 204
204 204 204
204 204 204
204 204 204
204 204 204
204 204 204
204 204 204
204 204 204
204 204 204
204 204 204
204 204 204
204 204 204
204 204 204
204 204 204
204 204 204
204 204 204
204 204 204
204 204 204
204 204 204
204 204 204
204 204 204
204 204 204
204 204 204
204 204 204
204 204 204
204 204 204
204 204 204
204 204 204
204 204 204
204 204 204
204 204 204
204 204 204
204 204 204
204 204 204
204 204 204
204 204 204
204 204 204
204 204 204
204 204 204
204 204 204
204 204 204
204 204 204
204 204 204
204 204 204
204 204 204
204 204 204
204 204 204
204 204 204
204 204 204
204 204 204
204 204 204
204 204 204
204 204 204
204 204 204
204 204 204
204 204 204
204 204 204
204 204 204
204 204 204
204 204 204
204 204 204
204 204 204
204 204 204
204 204 204
204 204 204
204 204 204
204 204 204
204 204 204
204 204 204
204 204 204
204 204 204
204 204 204
204 204 204
204 204 204
204 204 204
204 204 204
204 204 204
204 204 204
204 204 204
204 204 204
204 204 204
204 204 204
204 204 204
204 204 204
204 204 204
204 204 204
204 204 204
204 204 204
204 204 204
204 204 204
204 204 204
204 204 204
204 204 204
204 204 204
204 204 204
204 204 204
204 204 204
204 204 204
204 204 204
204 204 204
204 204 204
204 204 204
204 204 204
204 204 204
204 204 204
204 204 204
204 204 204
204 204 204
204 204 204
204 204 204
204 204 204
204 204 204
204 204 204
204 204 204
204 204 204
204 204 204
204 204 204
204 204 204
204 204 204
204 204 204
204 204 204
204 204 204
204 204 204
204 204 204
204 204 204
204 204 204
204 204 204
204 204 204
204 204 204
204 204 204
204 204 204
204 204 204
204 204 204
204 204 204
204 204 204
204 204 204
204 204 204
204 204 204
204 204 204
204 204 204
204 204 204
204 204 204
204 204 204
204 204 204
204 204 204
204 204 204
204 204 204
204 204 204
204 204 204
204 204 204
204 204 204
204 204 204
204 204 204
204 204 204
204 204 204
204 204 204
204 204 204
204 204 204
204 204 204
204 204 204
204 204 204
204 204 204
204 204 204
204 204 204
204 204 204
204 204 204
204 204 204
204 204 204
204 204 204
204 204 204
204 204 204
204 204 204
204 204 204
204 204 204
204 204 204
204 204 204
204 204 204
204 204 204
204 204 204
204 204 204
204 204 204
204 204 204
204 204 204
204 204 204
204 204 204
204 204 204
204 204 204
204 204 204
204 204 204
204 204 204
204 204 204
204 204 204
204 204 204
204 204 204
204 204 204
204 204 204
204 204 204
204 204 204
204 204 204
204 204 204
204 204 204
204 204 204
204 204 204
204 204 204
204 204 204
204 204 204
204 204 204
204 204 204
204 204 204
204 204 204
204 204 204
204 204 204
204 204 204
204 204 204
204 204 204
204 204 204
204 204 204
204 204 204
204 204 204
204 204 204
204 204 204
204 204 204
204 204 204
204 204 204
204 204 204
204 204 204
204 204 204
204 204 204
204 204 204
204 204 204
204 204 204
204 204 204
204 204 204
204 204 204
204 204 204
204 204 204
204 204 204
204 204 204
204 204 204
204 204 204
204 204 204
204 204 204
204 204 204
204 204 204
204 204 204
204 204 204
204 204 204
204 204 204
204 204 204
204 204 204
204 204 204
204 204 204
204 204 204
204 204 204
204 204 204
204 204 204
204 204 204
204 204 204
204 204 204
204 204 204
204 204 204
204 204 204
204 204 204
204 204 204
204 204 204
204 204 204
204 204 204
204 204 204
204 204 204
204 204 204
204 204 204
204 204 204
204 204 204
204 204 204
204 204 204
204 204 204
204 204 204
204 204 204
204 204 204
204 204 204
204 204 204
204 204 204
204 204 204
204 204 204
204 204 204
204 204 204
204 204 204
204 204 204
204 204 204
204 204 204
204 204 204
204 204 204
204 204 204
204 204 204
204 204 204
204 204 204
204 204 204
204 204 204
204 204 204
204 204 204
204 204 204
204 204 204
204 204 204
204 204 204
204 204 204
204 204 204
204 204 204
204 204 204
204 204 204
204 204 204
204 204 204
204 204 204
204 204 204
204 204 204
204 204 204
204 204 204
204 204 204
204 204 204
204 204 204
204 204 204
204 204 204
204 204 204
204 204 204
204 204 204
204 204 204
204 204 204
204 204 204
204 204 204
204 204 204
204 204 204
204 204 204
204 204 204
204 204 204
204 204 204
204 204 204
204 204 204
204 204 204
204 204 204
204 204 204
204 204 204
204 204 204
204 204 204
204 204 204
204 204 204
204 204 204
204 204 204
204 204 204
204 204 204
204 204 204
204 204 204
204 204 204
204 204 204
204 204 204
204 204 204
204 204 204
204 204 204
204 204 204
204 204 204
204 204 204
204 204 204
204 204 204
204 204 204
204 204 204
204 204 204
204 204 204
204 204 204
204 204 204
204 204 204
204 204 204
204 204 204
204 204 204
204 204 204
204 204 204
204 204 204
204 204 204
204 204 204
204 204 204
204 204 204
204 204 204
204 204 204
204 204 204
204 204 204
204 204 204
204 204 204
204 204 204
204 204 204
204 204 204
204 204 204
204 204 204
204 204 204
204 204 204
204 204 204
204 204 204
204 204 204
204 204 204
204 204 204
204 204 204
204 204 204
204 204 204
204 204 204
204 204 204
204 204 204
204 204 204
204 204 204
204 204 204
204 204 204
204 204 204
204 204 204
204 204 204
204 204 204
204 204 204
204 204 204
204 204 204
204 204 204
204 204 204
204 204 204
204 204 204
204 204 204
204 204 204
204 204 204
204 204 204
204 204 204
204 204 204
204 204 204
204 204 204
204 204 204
204 204 204
204 204 204
204 204 204
204 204 204
204 204 204
204 204 204
204 204 204
204 204 204
204 204 204
204 204 204
204 204 204
204 204 204
204 204 204
204 204 204
204 204 204
204 204 204
204 204 204
204 204 204
204 204 204
204 204 204
204 204 204
204 204 204
204 204 204
204 204 204
204 204 204
204 204 204
204 204 204
204 204 204
204 204 204
204 204 204
204 204 204
204 204 204
204 204 204
204 204 204
204 204 204
204 204 204
204 204 204
204 204 204
204 204 204
204 204 204
204 204 204
204 204 204
204 204 204
204 204 204
204 204 204
204 204 204
204 204 204
204 204 204
204 204 204
204 204 204
204 204 204
204 204 204
204 204 204
204 204 204
204 204 204
204 204 204
204 204 204
204 204 204
204 204 204
204 204 204
204 204 204
204 204 204
204 204 204
204 204 204
204 204 204
204 204 204
204 204 204
204 204 204
204 204 204
204 204 204
204 204 204
204 204 204
204 204 204
204 204 204
204 204 204
204 204 204
204 204 204
204 204 204
204 204 204
204 204 204
204 204 204
204 204 204
204 204 204
204 204 204
204 204 204
204 204 204
204 204 204
204 204 204
204 204 204
204 204 204
204 204 204
204 204 204
204 204 204
204 204 204
204 204 204
204 204 204
204 204 204
204 204 204
204 204 204
204 204 204
204 204 204
204 204 204
204 204 204
204 204 204
204 204 204
204 204 204
204 204 204
204 204 204
204 204 204
204 204 204
204 204 204
204 204 204
204 204 204
204 204 204
204 204 204
204 204 204
204 204 204
204 204 204
204 204 204
204 204 204
204 204 204
204 204 204
204 204 204
204 204 204
204 204 204
204 204 204
204 204 204
204 204 204
204 204 204
204 204 204
204 204 204
204 204 204
204 204 204
204 204 204
204 204 204
204 204 204
204 204 204
204 204 204
204 204 204
204 204 204
204 204 204
204 204 204
204 204 204
204 204 204
204 204 204
204 204 204
204 204 204
204 204 204
204 204 204
204 204 204
204 204 204
204 204 204
204 204 204
204 204 204
204 204 204
204 204 204
204 204 204
204 204 204
204 204 204
204 204 204
204 204 204
204 204 204
204 204 204
204 204 204
204 204 204
204 204 204
204 204 204
204 204 204
204 204 204
204 204 204
204 204 204
204 204 204
204 204 204
204 204 204
204 204 204
204 204 204
204 204 204
204 204 204
204 204 204
204 204 204
204 204 204
204 204 204
204 204 204
204 204 204
204 204 204
204 204 204
204 204 204
204 204 204
204 204 204
204 204 204
204 204 204
204 204 204
204 204 204
204 204 204
204 204 204
204 204 204
204 204 204
204 204 204
204 204 204
204 204 204
204 204 204
204 204 204
204 204 204
204 204 204
204 204 204
204 204 204
204 204 204
204 204 204
204 204 204
204 204 204
204 204 204
204 204 204
204 204 204
204 204 204
204 204 204
204 204 204
204 204 204
204 204 204
204 204 204
204 204 204
204 204 204
204 204 204
204 204 204
204 204 204
204 204 204
204 204 204
204 204 204
204 204 204
204 204 204
204 204 204
204 204 204
204 204 204
204 204 204
204 204 204
204 204 204
204 204 204
204 204 204
204 204 204
204 204 204
204 204 204
204 204 204
204 204 204
204 204 204
204 204 204
204 204 204
204 204 204
204 204 204
204 204 204
204 204 204
204 204 204
204 204 204
204 204 204
204 204 204
204 204 204
204 204 204
204 204 204
204 204 204
204 204 204
204 204 204
204 204 204
204 204 204
204 204 204
204 204 204
204 204 204
204 204 204
204 204 204
204 204 204
204 204 204
204 204 204
204 204 204
204 204 204
204 204 204
204 204 204
204 204 204
204 204 204
204 204 204
204 204 204
204 204 204
204 204 204
204 204 204
204 204 204
204 204 204
204 204 204
204 204 204
204 204 204
204 204 204
204 204 204
204 204 204
204 204 204
204 204 204
204 204 204
204 204 204
204 204 204
204 204 204
204 204 204
204 204 204
204 204 204
204 204 204
204 204 204
204 204 204
204 204 204
204 204 204
204 204 204
204 204 204
204 204 204
204 204 204
204 204 204
204 204 204
204 204 204
204 204 204
204 204 204
204 204 204
204 204 204
204 204 204
204 204 204
204 204 204
204 204 204
204 204 204
204 204 204
204 204 204
204 204 204
204 204 204
204 204 204
204 204 204
204 204 204
204 204 204
204 204 204
204 204 204
204 204 204
204 204 204
204 204 204
204 204 204
204 204 204
204 204 204
204 204 204
204 204 204
204 204 204
204 204 204
204 204 204
204 204 204
204 204 204
204 204 204
204 204 204
204 204 204
204 204 204
204 204 204
204 204 204
204 204 204
204 204 204
204 204 204
204 204 204
204 204 204
204 204 204
204 204 204
204 204 204
204 204 204
204 204 204
204 204 204
204 204 204
204 204 204
204 204 204
204 204 204
204 204 204
204 204 204
204 204 204
204 204 204
204 204 204
204 204 204
204 204 204
204 204 204
204 204 204
204 204 204
204 204 204
204 204 204
204 204 204
204 204 204
204 204 204
204 204 204
204 204 204
204 204 204
204 204 204
204 204 204
204 204 204
204 204 204
204 204 204
204 204 204
204 204 204
204 204 204
204 204 204
204 204 204
204 204 204
204 204 204
204 204 204
204 204 204
204 204 204
204 204 204
204 204 204
204 204 204
204 204 204
204 204 204
204 204 204
204 204 204
204 204 204
204 204 204
204 204 204
204 204 204
204 204 204
204 204 204
204 204 204
204 204 204
204 204 204
204 204 204
204 204 204
204 204 204
204 204 204
204 204 204
204 204 204
204 204 204
204 204 204
204 204 204
204 204 204
204 204 204
204 204 204
204 204 204
204 204 204
204 204 204
204 204 204
204 204 204
204 204 204
204 204 204
204 204 204
204 204 204
204 204 204
204 204 204
204 204 204
204 204 204
204 204 204
204 204 204
204 204 204
204 204 204
204 204 204
204 204 204
204 204 204
204 204 204
204 204 204
204 204 204
204 204 204
204 204 204
204 204 204
204 204 204
204 204 204
204 204 204
204 204 204
204 204 204
204 204 204
204 204 204
204 204 204
204 204 204
204 204 204
204 204 204
204 204 204
204 204 204
204 204 204
204 204 204
204 204 204
204 204 204
204 204 204
204 204 204
204 204 204
204 204 204
204 204 204
204 204 204
204 204 204
204 204 204
204 204 204
204 204 204
204 204 204
204 204 204
204 204 204
204 204 204
204 204 204
204 204 204
204 204 204
204 204 204
204 204 204
204 204 204
204 204 204
204 204 204
204 204 204
204 204 204
204 204 204
204 204 204
204 204 204
204 204 204
204 204 204
204 204 204
204 204 204
204 204 204
204 204 204
204 204 204
204 204 204
204 204 204
204 204 204
204 204 204
204 204 204
204 204 204
204 204 204
204 204 204
204 204 204
204 204 204
204 204 204
204 204 204
204 204 204
204 204 204
204 204 204
204 204 204
204 204 204
204 204 204
204 204 204
204 204 204
204 204 204
204 204 204
204 204 204
204 204 204
204 204 204
204 204 204
204 204 204
204 204 204
204 204 204
204 204 204
204 204 204
204 204 204
204 204 204
204 204 204
204 204 204
204 204 204
204 204 204
204 204 204
204 204 204
204 204 204
204 204 204
204 204 204
204 204 204
204 204 204
204 204 204
204 204 204
204 204 204
204 204 204
204 204 204
204 204 204
204 204 204
204 204 204
204 204 204
204 204 204
204 204 204
204 204 204
204 204 204
204 204 204
204 204 204
204 204 204
204 204 204
204 204 204
204 204 204
204 204 204
204 204 204
204 204 204
204 204 204
204 204 204
204 204 204
204 204 204
204 204 204
204 204 204
204 204 204
204 204 204
204 204 204
204 204 204
204 204 204
204 204 204
204 204 204
204 204 204
204 204 204
204 204 204
204 204 204
204 204 204
204 204 204
204 204 204
204 204 204
204 204 204
204 204 204
204 204 204
204 204 204
204 204 204
204 204 204
204 204 204
204 204 204
204 204 204
204 204 204
204 204 204
204 204 204
204 204 204
204 204 204
204 204 204
204 204 204
204 204 204
204 204 204
204 204 204
204 204 204
204 204 204
204 204 204
204 204 204
204 204 204
204 204 204
204 204 204
204 204 204
204 204 204
204 204 204
204 204 204
204 204 204
204 204 204
204 204 204
204 204 204
204 204 204
204 204 204
204 204 204
204 204 204
204 204 204
204 204 204
204 204 204
204 204 204
204 204 204
204 204 204
204 204 204
204 204 204
204 204 204
204 204 204
204 204 204
204 204 204
204 204 204
204 204 204
204 204 204
204 204 204
204 204 204
204 204 204
204 204 204
204 204 204
204 204 204
204 204 204
204 204 204
204 204 204
204 204 204
204 204 204
204 204 204
204 204 204
204 204 204
204 204 204
204 204 204
204 204 204
204 204 204
204 204 204
204 204 204
204 204 204
204 204 204
204 204 204
204 204 204
204 204 204
204 204 204
204 204 204
204 204 204
204 204 204
204 204 204
204 204 204
204 204 204
204 204 204
204 204 204
204 204 204
204 204 204
204 204 204
204 204 204
204 204 204
204 204 204
204 204 204
204 204 204
204 204 204
204 204 204
204 204 204
204 204 204
204 204 204
204 204 204
204 204 204
204 204 204
204 204 204
204 204 204
204 204 204
204 204 204
204 204 204
204 204 204
204 204 204
204 204 204
204 204 204
204 204 204
204 204 204
204 204 204
204 204 204
204 204 204
204 204 204
204 204 204
204 204 204
204 204 204
204 204 204
204 204 204
204 204 204
204 204 204
204 204 204
204 204 204
204 204 204
204 204 204
204 204 204
204 204 204
204 204 204
204 204 204
204 204 204
204 204 204
204 204 204
204 204 204
204 204 204
204 204 204
204 204 204
204 204 204
204 204 204
204 204 204
204 204 204
204 204 204
204 204 204
204 204 204
204 204 204
204 204 204
204 204 204
204 204 204
204 204 204
204 204 204
204 204 204
204 204 204
204 204 204
204 204 204
204 204 204
204 204 204
204 204 204
204 204 204
204 204 204
204 204 204
204 204 204
204 204 204
204 204 204
204 204 204
204 204 204
204 204 204
204 204 204
204 204 204
204 204 204
204 204 204
204 204 204
204 204 204
204 204 204
204 204 204
204 204 204
204 204 204
204 204 204
204 204 204
204 204 204
204 204 204
204 204 204
204 204 204
204 204 204
204 204 204
204 204 204
204 204 204
204 204 204
204 204 204
204 204 204
204 204 204
204 204 204
204 204 204
204 204 204
204 204 204
204 204 204
204 204 204
204 204 204
204 204 204
204 204 204
204 204 204
204 204 204
204 204 204
204 204 204
204 204 204
204 204 204
204 204 204
204 204 204
204 204 204
204 204 204
204 204 204
204 204 204
204 204 204
204 204 204
204 204 204
204 204 204
204 204 204
204 204 204
204 204 204
204 204 204
204 204 204
204 204 204
204 204 204
204 204 204
204 204 204
204 204 204
204 204 204
204 204 204
204 204 204
204 204 204
204 204 204
204 204 204
204 204 204
204 204 204
204 204 204
204 204 204
204 204 204
204 204 204
204 204 204
204 204 204
204 204 204
204 204 204
204 204 204
204 204 204
204 204 204
204 204 204
204 204 204
204 204 204
204 204 204
204 204 204
204 204 204
204 204 204
204 204 204
204 204 204
204 204 204
204 204 204
204 204 204
204 204 204
204 204 204
204 204 204
204 204 204
204 204 204
204 204 204
204 204 204
204 204 204
204 204 204
204 204 204
204 204 204
204 204 204
204 204 204
204 204 204
204 204 204
204 204 204
204 204 204
204 204 204
204 204 204
204 204 204
204 204 204
204 204 204
204 204 204
204 204 204
204 204 204
204 204 204
204 204 204
204 204 204
204 204 204
204 204 204
204 204 204
204 204 204
204 204 204
204 204 204
204 204 204
204 204 204
204 204 204
204 204 204
204 204 204
204 204 204
204 204 204
204 204 204
204 204 204
204 204 204
204 204 204
204 204 204
204 204 204
204 204 204
204 204 204
204 204 204
204 204 204
204 204 204
204 204 204
204 204 204
204 204 204
204 204 204
204 204 204
204 204 204
204 204 204
204 204 204
204 204 204
204 204 204
204 204 204
204 204 204
204 204 204
204 204 204
204 204 204
204 204 204
204 204 204
204 204 204
204 204 204
204 204 204
204 204 204
204 204 204
204 204 204
204 204 204
204 204 204
204 204 204
204 204 204
204 204 204
204 204 204
204 204 204
204 204 204
204 204 204
204 204 204
204 204 204
204 204 204
204 204 204
204 204 204
204 204 204
204 204 204
204 204 204
204 204 204
204 204 204
204 204 204
204 204 204
204 204 204
204 204 204
204 204 204
204 204 204
204 204 204
204 204 204
204 204 204
204 204 204
204 204 204
204 204 204
204 204 204
204 204 204
204 204 204
204 204 204
204 204 204
204 204 204
204 204 204
204 204 204
204 204 204
204 204 204
204 204 204
204 204 204
204 204 204
204 204 204
204 204 204
204 204 204
204 204 204
204 204 204
204 204 204
204 204 204
204 204 204
204 204 204
204 204 204
204 204 204
204 204 204
204 204 204
204 204 204
204 204 204
204 204 204
204 204 204
204 204 204
204 204 204
204 204 204
204 204 204
204 204 204
204 204 204
204 204 204
204 204 204
204 204 204
204 204 204
204 204 204
204 204 204
204 204 204
204 204 204
204 204 204
204 204 204
204 204 204
204 204 204
204 204 204
204 204 204
204 204 204
204 204 204
204 204 204
204 204 204
204 204 204
204 204 204
204 204 204
204 204 204
204 204 204
204 204 204
204 204 204
204 204 204
204 204 204
204 204 204
204 204 204
204 204 204
204 204 204
204 204 204
204 204 204
204 204 204
204 204 204
204 204 204
204 204 204
204 204 204
204 204 204
204 204 204
204 204 204
204 204 204
204 204 204
204 204 204
204 204 204
204 204 204
204 204 204
204 204 204
204 204 204
204 204 204
204 204 204
204 204 204
204 204 204
204 204 204
204 204 204
204 204 204
204 204 204
204 204 204
204 204 204
204 204 204
204 204 204
204 204 204
204 204 204
204 204 204
204 204 204
204 204 204
204 204 204
204 204 204
204 204 204
204 204 204
204 204 204
204 204 204
204 204 204
204 204 204
204 204 204
204 204 204
204 204 204
204 204 204
204 204 204
204 204 204
204 204 204
204 204 204
204 204 204
204 204 204
204 204 204
204 204 204
204 204 204
204 204 204
204 204 204
204 204 204
204 204 204
204 204 204
204 204 204
204 204 204
204 204 204
204 204 204
204 204 204
204 204 204
204 204 204
204 204 204
204 204 204
204 204 204
204 204 204
204 204 204
204 204 204
204 204 204
204 204 204
204 204 204
204 204 204
204 204 204
204 204 204
204 204 204
204 204 204
204 204 204
204 204 204
204 204 204
204 204 204
204 204 204
204 204 204
204 204 204
204 204 204
204 204 204
204 204 204
204 204 204
204 204 204
204 204 204
204 204 204
204 204 204
204 204 204
204 204 204
204 204 204
204 204 204
204 204 204
204 204 204
204 204 204
204 204 204
204 204 204
204 204 204
204 204 204
204 204 204
204 204 204
204 204 204
204 204 204
204 204 204
204 204 204
204 204 204
204 204 204
204 204 204
204 204 204
204 204 204
204 204 204
204 204 204
204 204 204
204 204 204
204 204 204
204 204 204
204 204 204
204 204 204
204 204 204
204 204 204
204 204 204
204 204 204
204 204 204
204 204 204
204 204 204
204 204 204
204 204 204
204 204 204
204 204 204
204 204 204
204 204 204
204 204 204
204 204 204
204 204 204
204 204 204
204 204 204
204 204 204
204 204 204
204 204 204
204 204 204
204 204 204
204 204 204
204 204 204
204 204 204
204 204 204
204 204 204
204 204 204
204 204 204
204 204 204
204 204 204
204 204 204
204 204 204
204 204 204
204 204 204
204 204 204
204 204 204
204 204 204
204 204 204
204 204 204
204 204 204
204 204 204
204 204 204
204 204 204
204 204 204
204 204 204
204 204 204
204 204 204
204 204 204
204 204 204
204 204 204
204 204 204
204 204 204
204 204 204
204 204 204
204 204 204
204 204 204
204 204 204
204 204 204
204 204 204
204 204 204
204 204 204
204 204 204
204 204 204
204 204 204
204 204 204
204 204 204
204 204 204
204 204 204
204 204 204
204 204 204
204 204 204
204 204 204
204 204 204
204 204 204
204 204 204
204 204 204
204 204 204
204 204 204
204 204 204
204 204 204
204 204 204
204 204 204
204 204 204
204 204 204
204 204 204
204 204 204
204 204 204
204 204 204
204 204 204
204 204 204
204 204 204
204 204 204
204 204 204
204 204 204
204 204 204
204 204 204
204 204 204
204 204 204
204 204 204
204 204 204
204 204 204
204 204 204
204 204 204
204 204 204
204 204 204
204 204 204
204 204 204
204 204 204
204 204 204
204 204 204
204 204 204
204 204 204
204 204 204
204 204 204
204 204 204
204 204 204
204 204 204
204 204 204
204 204 204
204 204 204
204 204 204
204 204 204
204 204 204
204 204 204
204 204 204
204 204 204
204 204 204
204 204 204
204 204 204
204 204 204
204 204 204
204 204 204
204 204 204
204 204 204
204 204 204
204 204 204
204 204 204
204 204 204
204 204 204
204 204 204
204 204 204
204 204 204
204 204 204
204 204 204
204 204 204
204 204 204
204 204 204
204 204 204
204 204 204
204 204 204
204 204 204
204 204 204
204 204 204
204 204 204
204 204 204
204 204 204
204 204 204
204 204 204
204 204 204
204 204 204
204 204 204
204 204 204
204 204 204
204 204 204
204 204 204
204 204 204
204 204 204
204 204 204
204 204 204
204 204 204
204 204 204
204 204 204
204 204 204
204 204 204
204 204 204
204 204 204
204 204 204
204 204 204
204 204 204
204 204 204
204 204 204
204 204 204
204 204 204
204 204 204
204 204 204
204 204 204
204 204 204
204 204 204
204 204 204
204 204 204
204 204 204
204 204 204
204 204 204
204 204 204
204 204 204
204 204 204
204 204 204
204 204 204
204 204 204
204 204 204
204 204 204
204 204 204
204 204 204
204 204 204
204 204 204
204 204 204
204 204 204
204 204 204
204 204 204
204 204 204
204 204 204
204 204 204
204 204 204
204 204 204
204 204 204
204 204 204
204 204 204
204 204 204
204 204 204
204 204 204
204 204 204
204 204 204
204 204 204
204 204 204
204 204 204
204 204 204
204 204 204
204 204 204
204 204 204
204 204 204
204 204 204
204 204 204
204 204 204
204 204 204
204 204 204
204 204 204
204 204 204
204 204 204
204 204 204
204 204 204
204 204 204
204 204 204
204 204 204
204 204 204
204 204 204
204 204 204
204 204 204
204 204 204
204 204 204
204 204 204
204 204 204
204 204 204
204 204 204
204 204 204
204 204 204
204 204 204
204 204 204
204 204 204
204 204 204
204 204 204
204 204 204
204 204 204
204 204 204
204 204 204
204 204 204
204 204 204
204 204 204
204 204 204
204 204 204
204 204 204
204 204 204
204 204 204
204 204 204
204 204 204
204 204 204
204 204 204
204 204 204
204 204 204
204 204 204
204 204 204
204 204 204
204 204 204
204 204 204
204 204 204
204 204 204
204 204 204
204 204 204
204 204 204
204 204 204
204 204 204
204 204 204
204 204 204
204 204 204
204 204 204
204 204 204
204 204 204
204 204 204
204 204 204
204 204 204
204 204 204
204 204 204
204 204 204
204 204 204
204 204 204
204 204 204
204 204 204
204 204 204
204 204 204
204 204 204
204 204 204
204 204 204
204 204 204
204 204 204
204 204 204
204 204 204
204 204 204
204 204 204
204 204 204
204 204 204
204 204 204
204 204 204
204 204 204
204 204 204
204 204 204
204 204 204
204 204 204
204 204 204
204 204 204
204 204 204
204 204 204
204 204 204
204 204 204
204 204 204
204 204 204
204 204 204
204 204 204
204 204 204
204 204 204
204 204 204
204 204 204
204 204 204
204 204 204
204 204 204
204 204 204
204 204 204
204 204 204
204 204 204
204 204 204
204 204 204
204 204 204
204 204 204
204 204 204
204 204 204
204 204 204
204 204 204
204 204 204
204 204 204
204 204 204
204 204 204
204 204 204
204 204 204
204 204 204
204 204 204
204 204 204
204 204 204
204 204 204
204 204 204
204 204 204
204 204 204
204 204 204
204 204 204
204 204 204
204 204 204
204 204 204
204 204 204
204 204 204
204 204 204
204 204 204
204 204 204
204 204 204
204 204 204
204 204 204
204 204 204
204 204 204
204 204 204
204 204 204
204 204 204
204 204 204
204 204 204
204 204 204
204 204 204
204 204 204
204 204 204
204 204 204
204 204 204
204 204 204
204 204 204
204 204 204
204 204 204
204 204 204
204 204 204
204 204 204
204 204 204
204 204 204
204 204 204
204 204 204
204 204 204
204 204 204
204 204 204
204 204 204
204 204 204
204 204 204
204 204 204
204 204 204
204 204 204
204 204 204
204 204 204
204 204 204
204 204 204
204 204 204
204 204 204
204 204 204
204 204 204
204 204 204
204 204 204
204 204 204
204 204 204
204 204 204
204 204 204
204 204 204
204 204 204
204 204 204
204 204 204
204 204 204
204 204 204
204 204 204
204 204 204
204 204 204
204 204 204
204 204 204
204 204 204
204 204 204
204 204 204
204 204 204
204 204 204
204 204 204
204 204 204
204 204 204
204 204 204
204 204 204
204 204 204
204 204 204
204 204 204
204 204 204
204 204 204
204 204 204
204 204 204
204 204 204
204 204 204
204 204 204
204 204 204
204 204 204
204 204 204
204 204 204
204 204 204
204 204 204
204 204 204
204 204 204
204 204 204
204 204 204
204 204 204
204 204 204
204 204 204
204 204 204
204 204 204
204 204 204
204 204 204
204 204 204
204 204 204
204 204 204
204 204 204
204 204 204
204 204 204
204 204 204
204 204 204
204 204 204
204 204 204
204 204 204
204 204 204
204 204 204
204 204 204
204 204 204
204 204 204
204 204 204
204 204 204
204 204 204
204 204 204
204 204 204
204 204 204
204 204 204
204 204 204
204 204 204
204 204 204
204 204 204
204 204 204
204 204 204
204 204 204
204 204 204
204 204 204
204 204 204
204 204 204
204 204 204
204 204 204
204 204 204
204 204 204
204 204 204
204 204 204
204 204 204
204 204 204
204 204 204
204 204 204
204 204 204
204 204 204
204 204 204
204 204 204
204 204 204
204 204 204
204 204 204
204 204 204
204 204 204
204 204 204
204 204 204
204 204 204
204 204 204
204 204 204
204 204 204
204 204 204
204 204 204
204 204 204
204 204 204
204 204 204
204 204 204
204 204 204
204 204 204
204 204 204
204 204 204
204 204 204
204 204 204
204 204 204
204 204 204
204 204 204
204 204 204
204 204 204
204 204 204
204 204 204
204 204 204
204 204 204
204 204 204
204 204 204
204 204 204
204 204 204
204 204 204
204 204 204
204 204 204
204 204 204
204 204 204
204 204 204
204 204 204
204 204 204
204 204 204
204 204 204
204 204 204
204 204 204
204 204 204
204 204 204
204 204 204
204 204 204
204 204 204
204 204 204
204 204 204
204 204 204
204 204 204
204 204 204
204 204 204
204 204 204
204 204 204
204 204 204
204 204 204
204 204 204
204 204 204
204 204 204
204 204 204
204 204 204
204 204 204
204 204 204
204 204 204
204 204 204
204 204 204
204 204 204
204 204 204
204 204 204
204 204 204
204 204 204
204 204 204
204 204 204
204 204 204
204 204 204
204 204 204
204 204 204
204 204 204
204 204 204
204 204 204
204 204 204
204 204 204
204 204 204
204 204 204
204 204 204
204 204 204
204 204 204
204 204 204
204 204 204
204 204 204
204 204 204
204 204 204
204 204 204
204 204 204
204 204 204
204 204 204
204 204 204
204 204 204
204 204 204
204 204 204
204 204 204
204 204 204
204 204 204
204 204 204
204 204 204
204 204 204
204 204 204
204 204 204
204 204 204
204 204 204
204 204 204
204 204 204
204 204 204
204 204 204
204 204 204
204 204 204
204 204 204
204 204 204
204 204 204
204 204 204
204 204 204
204 204 204
204 204 204
204 204 204
204 204 204
204 204 204
204 204 204
204 204 204
204 204 204
204 204 204
204 204 204
204 204 204
204 204 204
204 204 204
204 204 204
204 204 204
204 204 204
204 204 204
204 204 204
204 204 204
204 204 204
204 204 204
204 204 204
204 204 204
204 204 204
204 204 204
204 204 204
204 204 204
204 204 204
204 204 204
204 204 204
204 204 204
204 204 204
204 204 204
204 204 204
204 204 204
204 204 204
204 204 204
204 204 204
204 204 204
204 204 204
204 204 204
204 204 204
204 204 204
204 204 204
204 204 204
204 204 204
204 204 204
204 204 204
204 204 204
204 204 204
204 204 204
204 204 204
204 204 204
204 204 204
204 204 204
204 204 204
204 204 204
204 204 204
204 204 204
204 204 204
204 204 204
204 204 204
204 204 204
204 204 204
204 204 204
204 204 204
204 204 204
204 204 204
204 204 204
204 204 204
204 204 204
204 204 204
204 204 204
204 204 204
204 204 204
204 204 204
204 204 204
204 204 204
204 204 204
204 204 204
204 204 204
204 204 204
204 204 204
204 204 204
204 204 204
204 204 204
204 204 204
204 204 204
204 204 204
204 204 204
204 204 204
204 204 204
204 204 204
204 204 204
204 204 204
204 204 204
204 204 204
204 204 204
204 204 204
204 204 204
204 204 204
204 204 204
204 204 204
204 204 204
204 204 204
204 204 204
204 204 204
204 204 204
204 204 204
204 204 204
204 204 204
204 204 204
204 204 204
204 204 204
204 204 204
204 204 204
204 204 204
204 204 204
204 204 204
204 204 204
204 204 204
204 204 204
204 204 204
204 204 204
204 204 204
204 204 204
204 204 204
204 204 204
204 204 204
204 204 204
204 204 204
204 204 204
204 204 204
204 204 204
204 204 204
204 204 204
204 204 204
204 204 204
204 204 204
204 204 204
204 204 204
204 204 204
204 204 204
204 204 204
204 204 204
204 204 204
204 204 204
204 204 204
204 204 204
204 204 204
204 204 204
204 204 204
204 204 204
204 204 204
204 204 204
204 204 204
204 204 204
204 204 204
204 204 204
204 204 204
204 204 204
204 204 204
204 204 204
204 204 204
204 204 204
204 204 204
204 204 204
204 204 204
204 204 204
204 204 204
204 204 204
204 204 204
204 204 204
204 204 204
204 204 204
204 204 204
204 204 204
204 204 204
204 204 204
204 204 204
204 204 204
204 204 204
204 204 204
204 204 204
204 204 204
204 204 204
204 204 204
204 204 204
204 204 204
204 204 204
204 204 204
204 204 204
204 204 204
204 204 204
204 204 204
204 204 204
204 204 204
204 204 204
204 204 204
204 204 204
204 204 204
204 204 204
204 204 204
204 204 204
204 204 204
204 204 204
204 204 204
204 204 204
204 204 204
204 204 204
204 204 204
204 204 204
204 204 204
204 204 204
204 204 204
204 204 204
204 204 204
204 204 204
204 204 204
204 204 204
204 204 204
204 204 204
204 204 204
204 204 204
204 204 204
204 204 204
204 204 204
204 204 204
204 204 204
204 204 204
204 204 204
204 204 204
204 204 204
204 204 204
204 204 204
204 204 204
204 204 204
204 204 204
204 204 204
204 204 204
204 204 204
204 204 204
204 204 204
204 204 204
204 204 204
204 204 204
204 204 204
204 204 204
204 204 204
204 204 204
204 204 204
204 204 204
204 204 204
204 204 204
204 204 204
204 204 204
204 204 204
204 204 204
204 204 204
204 204 204
204 204 204
204 204 204
204 204 204
204 204 204
204 204 204
204 204 204
204 204 204
204 204 204
204 204 204
204 204 204
204 204 204
204 204 204
204 204 204
204 204 204
204 204 204
204 204 204
204 204 204
204 204 204
204 204 204
204 204 204
204 204 204
204 204 204
204 204 204
204 204 204
204 204 204
204 204 204
204 204 204
204 204 204
204 204 204
204 204 204
204 204 204
204 204 204
204 204 204
204 204 204
204 204 204
204 204 204
204 204 204
204 204 204
204 204 204
204 204 204
204 204 204
204 204 204
204 204 204
204 204 204
204 204 204
204 204 204
204 204 204
204 204 204
204 204 204
204 204 204
204 204 204
204 204 204
204 204 204
204 204 204
204 204 204
204 204 204
204 204 204
204 204 204
204 204 204
204 204 204
204 204 204
204 204 204
204 204 204
204 204 204
204 204 204
204 204 204
204 204 204
204 204 204
204 204 204
204 204 204
204 204 204
204 204 204
204 204 204
204 204 204
204 204 204
204 204 204
204 204 204
204 204 204
204 204 204
204 204 204
204 204 204
204 204 204
204 204 204
204 204 204
204 204 204
204 204 204
204 204 204
204 204 204
204 204 204
204 204 204
204 204 204
204 204 204
204 204 204
204 204 204
204 204 204
204 204 204
204 204 204
204 204 204
204 204 204
204 204 204
204 204 204
204 204 204
204 204 204
204 204 204
204 204 204
204 204 204
204 204 204
204 204 204
204 204 204
204 204 204
204 204 204
204 204 204
204 204 204
204 204 204
204 204 204
204 204 204
204 204 204
204 204 204
204 204 204
204 204 204
204 204 204
204 204 204
204 204 204
204 204 204
204 204 204
204 204 204
204 204 204
204 204 204
204 204 204
204 204 204
204 204 204
204 204 204
204 204 204
204 204 204
204 204 204
204 204 204
204 204 204
204 204 204
204 204 204
204 204 204
204 204 204
204 204 204
204 204 204
204 204 204
204 204 204
204 204 204
204 204 204
204 204 204
204 204 204
204 204 204
204 204 204
204 204 204
204 204 204
204 204 204
204 204 204
204 204 204
204 204 204
204 204 204
204 204 204
204 204 204
204 204 204
204 204 204
204 204 204
204 204 204
204 204 204
204 204 204
204 204 204
204 204 204
204 204 204
204 204 204
204 204 204
204 204 204
204 204 204
204 204 204
204 204 204
204 204 204
204 204 204
204 204 204
204 204 204
204 204 204
204 204 204
204 204 204
204 204 204
204 204 204
204 204 204
204 204 204
204 204 204
204 204 204
204 204 204
204 204 204
204 204 204
204 204 204
204 204 204
204 204 204
204 204 204
204 204 204
204 204 204
204 204 204
204 204 204
204 204 204
204 204 204
204 204 204
204 204 204
204 204 204
204 204 204
204 204 204
204 204 204
204 204 204
204 204 204
204 204 204
204 204 204
204 204 204
204 204 204
204 204 204
204 204 204
204 204 204
204 204 204
204 204 204
204 204 204
204 204 204
204 204 204
204 204 204
204 204 204
204 204 204
204 204 204
204 204 204
204 204 204
204 204 204
204 204 204
204 204 204
204 204 204
204 204 204
204 204 204
204 204 204
204 204 204
204 204 204
204 204 204
204 204 204
204 204 204
204 204 204
204 204 204
204 204 204
204 204 204
204 204 204
204 204 204
204 204 204
204 204 204
204 204 204
204 204 204
204 204 204
204 204 204
204 204 204
204 204 204
204 204 204
204 204 204
204 204 204
204 204 204
204 204 204
204 204 204
204 204 204
204 204 204
204 204 204
204 204 204
204 204 204
204 204 204
204 204 204
204 204 204
204 204 204
204 204 204
204 204 204
204 204 204
204 204 204
204 204 204
204 204 204
204 204 204
204 204 204
204 204 204
204 204 204
204 204 204
204 204 204
204 204 204
204 204 204
204 204 204
204 204 204
204 204 204
204 204 204
204 204 204
204 204 204
204 204 204
204 204 204
204 204 204
204 204 204
204 204 204
204 204 204
204 204 204
204 204 204
204 204 204
204 204 204
204 204 204
204 204 204
204 204 204
204 204 204
204 204 204
204 204 204
204 204 204
204 204 204
204 204 204
204 204 204
204 204 204
204 204 204
204 204 204
204 204 204
204 204 204
204 204 204
204 204 204
204 204 204
204 204 204
204 204 204
204 204 204
204 204 204
204 204 204
204 204 204
204 204 204
204 204 204
204 204 204
204 204 204
204 204 204
204 204 204
204 204 204
204 204 204
204 204 204
204 204 204
204 204 204
204 204 204
204 204 204
204 204 204
204 204 204
204 204 204
204 204 204
204 204 204
204 204 204
204 204 204
204 204 204
204 204 204
204 204 204
204 204 204
204 204 204
204 204 204
204 204 204
204 204 204
204 204 204
204 204 204
204 204 204
204 204 204
204 204 204
204 204 204
204 204 204
204 204 204
204 204 204
204 204 204
204 204 204
204 204 204
204 204 204
204 204 204
204 204 204
204 204 204
204 204 204
204 204 204
204 204 204
204 204 204
204 204 204
204 204 204
204 204 204
204 204 204
204 204 204
204 204 204
204 204 204
204 204 204
204 204 204
204 204 204
204 204 204
204 204 204
204 204 204
204 204 204
204 204 204
204 204 204
204 204 204
204 204 204
204 204 204
204 204 204
204 204 204
204 204 204
204 204 204
204 204 204
204 204 204
204 204 204
204 204 204
204 204 204
204 204 204
204 204 204
204 204 204
204 204 204
204 204 204
204 204 204
204 204 204
204 204 204
204 204 204
204 204 204
204 204 204
204 204 204
204 204 204
204 204 204
204 204 204
204 204 204
204 204 204
204 204 204
204 204 204
204 204 204
204 204 204
204 204 204
204 204 204
204 204 204
204 204 204
204 204 204
204 204 204
204 204 204
204 204 204
204 204 204
204 204 204
204 204 204
204 204 204
204 204 204
204 204 204
204 204 204
204 204 204
204 204 204
204 204 204
204 204 204
204 204 204
204 204 204
204 204 204
204 204 204
204 204 204
204 204 204
204 204 204
204 204 204
204 204 204
204 204 204
204 204 204
204 204 204
204 204 204
204 204 204
204 204 204
204 204 204
204 204 204
204 204 204
204 204 204
204 204 204
204 204 204
204 204 204
204 204 204
204 204 204
204 204 204
204 204 204
204 204 204
204 204 204
204 204 204
204 204 204
204 204 204
204 204 204
204 204 204
204 204 204
204 204 204
204 204 204
204 204 204
204 204 204
204 204 204
204 204 204
204 204 204
204 204 204
204 204 204
204 204 204
204 204 204
204 204 204
204 204 204
204 204 204
204 204 204
204 204 204
204 204 204
204 204 204
204 204 204
204 204 204
204 204 204
204 204 204
204 204 204
204 204 204
204 204 204
204 204 204
204 204 204
204 204 204
204 204 204
204 204 204
204 204 204
204 204 204
204 204 204
204 204 204
204 204 204
204 204 204
204 204 204
204 204 204
204 204 204
204 204 204
204 204 204
204 204 204
204 204 204
204 204 204
204 204 204
204 204 204
204 204 204
204 204 204
204 204 204
204 204 204
204 204 204
204 204 204
204 204 204
204 204 204
204 204 204
204 204 204
204 204 204
204 204 204
204 204 204
204 204 204
204 204 204
204 204 204
204 204 204
204 204 204
204 204 204
204 204 204
204 204 204
204 204 204
204 204 204
204 204 204
204 204 204
204 204 204
204 204 204
204 204 204
204 204 204
204 204 204
204 204 204
204 204 204
204 204 204
204 204 204
204 204 204
204 204 204
204 204 204
204 204 204
204 204 204
204 204 204
204 204 204
204 204 204
204 204 204
204 204 204
204 204 204
204 204 204
204 204 204
204 204 204
204 204 204
204 204 204
204 204 204
204 204 204
204 204 204
204 204 204
204 204 204
204 204 204
204 204 204
204 204 204
204 204 204
204 204 204
204 204 204
204 204 204
204 204 204
204 204 204
204 204 204
204 204 204
204 204 204
204 204 204
204 204 204
204 204 204
204 204 204
204 204 204
204 204 204
204 204 204
204 204 204
204 204 204
204 204 204
204 204 204
204 204 204
204 204 204
204 204 204
204 204 204
204 204 204
204 204 204
204 204 204
204 204 204
204 204 204
204 204 204
204 204 204
204 204 204
204 204 204
204 204 204
204 204 204
204 204 204
204 204 204
204 204 204
204 204 204
204 204 204
204 204 204
204 204 204
204 204 204
204 204 204
204 204 204
204 204 204
204 204 204
204 204 204
204 204 204
204 204 204
204 204 204
204 204 204
204 204 204
204 204 204
204 204 204
204 204 204
204 204 204
204 204 204
204 204 204
204 204 204
204 204 204
204 204 204
204 204 204
204 204 204
204 204 204
204 204 204
204 204 204
204 204 204
204 204 204
204 204 204
204 204 204
204 204 204
204 204 204
204 204 204
204 204 204
204 204 204
204 204 204
204 204 204
204 204 204
204 204 204
204 204 204
204 204 204
204 204 204
204 204 204
204 204 204
204 204 204
204 204 204
204 204 204
204 204 204
204 204 204
204 204 204
204 204 204
204 204 204
204 204 204
204 204 204
204 204 204
204 204 204
204 204 204
204 204 204
204 204 204
204 204 204
204 204 204
204 204 204
204 204 204
204 204 204
204 204 204
204 204 204
204 204 204
204 204 204
204 204 204
204 204 204
204 204 204
204 204 204
204 204 204
204 204 204
204 204 204
204 204 204
204 204 204
204 204 204
204 204 204
204 204 204
204 204 204
204 204 204
204 204 204
204 204 204
204 204 204
204 204 204
204 204 204
204 204 204
204 204 204
204 204 204
204 204 204
204 204 204
204 204 204
204 204 204
204 204 204
204 204 204
204 204 204
204 204 204
204 204 204
204 204 204
204 204 204
204 204 204
204 204 204
204 204 204
204 204 204
204 204 204
204 204 204
204 204 204
204 204 204
204 204 204
204 204 204
204 204 204
204 204 204
204 204 204
204 204 204
204 204 204
204 204 204
204 204 204
204 204 204
204 204 204
204 204 204
204 204 204
204 204 204
204 204 204
204 204 204
204 204 204
204 204 204
204 204 204
204 204 204
204 204 204
204 204 204
204 204 204
204 204 204
204 204 204
204 204 204
204 204 204
204 204 204
204 204 204
204 204 204
204 204 204
204 204 204
204 204 204
204 204 204
204 204 204
204 204 204
204 204 204
204 204 204
204 204 204
204 204 204
204 204 204
204 204 204
204 204 204
204 204 204
204 204 204
204 204 204
204 204 204
204 204 204
204 204 204
204 204 204
204 204 204
204 204 204
204 204 204
204 204 204
204 204 204
204 204 204
204 204 204
204 204 204
204 204 204
204 204 204
204 204 204
204 204 204
204 204 204
204 204 204
204 204 204
204 204 204
204 204 204
204 204 204
204 204 204
204 204 204
204 204 204
204 204 204
204 204 204
204 204 204
204 204 204
204 204 204
204 204 204
204 204 204
204 204 204
204 204 204
204 204 204
204 204 204
204 204 204
204 204 204
204 204 204
204 204 204
204 204 204
204 204 204
204 204 204
204 204 204
204 204 204
204 204 204
204 204 204
204 204 204
204 204 204
204 204 204
204 204 204
204 204 204
204 204 204
204 204 204
204 204 204
204 204 204
204 204 204
204 204 204
204 204 204
204 204 204
204 204 204
204 204 204
204 204 204
204 204 204
204 204 204
204 204 204
204 204 204
204 204 204
204 204 204
204 204 204
204 204 204
204 204 204
204 204 204
204 204 204
204 204 204
204 204 204
204 204 204
204 204 204
204 204 204
204 204 204
204 204 204
204 204 204
204 204 204
204 204 204
204 204 204
204 204 204
204 204 204
204 204 204
204 204 204
204 204 204
204 204 204
204 204 204
204 204 204
204 204 204
204 204 204
204 204 204
204 204 204
204 204 204
204 204 204
204 204 204
204 204 204
204 204 204
204 204 204
204 204 204
204 204 204
204 204 204
204 204 204
204 204 204
204 204 204
204 204 204
204 204 204
204 204 204
204 204 204
204 204 204
204 204 204
204 204 204
204 204 204
204 204 204
204 204 204
204 204 204
204 204 204
204 204 204
204 204 204
204 204 204
204 204 204
204 204 204
204 204 204
204 204 204
204 204 204
204 204 204
204 204 204
204 204 204
204 204 204
204 204 204
204 204 204
204 204 204
204 204 204
204 204 204
204 204 204
204 204 204
204 204 204
204 204 204
204 204 204
204 204 204
204 204 204
204 204 204
204 204 204
204 204 204
204 204 204
204 204 204
204 204 204
204 204 204
204 204 204
204 204 204
204 204 204
204 204 204
204 204 204
204 204 204
204 204 204
204 204 204
204 204 204
204 204 204
204 204 204
204 204 204
204 204 204
204 204 204
204 204 204
204 204 204
204 204 204
204 204 204
204 204 204
204 204 204
204 204 204
204 204 204
204 204 204
204 204 204
204 204 204
204 204 204
204 204 204
204 204 204
204 204 204
204 204 204
204 204 204
204 204 204
204 204 204
204 204 204
204 204 204
204 204 204
204 204 204
204 204 204
204 204 204
204 204 204
204 204 204
204 204 204
204 204 204
204 204 204
204 204 204
204 204 204
204 204 204
204 204 204
204 204 204
204 204 204
204 204 204
204 204 204
204 204 204
204 204 204
204 204 204
204 204 204
204 204 204
204 204 204
204 204 204
204 204 204
204 204 204
204 204 204
204 204 204
204 204 204
204 204 204
204 204 204
204 204 204
204 204 204
204 204 204
204 204 204
204 204 204
204 204 204
204 204 204
204 204 204
204 204 204
204 204 204
204 204 204
204 204 204
204 204 204
204 204 204
204 204 204
204 204 204
204 204 204
204 204 204
204 204 204
204 204 204
204 204 204
204 204 204
204 204 204
204 204 204
204 204 204
204 204 204
204 204 204
204 204 204
204 204 204
204 204 204
204 204 204
204 204 204
204 204 204
204 204 204
204 204 204
204 204 204
204 204 204
204 204 204
204 204 204
204 204 204
204 204 204
204 204 204
204 204 204
204 204 204
204 204 204
204 204 204
204 204 204
204 204 204
204 204 204
204 204 204
204 204 204
204 204 204
204 204 204
204 204 204
204 204 204
204 204 204
204 204 204
204 204 204
204 204 204
204 204 204
204 204 204
204 204 204
204 204 204
204 204 204
204 204 204
204 204 204
204 204 204
204 204 204
204 204 204
204 204 204
204 204 204
204 204 204
204 204 204
204 204 204
204 204 204
204 204 204
204 204 204
204 204 204
204 204 204
204 204 204
204 204 204
204 204 204
204 204 204
204 204 204
204 204 204
204 204 204
204 204 204
204 204 204
204 204 204
204 204 204
204 204 204
204 204 204
204 204 204
204 204 204
204 204 204
204 204 204
204 204 204
204 204 204
204 204 204
204 204 204
204 204 204
204 204 204
204 204 204
204 204 204
204 204 204
204 204 204
204 204 204
204 204 204
204 204 204
204 204 204
204 204 204
204 204 204
204 204 204
204 204 204
204 204 204
204 204 204
204 204 204
204 204 204
204 204 204
204 204 204
204 204 204
204 204 204
204 204 204
204 204 204
204 204 204
204 204 204
204 204 204
204 204 204
204 204 204
204 204 204
204 204 204
204 204 204
204 204 204
204 204 204
204 204 204
204 204 204
204 204 204
204 204 204
204 204 204
204 204 204
204 204 204
204 204 204
204 204 204
204 204 204
204 204 204
204 204 204
204 204 204
204 204 204
204 204 204
204 204 204
204 204 204
204 204 204
204 204 204
204 204 204
204 204 204
204 204 204
204 204 204
204 204 204
204 204 204
204 204 204
204 204 204
204 204 204
204 204 204
204 204 204
204 204 204
204 204 204
204 204 204
204 204 204
204 204 204
204 204 204
204 204 204
204 204 204
204 204 204
204 204 204
204 204 204
204 204 204
204 204 204
204 204 204
204 204 204
204 204 204
204 204 204
204 204 204
204 204 204
204 204 204
204 204 204
204 204 204
204 204 204
204 204 204
204 204 204
204 204 204
204 204 204
204 204 204
204 204 204
204 204 204
204 204 204
204 204 204
204 204 204
204 204 204
204 204 204
204 204 204
204 204 204
204 204 204
204 204 204
204 204 204
204 204 204
204 204 204
204 204 204
204 204 204
204 204 204
204 204 204
204 204 204
204 204 204
204 204 204
204 204 204
204 204 204
204 204 204
204 204 204
204 204 204
204 204 204
204 204 204
204 204 204
204 204 204
204 204 204
204 204 204
204 204 204
204 204 204
204 204 204
204 204 204
204 204 204
204 204 204
204 204 204
204 204 204
204 204 204
204 204 204
204 204 204
204 204 204
204 204 204
204 204 204
204 204 204
204 204 204
204 204 204
204 204 204
204 204 204
204 204 204
204 204 204
204 204 204
204 204 204
204 204 204
204 204 204
204 204 204
204 204 204
204 204 204
204 204 204
204 204 204
204 204 204
204 204 204
204 204 204
204 204 204
204 204 204
204 204 204
204 204 204
204 204 204
204 204 204
204 204 204
204 204 204
204 204 204
204 204 204
204 204 204
204 204 204
204 204 204
204 204 204
204 204 204
204 204 204
204 204 204
204 204 204
204 204 204
204 204 204
204 204 204
204 204 204
204 204 204
204 204 204
204 204 204
204 204 204
204 204 204
204 204 204
204 204 204
204 204 204
204 204 204
204 204 204
204 204 204
204 204 204
204 204 204
204 204 204
204 204 204
204 204 204
204 204 204
204 204 204
204 204 204
204 204 204
204 204 204
204 204 204
204 204 204
204 204 204
204 204 204
204 204 204
204 204 204
204 204 204
204 204 204
204 204 204
204 204 204
204 204 204
204 204 204
204 204 204
204 204 204
204 204 204
204 204 204
204 204 204
204 204 204
204 204 204
204 204 204
204 204 204
204 204 204
204 204 204
204 204 204
204 204 204
204 204 204
204 204 204
204 204 204
204 204 204
204 204 204
204 204 204
204 204 204
204 204 204
204 204 204
204 204 204
204 204 204
204 204 204
204 204 204
204 204 204
204 204 204
204 204 204
204 204 204
204 204 204
204 204 204
204 204 204
204 204 204
204 204 204
204 204 204
204 204 204
204 204 204
204 204 204
204 204 204
204 204 204
204 204 204
204 204 204
204 204 204
204 204 204
204 204 204
204 204 204
204 204 204
204 204 204
204 204 204
204 204 204
204 204 204
204 204 204
204 204 204
204 204 204
204 204 204
204 204 204
204 204 204
204 204 204
204 204 204
204 204 204
204 204 204
204 204 204
204 204 204
204 204 204
204 204 204
204 204 204
204 204 204
204 204 204
204 204 204
204 204 204
204 204 204
204 204 204
204 204 204
204 204 204
204 204 204
204 204 204
204 204 204
204 204 204
204 204 204
204 204 204
204 204 204
204 204 204
204 204 204
204 204 204
204 204 204
204 204 204
204 204 204
204 204 204
204 204 204
204 204 204
204 204 204
204 204 204
204 204 204
204 204 204
204 204 204
204 204 204
204 204 204
204 204 204
204 204 204
204 204 204
204 204 204
204 204 204
204 204 204
204 204 204
204 204 204
204 204 204
204 204 204
204 204 204
204 204 204
204 204 204
204 204 204
204 204 204
204 204 204
204 204 204
204 204 204
204 204 204
204 204 204
204 204 204
204 204 204
204 204 204
204 204 204
204 204 204
204 204 204
204 204 204
204 204 204
204 204 204
204 204 204
204 204 204
204 204 204
204 204 204
204 204 204
204 204 204
204 204 204
204 204 204
204 204 204
204 204 204
204 204 204
204 204 204
204 204 204
204 204 204
204 204 204
204 204 204
204 204 204
204 204 204
204 204 204
204 204 204
204 204 204
204 204 204
204 204 204
204 204 204
204 204 204
204 204 204
204 204 204
204 204 204
204 204 204
204 204 204
204 204 204
204 204 204
204 204 204
204 204 204
204 204 204
204 204 204
204 204 204
204 204 204
204 204 204
204 204 204
204 204 204
204 204 204
204 204 204
204 204 204
204 204 204
204 204 204
204 204 204
204 204 204
204 204 204
204 204 204
204 204 204
204 204 204
204 204 204
204 204 204
204 204 204
204 204 204
204 204 204
204 204 204
204 204 204
204 204 204
204 204 204
204 204 204
204 204 204
204 204 204
204 204 204
204 204 204
204 204 204
204 204 204
204 204 204
204 204 204
204 204 204
204 204 204
204 204 204
204 204 204
204 204 204
204 204 204
204 204 204
204 204 204
204 204 204
204 204 204
204 204 204
204 204 204
204 204 204
204 204 204
204 204 204
204 204 204
204 204 204
204 204 204
204 204 204
204 204 204
204 204 204
204 204 204
204 204 204
204 204 204
204 204 204
204 204 204
204 204 204
204 204 204
204 204 204
204 204 204
204 204 204
204 204 204
204 204 204
204 204 204
204 204 204
204 204 204
204 204 204
204 204 204
204 204 204
204 204 204
204 204 204
204 204 204
204 204 204
204 204 204
204 204 204
204 204 204
204 204 204
204 204 204
204 204 204
204 204 204
204 204 204
204 204 204
204 204 204
204 204 204
204 204 204
204 204 204
204 204 204
204 204 204
204 204 204
204 204 204
204 204 204
204 204 204
204 204 204
204 204 204
204 204 204
204 204 204
204 204 204
204 204 204
204 204 204
204 204 204
204 204 204
204 204 204
204 204 204
204 204 204
204 204 204
204 204 204
204 204 204
204 204 204
204 204 204
204 204 204
204 204 204
204 204 204
204 204 204
204 204 204
204 204 204
204 204 204
204 204 204
204 204 204
204 204 204
204 204 204
204 204 204
204 204 204
204 204 204
204 204 204
204 204 204
204 204 204
204 204 204
204 204 204
204 204 204
204 204 204
204 204 204
204 204 204
204 204 204
204 204 204
204 204 204
204 204 204
204 204 204
204 204 204
204 204 204
204 204 204
204 204 204
204 204 204
204 204 204
204 204 204
204 204 204
204 204 204
204 204 204
204 204 204
204 204 204
204 204 204
204 204 204
204 204 204
204 204 204
204 204 204
204 204 204
204 204 204
204 204 204
204 204 204
204 204 204
204 204 204
204 204 204
204 204 204
204 204 204
204 204 204
204 204 204
204 204 204
204 204 204
204 204 204
204 204 204
204 204 204
204 204 204
204 204 204
204 204 204
204 204 204
204 204 204
204 204 204
204 204 204
204 204 204
204 204 204
204 204 204
204 204 204
204 204 204
204 204 204
204 204 204
204 204 204
204 204 204
204 204 204
204 204 204
204 204 204
204 204 204
204 204 204
204 204 204
204 204 204
204 204 204
204 204 204
204 204 204
204 204 204
204 204 204
204 204 204
204 204 204
204 204 204
204 204 204
204 204 204
204 204 204
204 204 204
204 204 204
204 204 204
204 204 204
204 204 204
204 204 204
204 204 204
204 204 204
204 204 204
204 204 204
204 204 204
204 204 204
204 204 204
204 204 204
204 204 204
204 204 204
204 204 204
204 204 204
204 204 204
204 204 204
204 204 204
204 204 204
204 204 204
204 204 204
204 204 204
204 204 204
204 204 204
204 204 204
204 204 204
204 204 204
204 204 204
204 204 204
204 204 204
204 204 204
204 204 204
204 204 204
204 204 204
204 204 204
204 204 204
204 204 204
204 204 204
204 204 204
204 204 204
204 204 204
204 204 204
204 204 204
204 204 204
204 204 204
204 204 204
204 204 204
204 204 204
204 204 204
204 204 204
204 204 204
204 204 204
204 204 204
204 204 204
204 204 204
204 204 204
204 204 204
204 204 204
204 204 204
204 204 204
204 204 204
204 204 204
204 204 204
204 204 204
204 204 204
204 204 204
204 204 204
204 204 204
204 204 204
204 204 204
204 204 204
204 204 204
204 204 204
204 204 204
204 204 204
204 204 204
204 204 204
204 204 204
204 204 204
204 204 204
204 204 204
204 204 204
204 204 204
204 204 204
204 204 204
204 204 204
204 204 204
204 204 204
204 204 204
204 204 204
204 204 204
204 204 204
204 204 204
204 204 204
204 204 204
204 204 204
204 204 204
204 204 204
204 204 204
204 204 204
204 204 204
204 204 204
204 204 204
204 204 204
204 204 204
204 204 204
204 204 204
204 204 204
204 204 204
204 204 204
204 204 204
204 204 204
204 204 204
204 204 204
204 204 204
204 204 204
204 204 204
204 204 204
204 204 204
204 204 204
204 204 204
204 204 204
204 204 204
204 204 204
204 204 204
204 204 204
204 204 204
204 204 204
204 204 204
204 204 204
204 204 204
204 204 204
204 204 204
204 204 204
204 204 204
204 204 204
204 204 204
204 204 204
204 204 204
204 204 204
204 204 204
204 204 204
204 204 204
204 204 204
204 204 204
204 204 204
204 204 204
204 204 204
204 204 204
204 204 204
204 204 204
204 204 204
204 204 204
204 204 204
204 204 204
204 204 204
204 204 204
204 204 204
204 204 204
204 204 204
204 204 204
204 204 204
204 204 204
204 204 204
204 204 204
204 204 204
204 204 204
204 204 204
204 204 204
204 204 204
204 204 204
204 204 204
204 204 204
204 204 204
204 204 204
204 204 204
204 204 204
204 204 204
204 204 204
204 204 204
204 204 204
204 204 204
204 204 204
204 204 204
204 204 204
204 204 204
204 204 204
204 204 204
204 204 204
204 204 204
204 204 204
204 204 204
204 204 204
204 204 204
204 204 204
204 204 204
204 204 204
204 204 204
204 204 204
204 204 204
204 204 204
204 204 204
204 204 204
204 204 204
204 204 204
204 204 204
204 204 204
204 204 204
204 204 204
204 204 204
204 204 204
204 204 204
204 204 204
204 204 204
204 204 204
204 204 204
204 204 204
204 204 204
204 204 204
204 204 204
204 204 204
204 204 204
204 204 204
204 204 204
204 204 204
204 204 204
204 204 204
204 204 204
204 204 204
204 204 204
204 204 204
204 204 204
204 204 204
204 204 204
204 204 204
204 204 204
204 204 204
204 204 204
204 204 204
204 204 204
204 204 204
204 204 204
204 204 204
204 204 204
204 204 204
204 204 204
204 204 204
204 204 204
204 204 204
204 204 204
204 204 204
204 204 204
204 204 204
204 204 204
204 204 204
204 204 204
204 204 204
204 204 204
204 204 204
204 204 204
204 204 204
204 204 204
204 204 204
204 204 204
204 204 204
204 204 204
204 204 204
204 204 204
204 204 204
204 204 204
204 204 204
204 204 204
204 204 204
204 204 204
204 204 204
204 204 204
204 204 204
204 204 204
204 204 204
204 204 204
204 204 204
204 204 204
204 204 204
204 204 204
204 204 204
204 204 204
204 204 204
204 204 204
204 204 204
204 204 204
204 204 204
204 204 204
204 204 204
204 204 204
204 204 204
204 204 204
204 204 204
204 204 204
204 204 204
204 204 204
204 204 204
204 204 204
204 204 204
204 204 204
204 204 204
204 204 204
204 204 204
204 204 204
204 204 204
204 204 204
204 204 204
204 204 204
204 204 204
204 204 204
204 204 204
204 204 204
204 204 204
204 204 204
204 204 204
204 204 204
204 204 204
204 204 204
204 204 204
204 204 204
204 204 204
204 204 204
204 204 204
204 204 204
204 204 204
204 204 204
204 204 204
204 204 204
204 204 204
204 204 204
204 204 204
204 204 204
204 204 204
204 204 204
204 204 204
204 204 204
204 204 204
204 204 204
204 204 204
204 204 204
204 204 204
204 204 204
204 204 204
204 204 204
204 204 204
204 204 204
204 204 204
204 204 204
204 204 204
204 204 204
204 204 204
204 204 204
204 204 204
204 204 204
204 204 204
204 204 204
204 204 204
204 204 204
204 204 204
204 204 204
204 204 204
204 204 204
204 204 204
204 204 204
204 204 204
204 204 204
204 204 204
204 204 204
204 204 204
204 204 204
204 204 204
204 204 204
204 204 204
204 204 204
204 204 204
204 204 204
204 204 204
204 204 204
204 204 204
204 204 204
204 204 204
204 204 204
204 204 204
204 204 204
204 204 204
204 204 204
204 204 204
204 204 204
204 204 204
204 204 204
204 204 204
204 204 204
204 204 204
204 204 204
204 204 204
204 204 204
204 204 204
204 204 204
204 204 204
204 204 204
204 204 204
204 204 204
204 204 204
204 204 204
204 204 204
204 204 204
204 204 204
204 204 204
204 204 204
204 204 204
204 204 204
204 204 204
204 204 204
204 204 204
204 204 204
204 204 204
204 204 204
204 204 204
204 204 204
204 204 204
204 204 204
204 204 204
204 204 204
204 204 204
204 204 204
204 204 204
204 204 204
204 204 204
204 204 204
204 204 204
204 204 204
204 204 204
204 204 204
204 204 204
204 204 204
204 204 204
204 204 204
204 204 204
204 204 204
204 204 204
204 204 204
204 204 204
204 204 204
204 204 204
204 204 204
204 204 204
204 204 204
204 204 204
204 204 204
204 204 204
204 204 204
204 204 204
204 204 204
204 204 204
204 204 204
204 204 204
204 204 204
204 204 204
204 204 204
204 204 204
204 204 204
204 204 204
204 204 204
204 204 204
204 204 204
204 204 204
204 204 204
204 204 204
204 204 204
204 204 204
204 204 204
204 204 204
204 204 204
204 204 204
204 204 204
204 204 204
204 204 204
204 204 204
204 204 204
204 204 204
204 204 204
204 204 204
204 204 204
204 204 204
204 204 204
204 204 204
204 204 204
204 204 204
204 204 204
204 204 204
204 204 204
204 204 204
204 204 204
204 204 204
204 204 204
204 204 204
204 204 204
204 204 204
204 204 204
204 204 204
204 204 204
204 204 204
204 204 204
204 204 204
204 204 204
204 204 204
204 204 204
204 204 204
204 204 204
204 204 204
204 204 204
204 204 204
204 204 204
204 204 204
204 204 204
204 204 204
204 204 204
204 204 204
204 204 204
204 204 204
204 204 204
204 204 204
204 204 204
204 204 204
204 204 204
204 204 204
204 204 204
204 204 204
204 204 204
204 204 204
204 204 204
204 204 204
204 204 204
204 204 204
204 204 204
204 204 204
204 204 204
204 204 204
204 204 204
204 204 204
204 204 204
204 204 204
204 204 204
204 204 204
204 204 204
204 204 204
204 204 204
204 204 204
204 204 204
204 204 204
204 204 204
204 204 204
204 204 204
204 204 204
204 204 204
204 204 204
204 204 204
204 204 204
204 204 204
204 204 204
204 204 204
204 204 204
204 204 204
204 204 204
204 204 204
204 204 204
204 204 204
204 204 204
204 204 204
204 204 204
204 204 204
204 204 204
204 204 204
204 204 204
204 204 204
204 204 204
204 204 204
204 204 204
204 204 204
204 204 204
204 204 204
204 204 204
204 204 204
204 204 204
204 204 204
204 204 204
204 204 204
204 204 204
204 204 204
204 204 204
204 204 204
204 204 204
204 204 204
204 204 204
204 204 204
204 204 204
204 204 204
204 204 204
204 204 204
204 204 204
204 204 204
204 204 204
204 204 204
204 204 204
204 204 204
204 204 204
204 204 204
204 204 204
204 204 204
204 204 204
204 204 204
204 204 204
204 204 204
204 204 204
204 204 204
204 204 204
204 204 204
204 204 204
204 204 204
204 204 204
204 204 204
204 204 204
204 204 204
204 204 204
204 204 204
204 204 204
204 204 204
204 204 204
204 204 204
204 204 204
204 204 204
204 204 204
204 204 204
204 204 204
204 204 204
204 204 204
204 204 204
204 204 204
204 204 204
204 204 204
204 204 204
204 204 204
204 204 204
204 204 204
204 204 204
204 204 204
204 204 204
204 204 204
204 204 204
204 204 204
204 204 204
204 204 204
204 204 204
204 204 204
204 204 204
204 204 204
204 204 204
204 204 204
204 204 204
204 204 204
204 204 204
204 204 204
204 204 204
204 204 204
204 204 204
204 204 204
204 204 204
204 204 204
204 204 204
204 204 204
204 204 204
204 204 204
204 204 204
204 204 204
204 204 204
204 204 204
204 204 204
204 204 204
204 204 204
204 204 204
204 204 204
204 204 204
204 204 204
204 204 204
204 204 204
204 204 204
204 204 204
204 204 204
204 204 204
204 204 204
204 204 204
204 204 204
204 204 204
204 204 204
204 204 204
204 204 204
204 204 204
204 204 204
204 204 204
204 204 204
204 204 204
204 204 204
204 204 204
204 204 204
204 204 204
204 204 204
204 204 204
204 204 204
204 204 204
204 204 204
204 204 204
204 204 204
204 204 204
204 204 204
204 204 204
204 204 204
204 204 204
204 204 204
204 204 204
204 204 204
204 204 204
204 204 204
204 204 204
204 204 204
204 204 204
204 204 204
204 204 204
204 204 204
204 204 204
204 204 204
204 204 204
204 204 204
204 204 204
204 204 204
204 204 204
204 204 204
204 204 204
204 204 204
204 204 204
204 204 204
204 204 204
204 204 204
204 204 204
204 204 204
204 204 204
204 204 204
204 204 204
204 204 204
204 204 204
204 204 204
204 204 204
204 204 204
204 204 204
204 204 204
204 204 204
204 204 204
204 204 204
204 204 204
204 204 204
204 204 204
204 204 204
204 204 204
204 204 204
204 204 204
204 204 204
204 204 204
204 204 204
204 204 204
204 204 204
204 204 204
204 204 204
204 204 204
204 204 204
204 204 204
204 204 204
204 204 204
204 204 204
204 204 204
204 204 204
204 204 204
204 204 204
204 204 204
204 204 204
204 204 204
204 204 204
204 204 204
204 204 204
204 204 204
204 204 204
204 204 204
204 204 204
204 204 204
204 204 204
204 204 204
204 204 204
204 204 204
204 204 204
204 204 204
204 204 204
204 204 204
204 204 204
204 204 204
204 204 204
204 204 204
204 204 204
204 204 204
204 204 204
204 204 204
204 204 204
204 204 204
204 204 204
204 204 204
204 204 204
204 204 204
204 204 204
204 204 204
204 204 204
204 204 204
204 204 204
204 204 204
204 204 204
204 204 204
204 204 204
204 204 204
204 204 204
204 204 204
204 204 204
204 204 204
204 204 204
204 204 204
204 204 204
204 204 204
204 204 204
204 204 204
204 204 204
204 204 204
204 204 204
204 204 204
204 204 204
204 204 204
204 204 204
204 204 204
204 204 204
204 204 204
204 204 204
204 204 204
204 204 204
204 204 204
204 204 204
204 204 204
204 204 204
204 204 204
204 204 204
204 204 204
204 204 204
204 204 204
204 204 204
204 204 204
204 204 204
204 204 204
204 204 204
204 204 204
204 204 204
204 204 204
204 204 204
204 204 204
204 204 204
204 204 204
204 204 204
204 204 204
204 204 204
204 204 204
204 204 204
204 204 204
204 204 204
204 204 204
204 204 204
204 204 204
204 204 204
204 204 204
204 204 204
204 204 204
204 204 204
204 204 204
204 204 204
204 204 204
204 204 204
204 204 204
204 204 204
204 204 204
204 204 204
204 204 204
204 204 204
204 204 204
204 204 204
204 204 204
204 204 204
204 204 204
204 204 204
204 204 204
204 204 204
204 204 204
204 204 204
204 204 204
204 204 204
204 204 204
204 204 204
204 204 204
204 204 204
204 204 204
204 204 204
204 204 204
204 204 204
204 204 204
204 204 204
204 204 204
204 204 204
204 204 204
204 204 204
204 204 204
204 204 204
204 204 204
204 204 204
204 204 204
204 204 204
204 204 204
204 204 204
204 204 204
204 204 204
204 204 204
204 204 204
204 204 204
204 204 204
204 204 204
204 204 204
204 204 204
204 204 204
204 204 204
204 204 204
204 204 204
204 204 204
204 204 204
204 204 204
204 204 204
204 204 204
204 204 204
204 204 204
204 204 204
204 204 204
204 204 204
204 204 204
204 204 204
204 204 204
204 204 204
204 204 204
204 204 204
204 204 204
204 204 204
204 204 204
204 204 204
204 204 204
204 204 204
204 204 204
204 204 204
204 204 204
204 204 204
204 204 204
204 204 204
204 204 204
204 204 204
204 204 204
204 204 204
204 204 204
204 204 204
204 204 204
204 204 204
204 204 204
204 204 204
204 204 204
204 204 204
204 204 204
204 204 204
204 204 204
204 204 204
204 204 204
204 204 204
204 204 204
204 204 204
204 204 204
204 204 204
204 204 204
204 204 204
204 204 204
204 204 204
204 204 204
204 204 204
204 204 204
204 204 204
204 204 204
204 204 204
204 204 204
204 204 204
204 204 204
204 204 204
204 204 204
204 204 204
204 204 204
204 204 204
204 204 204
204 204 204
204 204 204
204 204 204
204 204 204
204 204 204
204 204 204
204 204 204
204 204 204
204 204 204
204 204 204
204 204 204
204 204 204
204 204 204
204 204 204
204 204 204
204 204 204
204 204 204
204 204 204
204 204 204
204 204 204
204 204 204
204 204 204
204 204 204
204 204 204
204 204 204
204 204 204
204 204 204
204 204 204
204 204 204
204 204 204
204 204 204
204 204 204
204 204 204
204 204 204
204 204 204
204 204 204
204 204 204
204 204 204
204 204 204
204 204 204
204 204 204
204 204 204
204 204 204
204 204 204
204 204 204
204 204 204
204 204 204
204 204 204
204 204 204
204 204 204
204 204 204
204 204 204
204 204 204
204 204 204
204 204 204
204 204 204
204 204 204
204 204 204
204 204 204
204 204 204
204 204 204
204 204 204
204 204 204
204 204 204
204 204 204
204 204 204
204 204 204
204 204 204
204 204 204
204 204 204
204 204 204
204 204 204
204 204 204
204 204 204
204 204 204
204 204 204
204 204 204
204 204 204
204 204 204
204 204 204
204 204 204
204 204 204
204 204 204
204 204 204
204 204 204
204 204 204
204 204 204
204 204 204
204 204 204
204 204 204
204 204 204
204 204 204
204 204 204
204 204 204
204 204 204
204 204 204
204 204 204
204 204 204
204 204 204
204 204 204
204 204 204
204 204 204
204 204 204
204 204 204
204 204 204
204 204 204
204 204 204
204 204 204
204 204 204
204 204 204
204 204 204
204 204 204
204 204 204
204 204 204
204 204 204
204 204 204
204 204 204
204 204 204
204 204 204
204 204 204
204 204 204
204 204 204
204 204 204
204 204 204
204 204 204
204 204 204
204 204 204
204 204 204
204 204 204
204 204 204
204 204 204
204 204 204
204 204 204
204 204 204
204 204 204
204 204 204
204 204 204
204 204 204
204 204 204
204 204 204
204 204 204
204 204 204
204 204 204
204 204 204
204 204 204
204 204 204
204 204 204
204 204 204
204 204 204
204 204 204
204 204 204
204 204 204
204 204 204
204 204 204
204 204 204
204 204 204
204 204 204
204 204 204
204 204 204
204 204 204
204 204 204
204 204 204
204 204 204
204 204 204
204 204 204
204 204 204
204 204 204
204 204 204
204 204 204
204 204 204
204 204 204
204 204 204
204 204 204
204 204 204
204 204 204
204 204 204
204 204 204
204 204 204
204 204 204
204 204 204
204 204 204
204 204 204
204 204 204
204 204 204
204 204 204
204 204 204
204 204 204
204 204 204
204 204 204
204 204 204
204 204 204
204 204 204
204 204 204
204 204 204
204 204 204
204 204 204
204 204 204
204 204 204
204 204 204
204 204 204
204 204 204
204 204 204
204 204 204
204 204 204
204 204 204
204 204 204
204 204 204
204 204 204
204 204 204
204 204 204
204 204 204
204 204 204
204 204 204
204 204 204
204 204 204
204 204 204
204 204 204
204 204 204
204 204 204
204 204 204
204 204 204
204 204 204
204 204 204
204 204 204
204 204 204
204 204 204
204 204 204
204 204 204
204 204 204
204 204 204
204 204 204
204 204 204
204 204 204
204 204 204
204 204 204
204 204 204
204 204 204
204 204 204
204 204 204
204 204 204
204 204 204
204 204 204
204 204 204
204 204 204
204 204 204
204 204 204
204 204 204
204 204 204
204 204 204
204 204 204
204 204 204
204 204 204
204 204 204
204 204 204
204 204 204
204 204 204
204 204 204
204 204 204
204 204 204
204 204 204
204 204 204
204 204 204
204 204 204
204 204 204
204 204 204
204 204 204
204 204 204
204 204 204
204 204 204
204 204 204
204 204 204
204 204 204
204 204 204
204 204 204
204 204 204
204 204 204
204 204 204
204 204 204
204 204 204
204 204 204
204 204 204
204 204 204
204 204 204
204 204 204
204 204 204
204 204 204
204 204 204
204 204 204
204 204 204
204 204 204
204 204 204
204 204 204
204 204 204
204 204 204
204 204 204
204 204 204
204 204 204
204 204 204
204 204 204
204 204 204
204 204 204
204 204 204
204 204 204
204 204 204
204 204 204
204 204 204
204 204 204
204 204 204
204 204 204
204 204 204
204 204 204
204 204 204
204 204 204
204 204 204
204 204 204
204 204 204
204 204 204
204 204 204
204 204 204
204 204 204
204 204 204
204 204 204
204 204 204
204 204 204
204 204 204
204 204 204
204 204 204
204 204 204
204 204 204
204 204 204
204 204 204
204 204 204
204 204 204
204 204 204
204 204 204
204 204 204
204 204 204
204 204 204
204 204 204
204 204 204
204 204 204
204 204 204
204 204 204
204 204 204
204 204 204
204 204 204
204 204 204
204 204 204
204 204 204
204 204 204
204 204 204
204 204 204
204 204 204
204 204 204
204 204 204
204 204 204
204 204 204
204 204 204
204 204 204
204 204 204
204 204 204
204 204 204
204 204 204
204 204 204
204 204 204
204 204 204
204 204 204
204 204 204
204 204 204
204 204 204
204 204 204
204 204 204
204 204 204
204 204 204
204 204 204
204 204 204
204 204 204
204 204 204
204 204 204
204 204 204
204 204 204
204 204 204
204 204 204
204 204 204
204 204 204
204 204 204
204 204 204
204 204 204
204 204 204
204 204 204
204 204 204
204 204 204
204 204 204
204 204 204
204 204 204
204 204 204
204 204 204
204 204 204
204 204 204
204 204 204
204 204 204
204 204 204
204 204 204
204 204 204
204 204 204
204 204 204
204 204 204
204 204 204
204 204 204
204 204 204
204 204 204
204 204 204
204 204 204
204 204 204
204 204 204
204 204 204
204 204 204
204 204 204
204 204 204
204 204 204
204 204 204
204 204 204
204 204 204
204 204 204
204 204 204
204 204 204
204 204 204
204 204 204
204 204 204
204 204 204
204 204 204
204 204 204
204 204 204
204 204 204
204 204 204
204 204 204
204 204 204
204 204 204
204 204 204
204 204 204
204 204 204
204 204 204
204 204 204
204 204 204
204 204 204
204 204 204
204 204 204
204 204 204
204 204 204
204 204 204
204 204 204
204 204 204
204 204 204
204 204 204
204 204 204
204 204 204
204 204 204
204 204 204
204 204 204
204 204 204
204 204 204
204 204 204
204 204 204
204 204 204
204 204 204
204 204 204
204 204 204
204 204 204
204 204 204
204 204 204
204 204 204
204 204 204
204 204 204
204 204 204
204 204 204
204 204 204
204 204 204
204 204 204
204 204 204
204 204 204
204 204 204
204 204 204
204 204 204
204 204 204
204 204 204
204 204 204
204 204 204
204 204 204
204 204 204
204 204 204
204 204 204
204 204 204
204 204 204
204 204 204
204 204 204
204 204 204
204 204 204
204 204 204
204 204 204
204 204 204
204 204 204
204 204 204
204 204 204
204 204 204
204 204 204
204 204 204
204 204 204
204 204 204
204 204 204
204 204 204
204 204 204
204 204 204
204 204 204
204 204 204
204 204 204
204 204 204
204 204 204
204 204 204
204 204 204
204 204 204
204 204 204
204 204 204
204 204 204
204 204 204
204 204 204
204 204 204
204 204 204
204 204 204
204 204 204
204 204 204
204 204 204
204 204 204
204 204 204
204 204 204
204 204 204
204 204 204
204 204 204
204 204 204
204 204 204
204 204 204
204 204 204
204 204 204
204 204 204
204 204 204
204 204 204
204 204 204
204 204 204
204 204 204
204 204 204
204 204 204
204 204 204
204 204 204
204 204 204
204 204 204
204 204 204
204 204 204
204 204 204
204 204 204
204 204 204
204 204 204
204 204 204
204 204 204
204 204 204
204 204 204
204 204 204
204 204 204
204 204 204
204 204 204
204 204 204
204 204 204
204 204 204
204 204 204
204 204 204
204 204 204
204 204 204
204 204 204
204 204 204
204 204 204
204 204 204
204 204 204
204 204 204
204 204 204
204 204 204
204 204 204
204 204 204
204 204 204
204 204 204
204 204 204
204 204 204
204 204 204
204 204 204
204 204 204
204 204 204
204 204 204
204 204 204
204 204 204
204 204 204
204 204 204
204 204 204
204 204 204
204 204 204
204 204 204
204 204 204
204 204 204
204 204 204
204 204 204
204 204 204
204 204 204
204 204 204
204 204 204
204 204 204
204 204 204
204 204 204
204 204 204
204 204 204
204 204 204
204 204 204
204 204 204
204 204 204
204 204 204
204 204 204
204 204 204
204 204 204
204 204 204
204 204 204
204 204 204
204 204 204
204 204 204
204 204 204
204 204 204
204 204 204
204 204 204
204 204 204
204 204 204
204 204 204
204 204 204
204 204 204
204 204 204
204 204 204
204 204 204
204 204 204
204 204 204
204 204 204
204 204 204
204 204 204
204 204 204
204 204 204
204 204 204
204 204 204
204 204 204
204 204 204
204 204 204
204 204 204
204 204 204
204 204 204
204 204 204
204 204 204
204 204 204
204 204 204
204 204 204
204 204 204
204 204 204
204 204 204
204 204 204
204 204 204
204 204 204
204 204 204
204 204 204
204 204 204
204 204 204
204 204 204
204 204 204
204 204 204
204 204 204
204 204 204
204 204 204
204 204 204
204 204 204
204 204 204
204 204 204
204 204 204
204 204 204
204 204 204
204 204 204
204 204 204
204 204 204
204 204 204
204 204 204
204 204 204
204 204 204
204 204 204
204 204 204
204 204 204
204 204 204
204 204 204
204 204 204
204 204 204
204 204 204
204 204 204
204 204 204
204 204 204
204 204 204
204 204 204
204 204 204
204 204 204
204 204 204
204 204 204
204 204 204
204 204 204
204 204 204
204 204 204
204 204 204
204 204 204
204 204 204
204 204 204
204 204 204
204 204 204
204 204 204
204 204 204
204 204 204
204 204 204
204 204 204
204 204 204
204 204 204
204 204 204
204 204 204
204 204 204
204 204 204
204 204 204
204 204 204
204 204 204
204 204 204
204 204 204
204 204 204
204 204 204
204 204 204
204 204 204
204 204 204
204 204 204
204 204 204
204 204 204
204 204 204
204 204 204
204 204 204
204 204 204
204 204 204
204 204 204
204 204 204
204 204 204
204 204 204
204 204 204
204 204 204
204 204 204
204 204 204
204 204 204
204 204 204
204 204 204
204 204 204
204 204 204
204 204 204
204 204 204
204 204 204
204 204 204
204 204 204
204 204 204
204 204 204
204 204 204
204 204 204
204 204 204
204 204 204
204 204 204
204 204 204
204 204 204
204 204 204
204 204 204
204 204 204
204 204 204
204 204 204
204 204 204
204 204 204
204 204 204
204 204 204
204 204 204
204 204 204
204 204 204
204 204 204
204 204 204
204 204 204
204 204 204
204 204 204
204 204 204
204 204 204
204 204 204
204 204 204
204 204 204
204 204 204
204 204 204
204 204 204
204 204 204
204 204 204
204 204 204
204 204 204
204 204 204
204 204 204
204 204 204
204 204 204
204 204 204
204 204 204
204 204 204
204 204 204
204 204 204
204 204 204
204 204 204
204 204 204
204 204 204
204 204 204
204 204 204
204 204 204
204 204 204
204 204 204
204 204 204
204 204 204
204 204 204
204 204 204
204 204 204
204 204 204
204 204 204
204 204 204
204 204 204
204 204 204
204 204 204
204 204 204
204 204 204
204 204 204
204 204 204
204 204 204
204 204 204
204 204 204
204 204 204
204 204 204
204 204 204
204 204 204
204 204 204
204 204 204
204 204 204
204 204 204
204 204 204
204 204 204
204 204 204
204 204 204
204 204 204
204 204 204
204 204 204
204 204 204
204 204 204
204 204 204
204 204 204
204 204 204
204 204 204
204 204 204
204 204 204
204 204 204
204 204 204
204 204 204
204 204 204
204 204 204
204 204 204
204 204 204
204 204 204
204 204 204
204 204 204
204 204 204
204 204 204
204 204 204
204 204 204
204 204 204
204 204 204
204 204 204
204 204 204
204 204 204
204 204 204
204 204 204
204 204 204
204 204 204
204 204 204
204 204 204
204 204 204
204 204 204
204 204 204
204 204 204
204 204 204
204 204 204
204 204 204
204 204 204
204 204 204
204 204 204
204 204 204
204 204 204
204 204 204
204 204 204
204 204 204
204 204 204
204 204 204
204 204 204
204 204 204
204 204 204
204 204 204
204 204 204
204 204 204
204 204 204
204 204 204
204 204 204
204 204 204
204 204 204
204 204 204
204 204 204
204 204 204
204 204 204
204 204 204
204 204 204
204 204 204
204 204 204
204 204 204
204 204 204
204 204 204
204 204 204
204 204 204
204 204 204
204 204 204
204 204 204
204 204 204
204 204 204
204 204 204
204 204 204
204 204 204
204 204 204
204 204 204
204 204 204
204 204 204
204 204 204
204 204 204
204 204 204
204 204 204
204 204 204
204 204 204
204 204 204
204 204 204
204 204 204
204 204 204
204 204 204
204 204 204
204 204 204
204 204 204
204 204 204
204 204 204
204 204 204
204 204 204
204 204 204
204 204 204
204 204 204
204 204 204
204 204 204
204 204 204
204 204 204
204 204 204
204 204 204
204 204 204
204 204 204
204 204 204
204 204 204
204 204 204
204 204 204
204 204 204
204 204 204
204 204 204
204 204 204
204 204 204
204 204 204
204 204 204
204 204 204
204 204 204
204 204 204
204 204 204
204 204 204
204 204 204
204 204 204
204 204 204
204 204 204
204 204 204
204 204 204
204 204 204
204 204 204
204 204 204
204 204 204
204 204 204
204 204 204
204 204 204
204 204 204
204 204 204
204 204 204
204 204 204
204 204 204
204 204 204
204 204 204
204 204 204
204 204 204
204 204 204
204 204 204
204 204 204
204 204 204
204 204 204
204 204 204
204 204 204
204 204 204
204 204 204
204 204 204
204 204 204
204 204 204
204 204 204
204 204 204
204 204 204
204 204 204
204 204 204
204 204 204
204 204 204
204 204 204
204 204 204
204 204 204
204 204 204
204 204 204
204 204 204
204 204 204
204 204 204
204 204 204
204 204 204
204 204 204
204 204 204
204 204 204
204 204 204
204 204 204
204 204 204
204 204 204
204 204 204
204 204 204
204 204 204
204 204 204
204 204 204
204 204 204
204 204 204
204 204 204
204 204 204
204 204 204
204 204 204
204 204 204
204 204 204
204 204 204
204 204 204
204 204 204
204 204 204
204 204 204
204 204 204
204 204 204
204 204 204
204 204 204
204 204 204
204 204 204
204 204 204
204 204 204
204 204 204
204 204 204
204 204 204
204 204 204
204 204 204
204 204 204
204 204 204
204 204 204
204 204 204
204 204 204
204 204 204
204 204 204
204 204 204
204 204 204
204 204 204
204 204 204
204 204 204
204 204 204
204 204 204
204 204 204
204 204 204
204 204 204
204 204 204
204 204 204
204 204 204
204 204 204
204 204 204
204 204 204
204 204 204
204 204 204
204 204 204
204 204 204
204 204 204
204 204 204
204 204 204
204 204 204
204 204 204
204 204 204
204 204 204
204 204 204
204 204 204
204 204 204
204 204 204
204 204 204
204 204 204
204 204 204
204 204 204
204 204 204
204 204 204
204 204 204
204 204 204
204 204 204
204 204 204
204 204 204
204 204 204
204 204 204
204 204 204
204 204 204
204 204 204
204 204 204
204 204 204
204 204 204
204 204 204
204 204 204
204 204 204
204 204 204
204 204 204
204 204 204
204 204 204
204 204 204
204 204 204
204 204 204
204 204 204
204 204 204
204 204 204
204 204 204
204 204 204
204 204 204
204 204 204
204 204 204
204 204 204
204 204 204
204 204 204
204 204 204
204 204 204
204 204 204
204 204 204
204 204 204
204 204 204
204 204 204
204 204 204
204 204 204
204 204 204
204 204 204
204 204 204
204 204 204
204 204 204
204 204 204
204 204 204
204 204 204
204 204 204
204 204 204
204 204 204
204 204 204
204 204 204
204 204 204
204 204 204
204 204 204
204 204 204
204 204 204
204 204 204
204 204 204
204 204 204
204 204 204
204 204 204
204 204 204
204 204 204
204 204 204
204 204 204
204 204 204
204 204 204
204 204 204
204 204 204
204 204 204
204 204 204
204 204 204
204 204 204
204 204 204
204 204 204
204 204 204
204 204 204
204 204 204
204 204 204
204 204 204
204 204 204
204 204 204
204 204 204
204 204 204
204 204 204
204 204 204
204 204 204
204 204 204
204 204 204
204 204 204
204 204 204
204 204 204
204 204 204
204 204 204
204 204 204
204 204 204
204 204 204
204 204 204
204 204 204
204 204 204
204 204 204
204 204 204
204 204 204
204 204 204
204 204 204
204 204 204
204 204 204
204 204 204
204 204 204
204 204 204
204 204 204
204 204 204
204 204 204
204 204 204
204 204 204
204 204 204
204 204 204
204 204 204
204 204 204
204 204 204
204 204 204
204 204 204
204 204 204
204 204 204
204 204 204
204 204 204
204 204 204
204 204 204
204 204 204
204 204 204
204 204 204
204 204 204
204 204 204
204 204 204
204 204 204
204 204 204
204 204 204
204 204 204
204 204 204
204 204 204
204 204 204
204 204 204
204 204 204
204 204 204
204 204 204
204 204 204
204 204 204
204 204 204
204 204 204
204 204 204
204 204 204
204 204 204
204 204 204
204 204 204
204 204 204
204 204 204
204 204 204
204 204 204
204 204 204
204 204 204
204 204 204
204 204 204
204 204 204
204 204 204
204 204 204
204 204 204
204 204 204
204 204 204
204 204 204
204 204 204
204 204 204
204 204 204
204 204 204
204 204 204
204 204 204
204 204 204
204 204 204
204 204 204
204 204 204
204 204 204
204 204 204
204 204 204
204 204 204
204 204 204
204 204 204
204 204 204
204 204 204
204 204 204
204 204 204
204 204 204
204 204 204
204 204 204
204 204 204
204 204 204
204 204 204
204 204 204
204 204 204
204 204 204
204 204 204
204 204 204
204 204 204
204 204 204
204 204 204
204 204 204
204 204 204
204 204 204
204 204 204
204 204 204
204 204 204
204 204 204
204 204 204
204 204 204
204 204 204
204 204 204
204 204 204
204 204 204
204 204 204
204 204 204
204 204 204
204 204 204
204 204 204
204 204 204
204 204 204
204 204 204
204 204 204
204 204 204
204 204 204
204 204 204
204 204 204
204 204 204
204 204 204
204 204 204
204 204 204
204 204 204
204 204 204
204 204 204
204 204 204
204 204 204
204 204 204
204 204 204
204 204 204
204 204 204
204 204 204
204 204 204
204 204 204
204 204 204
204 204 204
204 204 204
204 204 204
204 204 204
204 204 204
204 204 204
204 204 204
204 204 204
204 204 204
204 204 204
204 204 204
204 204 204
204 204 204
204 204 204
204 204 204
204 204 204
204 204 204
204 204 204
204 204 204
204 204 204
204 204 204
204 204 204
204 204 204
204 204 204
204 204 204
204 204 204
204 204 204
204 204 204
204 204 204
204 204 204
204 204 204
204 204 204
204 204 204
204 204 204
204 204 204
204 204 204
204 204 204
204 204 204
204 204 204
204 204 204
204 204 204
204 204 204
204 204 204
204 204 204
204 204 204
204 204 204
204 204 204
204 204 204
204 204 204
204 204 204
204 204 204
204 204 204
204 204 204
204 204 204
204 204 204
204 204 204
204 204 204
204 204 204
204 204 204
204 204 204
204 204 204
204 204 204
204 204 204
204 204 204
204 204 204
204 204 204
204 204 204
204 204 204
204 204 204
204 204 204
204 204 204
204 204 204
204 204 204
204 204 204
204 204 204
204 204 204
204 204 204
204 204 204
204 204 204
204 204 204
204 204 204
204 204 204
204 204 204
204 204 204
204 204 204
204 204 204
204 204 204
204 204 204
204 204 204
204 204 204
204 204 204
204 204 204
204 204 204
204 204 204
204 204 204
204 204 204
204 204 204
204 204 204
204 204 204
204 204 204
204 204 204
204 204 204
204 204 204
204 204 204
204 204 204
204 204 204
204 204 204
204 204 204
204 204 204
204 204 204
204 204 204
204 204 204
204 204 204
204 204 204
204 204 204
204 204 204
204 204 204
204 204 204
204 204 204
204 204 204
204 204 204
204 204 204
204 204 204
204 204 204
204 204 204
204 204 204
204 204 204
204 204 204
204 204 204
204 204 204
204 204 204
204 204 204
204 204 204
204 204 204
204 204 204
204 204 204
204 204 204
204 204 204
204 204 204
204 204 204
204 204 204
204 204 204
204 204 204
204 204 204
204 204 204
204 204 204
204 204 204
204 204 204
204 204 204
204 204 204
204 204 204
204 204 204
204 204 204
204 204 204
204 204 204
204 204 204
204 204 204
204 204 204
204 204 204
204 204 204
204 204 204
204 204 204
204 204 204
204 204 204
204 204 204
204 204 204
204 204 204
204 204 204
204 204 204
204 204 204
204 204 204
204 204 204
204 204 204
204 204 204
204 204 204
204 204 204
204 204 204
204 204 204
204 204 204
204 204 204
204 204 204
204 204 204
204 204 204
204 204 204
204 204 204
204 204 204
204 204 204
204 204 204
204 204 204
204 204 204
204 204 204
204 204 204
204 204 204
204 204 204
204 204 204
204 204 204
204 204 204
204 204 204
204 204 204
204 204 204
204 204 204
204 204 204
204 204 204
204 204 204
204 204 204
204 204 204
204 204 204
204 204 204
204 204 204
204 204 204
204 204 204
204 204 204
204 204 204
204 204 204
204 204 204
204 204 204
204 204 204
204 204 204
204 204 204
204 204 204
204 204 204
204 204 204
204 204 204
204 204 204
204 204 204
204 204 204
204 204 204
204 204 204
204 204 204
204 204 204
204 204 204
204 204 204
204 204 204
204 204 204
204 204 204
204 204 204
204 204 204
204 204 204
204 204 204
204 204 204
204 204 204
204 204 204
204 204 204
204 204 204
204 204 204
204 204 204
204 204 204
204 204 204
204 204 204
204 204 204
204 204 204
204 204 204
204 204 204
204 204 204
204 204 204
204 204 204
204 204 204
204 204 204
204 204 204
204 204 204
204 204 204
204 204 204
204 204 204
204 204 204
204 204 204
204 204 204
204 204 204
204 204 204
204 204 204
204 204 204
204 204 204
204 204 204
204 204 204
204 204 204
204 204 204
204 204 204
204 204 204
204 204 204
204 204 204
204 204 204
204 204 204
204 204 204
204 204 204
204 204 204
204 204 204
204 204 204
204 204 204
204 204 204
204 204 204
204 204 204
204 204 204
204 204 204
204 204 204
204 204 204
204 204 204
204 204 204
204 204 204
204 204 204
204 204 204
204 204 204
204 204 204
204 204 204
204 204 204
204 204 204
204 204 204
204 204 204
204 204 204
204 204 204
204 204 204
204 204 204
204 204 204
204 204 204
204 204 204
204 204 204
204 204 204
204 204 204
204 204 204
204 204 204
204 204 204
204 204 204
204 204 204
204 204 204
204 204 204
204 204 204
204 204 204
204 204 204
204 204 204
204 204 204
204 204 204
204 204 204
204 204 204
204 204 204
204 204 204
204 204 204
204 204 204
204 204 204
204 204 204
204 204 204
204 204 204
204 204 204
204 204 204
204 204 204
204 204 204
204 204 204
204 204 204
204 204 204
204 204 204
204 204 204
204 204 204
204 204 204
204 204 204
204 204 204
204 204 204
204 204 204
204 204 204
204 204 204
204 204 204
204 204 204
204 204 204
204 204 204
204 204 204
204 204 204
204 204 204
204 204 204
204 204 204
204 204 204
204 204 204
204 204 204
204 204 204
204 204 204
204 204 204
204 204 204
204 204 204
204 204 204
204 204 204
204 204 204
204 204 204
204 204 204
204 204 204
204 204 204
204 204 204
204 204 204
204 204 204
204 204 204
204 204 204
204 204 204
204 204 204
204 204 204
204 204 204
204 204 204
204 204 204
204 204 204
204 204 204
204 204 204
204 204 204
204 204 204
204 204 204
204 204 204
204 204 204
204 204 204
204 204 204
204 204 204
204 204 204
204 204 204
204 204 204
204 204 204
204 204 204
204 204 204
204 204 204
204 204 204
204 204 204
204 204 204
204 204 204
204 204 204
204 204 204
204 204 204
204 204 204
204 204 204
204 204 204
204 204 204
204 204 204
204 204 204
204 204 204
204 204 204
204 204 204
204 204 204
204 204 204
204 204 204
204 204 204
204 204 204
204 204 204
204 204 204
204 204 204
204 204 204
204 204 204
204 204 204
204 204 204
204 204 204
204 204 204
204 204 204
204 204 204
204 204 204
204 204 204
204 204 204
204 204 204
204 204 204
204 204 204
204 204 204
204 204 204
204 204 204
204 204 204
204 204 204
204 204 204
204 204 204
204 204 204
204 204 204
204 204 204
204 204 204
204 204 204
204 204 204
204 204 204
204 204 204
204 204 204
204 204 204
204 204 204
204 204 204
204 204 204
204 204 204
204 204 204
204 204 204
204 204 204
204 204 204
204 204 204
204 204 204
204 204 204
204 204 204
204 204 204
204 204 204
204 204 204
204 204 204
204 204 204
204 204 204
204 204 204
204 204 204
204 204 204
204 204 204
204 204 204
204 204 204
204 204 204
204 204 204
204 204 204
204 204 204
204 204 204
204 204 204
204 204 204
204 204 204
204 204 204
204 204 204
204 204 204
204 204 204
204 204 204
204 204 204
204 204 204
204 204 204
204 204 204
204 204 204
204 204 204
204 204 204
204 204 204
204 204 204
204 204 204
204 204 204
204 204 204
204 204 204
204 204 204
204 204 204
204 204 204
204 204 204
204 204 204
204 204 204
204 204 204
204 204 204
204 204 204
204 204 204
204 204 204
204 204 204
204 204 204
204 204 204
204 204 204
204 204 204
204 204 204
204 204 204
204 204 204
204 204 204
204 204 204
204 204 204
204 204 204
204 204 204
204 204 204
204 204 204
204 204 204
204 204 204
204 204 204
204 204 204
204 204 204
204 204 204
204 204 204
204 204 204
204 204 204
204 204 204
204 204 204
204 204 204
204 204 204
204 204 204
204 204 204
204 204 204
204 204 204
204 204 204
204 204 204
204 204 204
204 204 204
204 204 204
204 204 204
204 204 204
204 204 204
204 204 204
204 204 204
204 204 204
204 204 204
204 204 204
204 204 204
204 204 204
204 204 204
204 204 204
204 204 204
204 204 204
204 204 204
204 204 204
204 204 204
204 204 204
204 204 204
204 204 204
204 204 204
204 204 204
204 204 204
204 204 204
204 204 204
204 204 204
204 204 204
204 204 204
204 204 204
204 204 204
204 204 204
204 204 204
204 204 204
204 204 204
204 204 204
204 204 204
204 204 204
204 204 204
204 204 204
204 204 204
204 204 204
204 204 204
204 204 204
204 204 204
204 204 204
204 204 204
204 204 204
204 204 204
204 204 204
204 204 204
204 204 204
204 204 204
204 204 204
204 204 204
204 204 204
204 204 204
204 204 204
204 204 204
204 204 204
204 204 204
204 204 204
204 204 204
204 204 204
204 204 204
204 204 204
204 204 204
204 204 204
204 204 204
204 204 204
204 204 204
204 204 204
204 204 204
204 204 204
204 204 204
204 204 204
204 204 204
204 204 204
204 204 204
204 204 204
204 204 204
204 204 204
204 204 204
204 204 204
204 204 204
204 204 204
204 204 204
204 204 204
204 204 204
204 204 204
204 204 204
204 204 204
204 204 204
204 204 204
204 204 204
204 204 204
204 204 204
204 204 204
204 204 204
204 204 204
204 204 204
204 204 204
204 204 204
204 204 204
204 204 204
204 204 204
204 204 204
204 204 204
204 204 204
204 204 204
204 204 204
204 204 204
204 204 204
204 204 204
204 204 204
204 204 204
204 204 204
204 204 204
204 204 204
204 204 204
204 204 204
204 204 204
204 204 204
204 204 204
204 204 204
204 204 204
204 204 204
204 204 204
204 204 204
204 204 204
204 204 204
204 204 204
204 204 204
204 204 204
204 204 204
204 204 204
204 204 204
204 204 204
204 204 204
204 204 204
204 204 204
204 204 204
204 204 204
204 204 204
204 204 204
204 204 204
204 204 204
204 204 204
204 204 204
204 204 204
204 204 204
204 204 204
204 204 204
204 204 204
204 204 204
204 204 204
204 204 204
204 204 204
204 204 204
204 204 204
204 204 204
204 204 204
204 204 204
204 204 204
204 204 204
204 204 204
204 204 204
204 204 204
204 204 204
204 204 204
204 204 204
204 204 204
204 204 204
204 204 204
204 204 204
204 204 204
204 204 204
204 204 204
204 204 204
204 204 204
204 204 204
204 204 204
204 204 204
204 204 204
204 204 204
204 204 204
204 204 204
204 204 204
204 204 204
204 204 204
204 204 204
204 204 204
204 204 204
204 204 204
204 204 204
204 204 204
204 204 204
204 204 204
204 204 204
204 204 204
204 204 204
204 204 204
204 204 204
204 204 204
204 204 204
204 204 204
204 204 204
204 204 204
204 204 204
204 204 204
204 204 204
204 204 204
204 204 204
204 204 204
204 204 204
204 204 204
204 204 204
204 204 204
204 204 204
204 204 204
204 204 204
204 204 204
204 204 204
204 204 204
204 204 204
204 204 204
204 204 204
204 204 204
204 204 204
204 204 204
204 204 204
204 204 204
204 204 204
204 204 204
204 204 204
204 204 204
204 204 204
204 204 204
204 204 204
204 204 204
204 204 204
204 204 204
204 204 204
204 204 204
204 204 204
204 204 204
204 204 204
204 204 204
204 204 204
204 204 204
204 204 204
204 204 204
204 204 204
204 204 204
204 204 204
204 204 204
204 204 204
204 204 204
204 204 204
204 204 204
204 204 204
204 204 204
204 204 204
204 204 204
204 204 204
204 204 204
204 204 204
204 204 204
204 204 204
204 204 204
204 204 204
204 204 204
204 204 204
204 204 204
204 204 204
204 204 204
204 204 204
204 204 204
204 204 204
204 204 204
204 204 204
204 204 204
204 204 204
204 204 204
204 204 204
204 204 204
204 204 204
204 204 204
204 204 204
204 204 204
204 204 204
204 204 204
204 204 204
204 204 204
204 204 204
204 204 204
204 204 204
204 204 204
204 204 204
204 204 204
204 204 204
204 204 204
204 204 204
204 204 204
204 204 204
204 204 204
204 204 204
204 204 204
204 204 204
204 204 204
204 204 204
204 204 204
204 204 204
204 204 204
204 204 204
204 204 204
204 204 204
204 204 204
204 204 204
204 204 204
204 204 204
204 204 204
204 204 204
204 204 204
204 204 204
204 204 204
204 204 204
204 204 204
204 204 204
204 204 204
204 204 204
204 204 204
204 204 204
204 204 204
204 204 204
204 204 204
204 204 204
204 204 204
204 204 204
204 204 204
204 204 204
204 204 204
204 204 204
204 204 204
204 204 204
204 204 204
204 204 204
204 204 204
204 204 204
204 204 204
204 204 204
204 204 204
204 204 204
204 204 204
204 204 204
204 204 204
204 204 204
204 204 204
204 204 204
204 204 204
204 204 204
204 204 204
204 204 204
204 204 204
204 204 204
204 204 204
204 204 204
204 204 204
204 204 204
204 204 204
204 204 204
204 204 204
204 204 204
204 204 204
204 204 204
204 204 204
204 204 204
204 204 204
204 204 204
204 204 204
204 204 204
204 204 204
204 204 204
204 204 204
204 204 204
204 204 204
204 204 204
204 204 204
204 204 204
204 204 204
204 204 204
204 204 204
204 204 204
204 204 204
204 204 204
204 204 204
204 204 204
204 204 204
204 204 204
204 204 204
204 204 204
204 204 204
204 204 204
204 204 204
204 204 204
204 204 204
204 204 204
204 204 204
204 204 204
204 204 204
204 204 204
204 204 204
204 204 204
204 204 204
204 204 204
204 204 204
204 204 204
204 204 204
204 204 204
204 204 204
204 204 204
204 204 204
204 204 204
204 204 204
204 204 204
204 204 204
204 204 204
204 204 204
204 204 204
204 204 204
204 204 204
204 204 204
204 204 204
204 204 204
204 204 204
204 204 204
204 204 204
204 204 204
204 204 204
204 204 204
204 204 204
204 204 204
204 204 204
204 204 204
204 204 204
204 204 204
204 204 204
204 204 204
204 204 204
204 204 204
204 204 204
204 204 204
204 204 204
204 204 204
204 204 204
204 204 204
204 204 204
204 204 204
204 204 204
204 204 204
204 204 204
204 204 204
204 204 204
204 204 204
204 204 204
204 204 204
204 204 204
204 204 204
204 204 204
204 204 204
204 204 204
204 204 204
204 204 204
204 204 204
204 204 204
204 204 204
204 204 204
204 204 204
204 204 204
204 204 204
204 204 204
204 204 204
204 204 204
204 204 204
204 204 204
204 204 204
204 204 204
204 204 204
204 204 204
204 204 204
204 204 204
204 204 204
204 204 204
204 204 204
204 204 204
204 204 204
204 204 204
204 204 204
204 204 204
204 204 204
204 204 204
204 204 204
204 204 204
204 204 204
204 204 204
204 204 204
204 204 204
204 204 204
204 204 204
204 204 204
204 204 204
204 204 204
204 204 204
204 204 204
204 204 204
204 204 204
204 204 204
204 204 204
204 204 204
204 204 204
204 204 204
204 204 204
204 204 204
204 204 204
204 204 204
204 204 204
204 204 204
204 204 204
204 204 204
204 204 204
204 204 204
204 204 204
204 204 204
204 204 204
204 204 204
204 204 204
204 204 204
204 204 204
204 204 204
204 204 204
204 204 204
204 204 204
204 204 204
204 204 204
204 204 204
204 204 204
204 204 204
204 204 204
204 204 204
204 204 204
204 204 204
204 204 204
204 204 204
204 204 204
204 204 204
204 204 204
204 204 204
204 204 204
204 204 204
204 204 204
204 204 204
204 204 204
204 204 204
204 204 204
204 204 204
204 204 204
204 204 204
204 204 204
204 204 204
204 204 204
204 204 204
204 204 204
204 204 204
204 204 204
204 204 204
204 204 204
204 204 204
204 204 204
204 204 204
204 204 204
204 204 204
204 204 204
204 204 204
204 204 204
204 204 204
204 204 204
204 204 204
204 204 204
204 204 204
204 204 204
204 204 204
204 204 204
204 204 204
204 204 204
204 204 204
204 204 204
204 204 204
204 204 204
204 204 204
204 204 204
204 204 204
204 204 204
204 204 204
204 204 204
204 204 204
204 204 204
204 204 204
204 204 204
204 204 204
204 204 204
204 204 204
204 204 204
204 204 204
204 204 204
204 204 204
204 204 204
204 204 204
204 204 204
204 204 204
204 204 204
204 204 204
204 204 204
204 204 204
204 204 204
204 204 204
204 204 204
204 204 204
204 204 204
204 204 204
204 204 204
204 204 204
204 204 204
204 204 204
204 204 204
204 204 204
204 204 204
204 204 204
204 204 204
204 204 204
204 204 204
204 204 204
204 204 204
204 204 204
204 204 204
204 204 204
204 204 204
204 204 204
204 204 204
204 204 204
204 204 204
204 204 204
204 204 204
204 204 204
204 204 204
204 204 204
204 204 204
204 204 204
204 204 204
204 204 204
204 204 204
204 204 204
204 204 204
204 204 204
204 204 204
204 204 204
204 204 204
204 204 204
204 204 204
204 204 204
204 204 204
204 204 204
204 204 204
204 204 204
204 204 204
204 204 204
204 204 204
204 204 204
204 204 204
204 204 204
204 204 204
204 204 204
204 204 204
204 204 204
204 204 204
204 204 204
204 204 204
204 204 204
204 204 204
204 204 204
204 204 204
204 204 204
204 204 204
204 204 204
204 204 204
204 204 204
204 204 204
204 204 204
204 204 204
204 204 204
204 204 204
204 204 204
204 204 204
204 204 204
204 204 204
204 204 204
204 204 204
204 204 204
204 204 204
204 204 204
204 204 204
204 204 204
204 204 204
204 204 204
204 204 204
204 204 204
204 204 204
204 204 204
204 204 204
204 204 204
204 204 204
204 204 204
204 204 204
204 204 204
204 204 204
204 204 204
204 204 204
204 204 204
204 204 204
204 204 204
204 204 204
204 204 204
204 204 204
204 204 204
204 204 204
204 204 204
204 204 204
204 204 204
204 204 204
204 204 204
204 204 204
204 204 204
204 204 204
204 204 204
204 204 204
204 204 204
204 204 204
204 204 204
204 204 204
204 204 204
204 204 204
204 204 204
204 204 204
204 204 204
204 204 204
204 204 204
204 204 204
204 204 204
204 204 204
204 204 204
204 204 204
204 204 204
204 204 204
204 204 204
204 204 204
204 204 204
204 204 204
204 204 204
204 204 204
204 204 204
204 204 204
204 204 204
204 204 204
204 204 204
204 204 204
204 204 204
204 204 204
204 204 204
204 204 204
204 204 204
204 204 204
204 204 204
204 204 204
204 204 204
204 204 204
204 204 204
204 204 204
204 204 204
204 204 204
204 204 204
204 204 204
204 204 204
204 204 204
204 204 204
204 204 204
204 204 204
204 204 204
204 204 204
204 204 204
204 204 204
204 204 204
204 204 204
204 204 204
204 204 204
204 204 204
204 204 204
204 204 204
204 204 204
204 204 204
204 204 204
204 204 204
204 204 204
204 204 204
204 204 204
204 204 204
204 204 204
204 204 204
204 204 204
204 204 204
204 204 204
204 204 204
204 204 204
204 204 204
204 204 204
204 204 204
204 204 204
204 204 204
204 204 204
204 204 204
204 204 204
204 204 204
204 204 204
204 204 204
204 204 204
204 204 204
204 204 204
204 204 204
204 204 204
204 204 204
204 204 204
204 204 204
204 204 204
204 204 204
204 204 204
204 204 204
204 204 204
204 204 204
204 204 204
204 204 204
204 204 204
204 204 204
204 204 204
204 204 204
204 204 204
204 204 204
204 204 204
204 204 204
204 204 204
204 204 204
204 204 204
204 204 204
204 204 204
204 204 204
204 204 204
204 204 204
204 204 204
204 204 204
204 204 204
204 204 204
204 204 204
204 204 204
204 204 204
204 204 204
204 204 204
204 204 204
204 204 204
204 204 204
204 204 204
204 204 204
204 204 204
204 204 204
204 204 204
204 204 204
204 204 204
204 204 204
204 204 204
204 204 204
204 204 204
204 204 204
204 204 204
204 204 204
204 204 204
204 204 204
204 204 204
204 204 204
204 204 204
204 204 204
204 204 204
204 204 204
204 204 204
204 204 204
204 204 204
204 204 204
204 204 204
204 204 204
204 204 204
204 204 204
204 204 204
204 204 204
204 204 204
204 204 204
204 204 204
204 204 204
204 204 204
204 204 204
204 204 204
204 204 204
204 204 204
204 204 204
204 204 204
204 204 204
204 204 204
204 204 204
204 204 204
204 204 204
204 204 204
204 204 204
204 204 204
204 204 204
204 204 204
204 204 204
204 204 204
204 204 204
204 204 204
204 204 204
204 204 204
204 204 204
204 204 204
204 204 204
204 204 204
204 204 204
204 204 204
204 204 204
204 204 204
204 204 204
204 204 204
204 204 204
204 204 204
204 204 204
204 204 204
204 204 204
204 204 204
204 204 204
204 204 204
204 204 204
204 204 204
204 204 204
204 204 204
204 204 204
204 204 204
204 204 204
204 204 204
204 204 204
204 204 204
204 204 204
204 204 204
204 204 204
204 204 204
204 204 204
204 204 204
204 204 204
204 204 204
204 204 204
204 204 204
204 204 204
204 204 204
204 204 204
204 204 204
204 204 204
204 204 204
204 204 204
204 204 204
204 204 204
204 204 204
204 204 204
204 204 204
204 204 204
204 204 204
204 204 204
204 204 204
204 204 204
204 204 204
204 204 204
204 204 204
204 204 204
204 204 204
204 204 204
204 204 204
204 204 204
204 204 204
204 204 204
204 204 204
204 204 204
204 204 204
204 204 204
204 204 204
204 204 204
204 204 204
204 204 204
204 204 204
204 204 204
204 204 204
204 204 204
204 204 204
204 204 204
204 204 204
204 204 204
204 204 204
204 204 204
204 204 204
204 204 204
204 204 204
204 204 204
204 204 204
204 204 204
204 204 204
204 204 204
204 204 204
204 204 204
204 204 204
204 204 204
204 204 204
204 204 204
204 204 204
204 204 204
204 204 204
204 204 204
204 204 204
204 204 204
204 204 204
204 204 204
204 204 204
204 204 204
204 204 204
204 204 204
204 204 204
204 204 204
204 204 204
204 204 204
204 204 204
204 204 204
204 204 204
204 204 204
204 204 204
204 204 204
204 204 204
204 204 204
204 204 204
204 204 204
204 204 204
204 204 204
204 204 204
204 204 204
204 204 204
204 204 204
204 204 204
204 204 204
204 204 204
204 204 204
204 204 204
204 204 204
204 204 204
204 204 204
204 204 204
204 204 204
204 204 204
204 204 204
204 204 204
204 204 204
204 204 204
204 204 204
204 204 204
204 204 204
204 204 204
204 204 204
204 204 204
204 204 204
204 204 204
204 204 204
204 204 204
204 204 204
204 204 204
204 204 204
204 204 204
204 204 204
204 204 204
204 204 204
204 204 204
204 204 204
204 204 204
204 204 204
204 204 204
204 204 204
204 204 204
204 204 204
204 204 204
204 204 204
204 204 204
204 204 204
204 204 204
204 204 204
204 204 204
204 204 204
204 204 204
204 204 204
204 204 204
204 204 204
204 204 204
204 204 204
204 204 204
204 204 204
204 204 204
204 204 204
204 204 204
204 204 204
204 204 204
204 204 204
204 204 204
204 204 204
204 204 204
204 204 204
204 204 204
204 204 204
204 204 204
204 204 204
204 204 204
204 204 204
204 204 204
204 204 204
204 204 204
204 204 204
204 204 204
204 204 204
204 204 204
204 204 204
204 204 204
204 204 204
204 204 204
204 204 204
204 204 204
204 204 204
204 204 204
204 204 204
204 204 204
204 204 204
204 204 204
204 204 204
204 204 204
204 204 204
204 204 204
204 204 204
204 204 204
204 204 204
204 204 204
204 204 204
204 204 204
204 204 204
204 204 204
204 204 204
204 204 204
204 204 204
204 204 204
204 204 204
204 204 204
204 204 204
204 204 204
204 204 204
204 204 204
204 204 204
204 204 204
204 204 204
204 204 204
204 204 204
204 204 204
204 204 204
204 204 204
204 204 204
204 204 204
204 204 204
204 204 204
204 204 204
204 204 204
204 204 204
204 204 204
204 204 204
204 204 204
204 204 204
204 204 204
204 204 204
204 204 204
204 204 204
204 204 204
204 204 204
204 204 204
204 204 204
204 204 204
204 204 204
204 204 204
204 204 204
204 204 204
204 204 204
204 204 204
204 204 204
204 204 204
204 204 204
204 204 204
204 204 204
204 204 204
204 204 204
204 204 204
204 204 204
204 204 204
204 204 204
204 204 204
204 204 204
204 204 204
204 204 204
204 204 204
204 204 204
204 204 204
204 204 204
204 204 204
204 204 204
204 204 204
204 204 204
204 204 204
204 204 204
204 204 204
204 204 204
204 204 204
204 204 204
204 204 204
204 204 204
204 204 204
204 204 204
204 204 204
204 204 204
204 204 204
204 204 204
204 204 204
204 204 204
204 204 204
204 204 204
204 204 204
204 204 204
204 204 204
204 204 204
204 204 204
204 204 204
204 204 204
204 204 204
204 204 204
204 204 204
204 204 204
204 204 204
204 204 204
204 204 204
204 204 204
204 204 204
204 204 204
204 204 204
204 204 204
204 204 204
204 204 204
204 204 204
204 204 204
204 204 204
204 204 204
204 204 204
204 204 204
204 204 204
204 204 204
204 204 204
204 204 204
204 204 204
204 204 204
204 204 204
204 204 204
204 204 204
204 204 204
204 204 204
204 204 204
204 204 204
204 204 204
204 204 204
204 204 204
204 204 204
204 204 204
204 204 204
204 204 204
204 204 204
204 204 204
204 204 204
204 204 204
204 204 204
204 204 204
204 204 204
204 204 204
204 204 204
204 204 204
204 204 204
204 204 204
204 204 204
204 204 204
204 204 204
204 204 204
204 204 204
204 204 204
204 204 204
204 204 204
204 204 204
204 204 204
204 204 204
204 204 204
204 204 204
204 204 204
204 204 204
204 204 204
204 204 204
204 204 204
204 204 204
204 204 204
204 204 204
204 204 204
204 204 204
204 204 204
204 204 204
204 204 204
204 204 204
204 204 204
204 204 204
204 204 204
204 204 204
204 204 204
204 204 204
204 204 204
204 204 204
204 204 204
204 204 204
204 204 204
204 204 204
204 204 204
204 204 204
204 204 204
204 204 204
204 204 204
204 204 204
204 204 204
204 204 204
204 204 204
204 204 204
204 204 204
204 204 204
204 204 204
204 204 204
204 204 204
204 204 204
204 204 204
204 204 204
204 204 204
204 204 204
204 204 204
204 204 204
204 204 204
204 204 204
204 204 204
204 204 204
204 204 204
204 204 204
204 204 204
204 204 204
204 204 204
204 204 204
204 204 204
204 204 204
204 204 204
204 204 204
204 204 204
204 204 204
204 204 204
204 204 204
204 204 204
204 204 204
204 204 204
204 204 204
204 204 204
204 204 204
204 204 204
204 204 204
204 204 204
204 204 204
204 204 204
204 204 204
204 204 204
204 204 204
204 204 204
204 204 204
204 204 204
204 204 204
204 204 204
204 204 204
204 204 204
204 204 204
204 204 204
204 204 204
204 204 204
204 204 204
204 204 204
204 204 204
204 204 204
204 204 204
204 204 204
204 204 204
204 204 204
204 204 204
204 204 204
204 204 204
204 204 204
204 204 204
204 204 204
204 204 204
204 204 204
204 204 204
204 204 204
204 204 204
204 204 204
204 204 204
204 204 204
204 204 204
204 204 204
204 204 204
204 204 204
204 204 204
204 204 204
204 204 204
204 204 204
204 204 204
204 204 204
204 204 204
204 204 204
204 204 204
204 204 204
204 204 204
204 204 204
204 204 204
204 204 204
204 204 204
204 204 204
204 204 204
204 204 204
204 204 204
204 204 204
204 204 204
204 204 204
204 204 204
204 204 204
204 204 204
204 204 204
204 204 204
204 204 204
204 204 204
204 204 204
204 204 204
204 204 204
204 204 204
204 204 204
204 204 204
204 204 204
204 204 204
204 204 204
204 204 204
204 204 204
204 204 204
204 204 204
204 204 204
204 204 204
204 204 204
204 204 204
204 204 204
204 204 204
204 204 204
204 204 204
204 204 204
204 204 204
204 204 204
204 204 204
204 204 204
204 204 204
204 204 204
204 204 204
204 204 204
204 204 204
204 204 204
204 204 204
204 204 204
204 204 204
204 204 204
204 204 204
204 204 204
204 204 204
204 204 204
204 204 204
204 204 204
204 204 204
204 204 204
204 204 204
204 204 204
204 204 204
204 204 204
204 204 204
204 204 204
204 204 204
204 204 204
204 204 204
204 204 204
204 204 204
204 204 204
204 204 204
204 204 204
204 204 204
204 204 204
204 204 204
204 204 204
204 204 204
204 204 204
204 204 204
204 204 204
204 204 204
204 204 204
204 204 204
204 204 204
204 204 204
204 204 204
204 204 204
204 204 204
204 204 204
204 204 204
204 204 204
204 204 204
204 204 204
204 204 204
204 204 204
204 204 204
204 204 204
204 204 204
204 204 204
204 204 204
204 204 204
204 204 204
204 204 204
204 204 204
204 204 204
204 204 204
204 204 204
204 204 204
204 204 204
204 204 204
204 204 204
204 204 204
204 204 204
204 204 204
204 204 204
204 204 204
204 204 204
204 204 204
204 204 204
204 204 204
204 204 204
204 204 204
204 204 204
204 204 204
204 204 204
204 204 204
204 204 204
204 204 204
204 204 204
204 204 204
204 204 204
204 204 204
204 204 204
204 204 204
204 204 204
204 204 204
204 204 204
204 204 204
204 204 204
204 204 204
204 204 204
204 204 204
204 204 204
204 204 204
204 204 204
204 204 204
204 204 204
204 204 204
204 204 204
204 204 204
204 204 204
204 204 204
204 204 204
204 204 204
204 204 204
204 204 204
204 204 204
204 204 204
204 204 204
204 204 204
204 204 204
204 204 204
204 204 204
204 204 204
204 204 204
204 204 204
204 204 204
204 204 204
204 204 204
204 204 204
204 204 204
204 204 204
204 204 204
204 204 204
204 204 204
204 204 204
204 204 204
204 204 204
204 204 204
204 204 204
204 204 204
204 204 204
204 204 204
204 204 204
204 204 204
204 204 204
204 204 204
204 204 204
204 204 204
204 204 204
204 204 204
204 204 204
204 204 204
204 204 204
204 204 204
204 204 204
204 204 204
204 204 204
204 204 204
204 204 204
204 204 204
204 204 204
204 204 204
204 204 204
204 204 204
204 204 204
204 204 204
204 204 204
204 204 204
204 204 204
204 204 204
204 204 204
204 204 204
204 204 204
204 204 204
204 204 204
204 204 204
204 204 204
204 204 204
204 204 204
204 204 204
204 204 204
204 204 204
204 204 204
204 204 204
204 204 204
204 204 204
204 204 204
204 204 204
204 204 204
204 204 204
204 204 204
204 204 204
204 204 204
204 204 204
204 204 204
204 204 204
204 204 204
204 204 204
204 204 204
204 204 204
204 204 204
204 204 204
204 204 204
204 204 204
204 204 204
204 204 204
204 204 204
204 204 204
204 204 204
204 204 204
204 204 204
204 204 204
204 204 204
204 204 204
204 204 204
204 204 204
204 204 204
204 204 204
204 204 204
204 204 204
204 204 204
204 204 204
204 204 204
204 204 204
204 204 204
204 204 204
204 204 204
204 204 204
204 204 204
204 204 204
204 204 204
204 204 204
204 204 204
204 204 204
204 204 204
204 204 204
204 204 204
204 204 204
204 204 204
204 204 204
204 204 204
204 204 204
204 204 204
204 204 204
204 204 204
204 204 204
204 204 204
204 204 204
204 204 204
204 204 204
204 204 204
204 204 204
204 204 204
204 204 204
204 204 204
204 204 204
204 204 204
204 204 204
204 204 204
204 204 204
204 204 204
204 204 204
204 204 204
204 204 204
204 204 204
204 204 204
204 204 204
204 204 204
204 204 204
204 204 204
204 204 204
204 204 204
204 204 204
204 204 204
204 204 204
204 204 204
204 204 204
204 204 204
204 204 204
204 204 204
204 204 204
204 204 204
204 204 204
204 204 204
204 204 204
204 204 204
204 204 204
204 204 204
204 204 204
204 204 204
204 204 204
204 204 204
204 204 204
204 204 204
204 204 204
204 204 204
204 204 204
204 204 204
204 204 204
204 204 204
204 204 204
204 204 204
204 204 204
204 204 204
204 204 204
204 204 204
204 204 204
204 204 204
204 204 204
204 204 204
204 204 204
204 204 204
204 204 204
204 204 204
204 204 204
204 204 204
204 204 204
204 204 204
204 204 204
204 204 204
204 204 204
204 204 204
204 204 204
204 204 204
204 204 204
204 204 204
204 204 204
204 204 204
204 204 204
204 204 204
204 204 204
204 204 204
204 204 204
204 204 204
204 204 204
204 204 204
204 204 204
204 204 204
204 204 204
204 204 204
204 204 204
204 204 204
204 204 204
204 204 204
204 204 204
204 204 204
204 204 204
204 204 204
204 204 204
204 204 204
204 204 204
204 204 204
204 204 204
204 204 204
204 204 204
204 204 204
204 204 204
204 204 204
204 204 204
204 204 204
204 204 204
204 204 204
204 204 204
204 204 204
204 204 204
204 204 204
204 204 204
204 204 204
204 204 204
204 204 204
204 204 204
204 204 204
204 204 204
204 204 204
204 204 204
204 204 204
204 204 204
204 204 204
204 204 204
204 204 204
204 204 204
204 204 204
204 204 204
204 204 204
204 204 204
204 204 204
204 204 204
204 204 204
204 204 204
204 204 204
204 204 204
204 204 204
204 204 204
204 204 204
204 204 204
204 204 204
204 204 204
204 204 204
204 204 204
204 204 204
204 204 204
204 204 204
204 204 204
204 204 204
204 204 204
204 204 204
204 204 204
204 204 204
204 204 204
204 204 204
204 204 204
204 204 204
204 204 204
204 204 204
204 204 204
204 204 204
204 204 204
204 204 204
204 204 204
204 204 204
204 204 204
204 204 204
204 204 204
204 204 204
204 204 204
204 204 204
204 204 204
204 204 204
204 204 204
204 204 204
204 204 204
204 204 204
204 204 204
204 204 204
204 204 204
204 204 204
204 204 204
204 204 204
204 204 204
204 204 204
204 204 204
204 204 204
204 204 204
204 204 204
204 204 204
204 204 204
204 204 204
204 204 204
204 204 204
204 204 204
204 204 204
204 204 204
204 204 204
204 204 204
204 204 204
204 204 204
204 204 204
204 204 204
204 204 204
204 204 204
204 204 204
204 204 204
204 204 204
204 204 204
204 204 204
204 204 204
204 204 204
204 204 204
204 204 204
204 204 204
204 204 204
204 204 204
204 204 204
204 204 204
204 204 204
204 204 204
204 204 204
204 204 204
204 204 204
204 204 204
204 204 204
204 204 204
204 204 204
204 204 204
204 204 204
204 204 204
204 204 204
204 204 204
204 204 204
204 204 204
204 204 204
204 204 204
204 204 204
204 204 204
204 204 204
204 204 204
204 204 204
204 204 204
204 204 204
204 204 204
204 204 204
204 204 204
204 204 204
204 204 204
204 204 204
204 204 204
204 204 204
204 204 204
204 204 204
204 204 204
204 204 204
204 204 204
204 204 204
204 204 204
204 204 204
204 204 204
204 204 204
204 204 204
204 204 204
204 204 204
204 204 204
204 204 204
204 204 204
204 204 204
204 204 204
204 204 204
204 204 204
204 204 204
204 204 204
204 204 204
204 204 204
204 204 204
204 204 204
204 204 204
204 204 204
204 204 204
204 204 204
204 204 204
204 204 204
204 204 204
204 204 204
204 204 204
204 204 204
204 204 204
204 204 204
204 204 204
204 204 204
204 204 204
204 204 204
204 204 204
204 204 204
204 204 204
204 204 204
204 204 204
204 204 204
204 204 204
204 204 204
204 204 204
204 204 204
204 204 204
204 204 204
204 204 204
204 204 204
204 204 204
204 204 204
204 204 204
204 204 204
204 204 204
204 204 204
204 204 204
204 204 204
204 204 204
204 204 204
204 204 204
204 204 204
204 204 204
204 204 204
204 204 204
204 204 204
204 204 204
204 204 204
204 204 204
204 204 204
204 204 204
204 204 204
204 204 204
204 204 204
204 204 204
204 204 204
204 204 204
204 204 204
204 204 204
204 204 204
204 204 204
204 204 204
204 204 204
204 204 204
204 204 204
204 204 204
204 204 204
204 204 204
204 204 204
204 204 204
204 204 204
204 204 204
204 204 204
204 204 204
204 204 204
204 204 204
204 204 204
204 204 204
204 204 204
204 204 204
204 204 204
204 204 204
204 204 204
204 204 204
204 204 204
204 204 204
204 204 204
204 204 204
204 204 204
204 204 204
204 204 204
204 204 204
204 204 204
204 204 204
204 204 204
204 204 204
204 204 204
204 204 204
204 204 204
204 204 204
204 204 204
204 204 204
204 204 204
204 204 204
204 204 204
204 204 204
204 204 204
204 204 204
204 204 204
204 204 204
204 204 204
204 204 204
204 204 204
204 204 204
204 204 204
204 204 204
204 204 204
204 204 204
204 204 204
204 204 204
204 204 204
204 204 204
204 204 204
204 204 204
204 204 204
204 204 204
204 204 204
204 204 204
204 204 204
204 204 204
204 204 204
204 204 204
204 204 204
204 204 204
204 204 204
204 204 204
204 204 204
204 204 204
204 204 204
204 204 204
204 204 204
204 204 204
204 204 204
204 204 204
204 204 204
204 204 204
204 204 204
204 204 204
204 204 204
204 204 204
204 204 204
204 204 204
204 204 204
204 204 204
204 204 204
204 204 204
204 204 204
204 204 204
204 204 204
204 204 204
204 204 204
204 204 204
204 204 204
204 204 204
204 204 204
204 204 204
204 204 204
204 204 204
204 204 204
204 204 204
204 204 204
204 204 204
204 204 204
204 204 204
204 204 204
204 204 204
204 204 204
204 204 204
204 204 204
204 204 204
204 204 204
204 204 204
204 204 204
204 204 204
204 204 204
204 204 204
204 204 204
204 204 204
204 204 204
204 204 204
204 204 204
204 204 204
204 204 204
204 204 204
204 204 204
204 204 204
204 204 204
204 204 204
204 204 204
204 204 204
204 204 204
204 204 204
204 204 204
204 204 204
204 204 204
204 204 204
204 204 204
204 204 204
204 204 204
204 204 204
204 204 204
204 204 204
204 204 204
204 204 204
204 204 204
204 204 204
204 204 204
204 204 204
204 204 204
204 204 204
204 204 204
204 204 204
204 204 204
204 204 204
204 204 204
204 204 204
204 204 204
204 204 204
204 204 204
204 204 204
204 204 204
204 204 204
204 204 204
204 204 204
204 204 204
204 204 204
204 204 204
204 204 204
204 204 204
204 204 204
204 204 204
204 204 204
204 204 204
204 204 204
204 204 204
204 204 204
204 204 204
204 204 204
204 204 204
204 204 204
204 204 204
204 204 204
204 204 204
204 204 204
204 204 204
204 204 204
204 204 204
204 204 204
204 204 204
204 204 204
204 204 204
204 204 204
204 204 204
204 204 204
204 204 204
204 204 204
204 204 204
204 204 204
204 204 204
204 204 204
204 204 204
204 204 204
204 204 204
204 204 204
204 204 204
204 204 204
204 204 204
204 204 204
204 204 204
204 204 204
204 204 204
204 204 204
204 204 204
204 204 204
204 204 204
204 204 204
204 204 204
204 204 204
204 204 204
204 204 204
204 204 204
204 204 204
204 204 204
204 204 204
204 204 204
204 204 204
204 204 204
204 204 204
204 204 204
204 204 204
204 204 204
204 204 204
204 204 204
204 204 204
204 204 204
204 204 204
204 204 204
204 204 204
204 204 204
204 204 204
204 204 204
204 204 204
204 204 204
204 204 204
204 204 204
204 204 204
204 204 204
204 204 204
204 204 204
204 204 204
204 204 204
204 204 204
204 204 204
204 204 204
204 204 204
204 204 204
204 204 204
204 204 204
204 204 204
204 204 204
204 204 204
204 204 204
204 204 204
204 204 204
204 204 204
204 204 204
204 204 204
204 204 204
204 204 204
204 204 204
204 204 204
204 204 204
204 204 204
204 204 204
204 204 204
204 204 204
204 204 204
204 204 204
204 204 204
204 204 204
204 204 204
204 204 204
204 204 204
204 204 204
204 204 204
204 204 204
204 204 204
204 204 204
204 204 204
204 204 204
204 204 204
204 204 204
204 204 204
204 204 204
204 204 204
204 204 204
204 204 204
204 204 204
204 204 204
204 204 204
204 204 204
204 204 204
204 204 204
204 204 204
204 204 204
204 204 204
204 204 204
204 204 204
204 204 204
204 204 204
204 204 204
204 204 204
204 204 204
204 204 204
204 204 204
204 204 204
204 204 204
204 204 204
204 204 204
204 204 204
204 204 204
204 204 204
204 204 204
204 204 204
204 204 204
204 204 204
204 204 204
204 204 204
204 204 204
204 204 204
204 204 204
204 204 204
204 204 204
204 204 204
204 204 204
204 204 204
204 204 204
204 204 204
204 204 204
204 204 204
204 204 204
204 204 204
204 204 204
204 204 204
204 204 204
204 204 204
204 204 204
204 204 204
204 204 204
204 204 204
204 204 204
204 204 204
204 204 204
204 204 204
204 204 204
204 204 204
204 204 204
204 204 204
204 204 204
204 204 204
204 204 204
204 204 204
204 204 204
204 204 204
204 204 204
204 204 204
204 204 204
204 204 204
204 204 204
204 204 204
204 204 204
204 204 204
204 204 204
204 204 204
204 204 204
204 204 204
204 204 204
204 204 204
204 204 204
204 204 204
204 204 204
204 204 204
204 204 204
204 204 204
204 204 204
204 204 204
204 204 204
204 204 204
204 204 204
204 204 204
204 204 204
204 204 204
204 204 204
204 204 204
204 204 204
204 204 204
204 204 204
204 204 204
204 204 204
204 204 204
204 204 204
204 204 204
204 204 204
204 204 204
204 204 204
204 204 204
204 204 204
204 204 204
204 204 204
204 204 204
204 204 204
204 204 204
204 204 204
204 204 204
204 204 204
204 204 204
204 204 204
204 204 204
204 204 204
204 204 204
204 204 204
204 204 204
204 204 204
204 204 204
204 204 204
204 204 204
204 204 204
204 204 204
204 204 204
204 204 204
204 204 204
204 204 204
204 204 204
204 204 204
204 204 204
204 204 204
204 204 204
204 204 204
204 204 204
204 204 204
204 204 204
204 204 204
204 204 204
204 204 204
204 204 204
204 204 204
204 204 204
204 204 204
204 204 204
204 204 204
204 204 204
204 204 204
204 204 204
204 204 204
204 204 204
204 204 204
204 204 204
204 204 204
204 204 204
204 204 204
204 204 204
204 204 204
204 204 204
204 204 204
204 204 204
204 204 204
204 204 204
204 204 204
204 204 204
204 204 204
204 204 204
204 204 204
204 204 204
204 204 204
204 204 204
204 204 204
204 204 204
204 204 204
204 204 204
204 204 204
204 204 204
204 204 204
204 204 204
204 204 204
204 204 204
204 204 204
204 204 204
204 204 204
204 204 204
204 204 204
204 204 204
204 204 204
204 204 204
204 204 204
204 204 204
204 204 204
204 204 204
204 204 204
204 204 204
204 204 204
204 204 204
204 204 204
204 204 204
204 204 204
204 204 204
204 204 204
204 204 204
204 204 204
204 204 204
204 204 204
204 204 204
204 204 204
204 204 204
204 204 204
204 204 204
204 204 204
204 204 204
204 204 204
204 204 204
204 204 204
204 204 204
204 204 204
204 204 204
204 204 204
204 204 204
204 204 204
204 204 204
204 204 204
204 204 204
204 204 204
204 204 204
204 204 204
204 204 204
204 204 204
204 204 204
204 204 204
204 204 204
204 204 204
204 204 204
204 204 204
204 204 204
204 204 204
204 204 204
204 204 204
204 204 204
204 204 204
204 204 204
204 204 204
204 204 204
204 204 204
204 204 204
204 204 204
204 204 204
204 204 204
204 204 204
204 204 204
204 204 204
204 204 204
204 204 204
204 204 204
204 204 204
204 204 204
204 204 204
204 204 204
204 204 204
204 204 204
204 204 204
204 204 204
204 204 204
204 204 204
204 204 204
204 204 204
204 204 204
204 204 204
204 204 204
204 204 204
204 204 204
204 204 204
204 204 204
204 204 204
204 204 204
204 204 204
204 204 204
204 204 204
204 204 204
204 204 204
204 204 204
204 204 204
204 204 204
204 204 204
204 204 204
204 204 204
204 204 204
204 204 204
204 204 204
204 204 204
204 204 204
204 204 204
204 204 204
204 204 204
204 204 204
204 204 204
204 204 204
204 204 204
204 204 204
204 204 204
204 204 204
204 204 204
204 204 204
204 204 204
204 204 204
204 204 204
204 204 204
204 204 204
204 204 204
204 204 204
204 204 204
204 204 204
204 204 204
204 204 204
204 204 204
204 204 204
204 204 204
204 204 204
204 204 204
204 204 204
204 204 204
204 204 204
204 204 204
204 204 204
204 204 204
204 204 204
204 204 204
204 204 204
204 204 204
204 204 204
204 204 204
204 204 204
204 204 204
204 204 204
204 204 204
204 204 204
204 204 204
204 204 204
204 204 204
204 204 204
204 204 204
204 204 204
204 204 204
204 204 204
204 204 204
204 204 204
204 204 204
204 204 204
204 204 204
204 204 204
204 204 204
204 204 204
204 204 204
204 204 204
204 204 204
204 204 204
204 204 204
204 204 204
204 204 204
204 204 204
204 204 204
204 204 204
204 204 204
204 204 204
204 204 204
204 204 204
204 204 204
204 204 204
204 204 204
204 204 204
204 204 204
204 204 204
204 204 204
204 204 204
204 204 204
204 204 204
204 204 204
204 204 204
204 204 204
204 204 204
204 204 204
204 204 204
204 204 204
204 204 204
204 204 204
204 204 204
204 204 204
204 204 204
204 204 204
204 204 204
204 204 204
204 204 204
204 204 204
204 204 204
204 204 204
204 204 204
204 204 204
204 204 204
204 204 204
204 204 204
204 204 204
204 204 204
204 204 204
204 204 204
204 204 204
204 204 204
204 204 204
204 204 204
204 204 204
204 204 204
204 204 204
204 204 204
204 204 204
204 204 204
204 204 204
204 204 204
204 204 204
204 204 204
204 204 204
204 204 204
204 204 204
204 204 204
204 204 204
204 204 204
204 204 204
204 204 204
204 204 204
204 204 204
204 204 204
204 204 204
204 204 204
204 204 204
204 204 204
204 204 204
204 204 204
204 204 204
204 204 204
204 204 204
204 204 204
204 204 204
204 204 204
204 204 204
204 204 204
204 204 204
204 204 204
204 204 204
204 204 204
204 204 204
204 204 204
204 204 204
204 204 204
204 204 204
204 204 204
204 204 204
204 204 204
204 204 204
204 204 204
204 204 204
204 204 204
204 204 204
204 204 204
204 204 204
204 204 204
204 204 204
204 204 204
204 204 204
204 204 204
204 204 204
204 204 204
204 204 204
204 204 204
204 204 204
204 204 204
204 204 204
204 204 204
204 204 204
204 204 204
204 204 204
204 204 204
204 204 204
204 204 204
204 204 204
204 204 204
204 204 204
204 204 204
204 204 204
204 204 204
204 204 204
204 204 204
204 204 204
204 204 204
204 204 204
204 204 204
204 204 204
204 204 204
204 204 204
204 204 204
204 204 204
204 204 204
204 204 204
204 204 204
204 204 204
204 204 204
204 204 204
204 204 204
204 204 204
204 204 204
204 204 204
204 204 204
204 204 204
204 204 204
204 204 204
204 204 204
204 204 204
204 204 204
204 204 204
204 204 204
204 204 204
204 204 204
204 204 204
204 204 204
204 204 204
204 204 204
204 204 204
204 204 204
204 204 204
204 204 204
204 204 204
204 204 204
204 204 204
204 204 204
204 204 204
204 204 204
204 204 204
204 204 204
204 204 204
204 204 204
204 204 204
204 204 204
204 204 204
204 204 204
204 204 204
204 204 204
204 204 204
204 204 204
204 204 204
204 204 204
204 204 204
204 204 204
204 204 204
204 204 204
204 204 204
204 204 204
204 204 204
204 204 204
204 204 204
204 204 204
204 204 204
204 204 204
204 204 204
204 204 204
204 204 204
204 204 204
204 204 204
204 204 204
204 204 204
204 204 204
204 204 204
204 204 204
204 204 204
204 204 204
204 204 204
204 204 204
204 204 204
204 204 204
204 204 204
204 204 204
204 204 204
204 204 204
204 204 204
204 204 204
204 204 204
204 204 204
204 204 204
204 204 204
204 204 204
204 204 204
204 204 204
204 204 204
204 204 204
204 204 204
204 204 204
204 204 204
204 204 204
204 204 204
204 204 204
204 204 204
204 204 204
204 204 204
204 204 204
204 204 204
204 204 204
204 204 204
204 204 204
204 204 204
204 204 204
204 204 204
204 204 204
204 204 204
204 204 204
204 204 204
204 204 204
204 204 204
204 204 204
204 204 204
204 204 204
204 204 204
204 204 204
204 204 204
204 204 204
204 204 204
204 204 204
204 204 204
204 204 204
204 204 204
204 204 204
204 204 204
204 204 204
204 204 204
204 204 204
204 204 204
204 204 204
204 204 204
204 204 204
204 204 204
204 204 204
204 204 204
204 204 204
204 204 204
204 204 204
204 204 204
204 204 204
204 204 204
204 204 204
204 204 204
204 204 204
204 204 204
204 204 204
204 204 204
204 204 204
204 204 204
204 204 204
204 204 204
204 204 204
204 204 204
204 204 204
204 204 204
204 204 204
204 204 204
204 204 204
204 204 204
204 204 204
204 204 204
204 204 204
204 204 204
204 204 204
204 204 204
204 204 204
204 204 204
204 204 204
204 204 204
204 204 204
204 204 204
204 204 204
204 204 204
204 204 204
204 204 204
204 204 204
204 204 204
204 204 204
204 204 204
204 204 204
204 204 204
204 204 204
204 204 204
204 204 204
204 204 204
204 204 204
204 204 204
204 204 204
204 204 204
204 204 204
204 204 204
204 204 204
204 204 204
204 204 204
204 204 204
204 204 204
204 204 204
204 204 204
204 204 204
204 204 204
204 204 204
204 204 204
204 204 204
204 204 204
204 204 204
204 204 204
204 204 204
204 204 204
204 204 204
204 204 204
204 204 204
204 204 204
204 204 204
204 204 204
204 204 204
204 204 204
204 204 204
204 204 204
204 204 204
204 204 204
204 204 204
204 204 204
204 204 204
204 204 204
204 204 204
204 204 204
204 204 204
204 204 204
204 204 204
204 204 204
204 204 204
204 204 204
204 204 204
204 204 204
204 204 204
204 204 204
204 204 204
204 204 204
204 204 204
204 204 204
204 204 204
204 204 204
204 204 204
204 204 204
204 204 204
204 204 204
204 204 204
204 204 204
204 204 204
204 204 204
204 204 204
204 204 204
204 204 204
204 204 204
204 204 204
204 204 204
204 204 204
204 204 204
204 204 204
204 204 204
204 204 204
204 204 204
204 204 204
204 204 204
204 204 204
204 204 204
204 204 204
204 204 204
204 204 204
204 204 204
204 204 204
204 204 204
204 204 204
204 204 204
204 204 204
204 204 204
204 204 204
204 204 204
204 204 204
204 204 204
204 204 204
204 204 204
204 204 204
204 204 204
204 204 204
204 204 204
204 204 204
204 204 204
204 204 204
204 204 204
204 204 204
204 204 204
204 204 204
204 204 204
204 204 204
204 204 204
204 204 204
204 204 204
204 204 204
204 204 204
204 204 204
204 204 204
204 204 204
204 204 204
204 204 204
204 204 204
204 204 204
204 204 204
204 204 204
204 204 204
204 204 204
204 204 204
204 204 204
204 204 204
204 204 204
204 204 204
204 204 204
204 204 204
204 204 204
204 204 204
204 204 204
204 204 204
204 204 204
204 204 204
204 204 204
204 204 204
204 204 204
204 204 204
204 204 204
204 204 204
204 204 204
204 204 204
204 204 204
204 204 204
204 204 204
204 204 204
204 204 204
204 204 204
204 204 204
204 204 204
204 204 204
204 204 204
204 204 204
204 204 204
204 204 204
204 204 204
204 204 204
204 204 204
204 204 204
204 204 204
204 204 204
204 204 204
204 204 204
204 204 204
204 204 204
204 204 204
204 204 204
204 204 204
204 204 204
204 204 204
204 204 204
204 204 204
204 204 204
204 204 204
204 204 204
204 204 204
204 204 204
204 204 204
204 204 204
204 204 204
204 204 204
204 204 204
204 204 204
204 204 204
204 204 204
204 204 204
204 204 204
204 204 204
204 204 204
204 204 204
204 204 204
204 204 204
204 204 204
204 204 204
204 204 204
204 204 204
204 204 204
204 204 204
204 204 204
204 204 204
204 204 204
204 204 204
204 204 204
204 204 204
204 204 204
204 204 204
204 204 204
204 204 204
204 204 204
204 204 204
204 204 204
204 204 204
204 204 204
204 204 204
204 204 204
204 204 204
204 204 204
204 204 204
204 204 204
204 204 204
204 204 204
204 204 204
204 204 204
204 204 204
204 204 204
204 204 204
204 204 204
204 204 204
204 204 204
204 204 204
204 204 204
204 204 204
204 204 204
204 204 204
204 204 204
204 204 204
204 204 204
204 204 204
204 204 204
204 204 204
204 204 204
204 204 204
204 204 204
204 204 204
204 204 204
204 204 204
204 204 204
204 204 204
204 204 204
204 204 204
204 204 204
204 204 204
204 204 204
204 204 204
204 204 204
204 204 204
204 204 204
204 204 204
204 204 204
204 204 204
204 204 204
204 204 204
204 204 204
204 204 204
204 204 204
204 204 204
204 204 204
204 204 204
204 204 204
204 204 204
204 204 204
204 204 204
204 204 204
204 204 204
204 204 204
204 204 204
204 204 204
204 204 204
204 204 204
204 204 204
204 204 204
204 204 204
204 204 204
204 204 204
204 204 204
204 204 204
204 204 204
204 204 204
204 204 204
204 204 204
204 204 204
204 204 204
204 204 204
204 204 204
204 204 204
204 204 204
204 204 204
204 204 204
204 204 204
204 204 204
204 204 204
204 204 204
204 204 204
204 204 204
204 204 204
204 204 204
204 204 204
204 204 204
204 204 204
204 204 204
204 204 204
204 204 204
204 204 204
204 204 204
204 204 204
204 204 204
204 204 204
204 204 204
204 204 204
204 204 204
204 204 204
204 204 204
204 204 204
204 204 204
204 204 204
204 204 204
204 204 204
204 204 204
204 204 204
204 204 204
204 204 204
204 204 204
204 204 204
204 204 204
204 204 204
204 204 204
204 204 204
204 204 204
204 204 204
204 204 204
204 204 204
204 204 204
204 204 204
204 204 204
204 204 204
204 204 204
204 204 204
204 204 204
204 204 204
204 204 204
204 204 204
204 204 204
204 204 204
204 204 204
204 204 204
204 204 204
204 204 204
204 204 204
204 204 204
204 204 204
204 204 204
204 204 204
204 204 204
204 204 204
204 204 204
204 204 204
204 204 204
204 204 204
204 204 204
204 204 204
204 204 204
204 204 204
204 204 204
204 204 204
204 204 204
204 204 204
204 204 204
204 204 204
204 204 204
204 204 204
204 204 204
204 204 204
204 204 204
204 204 204
204 204 204
204 204 204
204 204 204
204 204 204
204 204 204
204 204 204
204 204 204
204 204 204
204 204 204
204 204 204
204 204 204
204 204 204
204 204 204
204 204 204
204 204 204
204 204 204
204 204 204
204 204 204
204 204 204
204 204 204
204 204 204
204 204 204
204 204 204
204 204 204
204 204 204
204 204 204
204 204 204
204 204 204
204 204 204
204 204 204
204 204 204
204 204 204
204 204 204
204 204 204
204 204 204
204 204 204
204 204 204
204 204 204
204 204 204
204 204 204
204 204 204
204 204 204
204 204 204
204 204 204
204 204 204
204 204 204
204 204 204
204 204 204
204 204 204
204 204 204
204 204 204
204 204 204
204 204 204
204 204 204
204 204 204
204 204 204
204 204 204
204 204 204
204 204 204
204 204 204
204 204 204
204 204 204
204 204 204
204 204 204
204 204 204
204 204 204
204 204 204
204 204 204
204 204 204
204 204 204
204 204 204
204 204 204
204 204 204
204 204 204
204 204 204
204 204 204
204 204 204
204 204 204
204 204 204
204 204 204
204 204 204
204 204 204
204 204 204
204 204 204
204 204 204
204 204 204
204 204 204
204 204 204
204 204 204
204 204 204
204 204 204
204 204 204
204 204 204
204 204 204
204 204 204
204 204 204
204 204 204
204 204 204
204 204 204
204 204 204
204 204 204
204 204 204
204 204 204
204 204 204
204 204 204
204 204 204
204 204 204
204 204 204
204 204 204
204 204 204
204 204 204
204 204 204
204 204 204
204 204 204
204 204 204
204 204 204
204 204 204
204 204 204
204 204 204
204 204 204
204 204 204
204 204 204
204 204 204
204 204 204
204 204 204
204 204 204
204 204 204
204 204 204
204 204 204
204 204 204
204 204 204
204 204 204
204 204 204
204 204 204
204 204 204
204 204 204
204 204 204
204 204 204
204 204 204
204 204 204
204 204 204
204 204 204
204 204 204
204 204 204
204 204 204
204 204 204
204 204 204
204 204 204
204 204 204
204 204 204
204 204 204
204 204 204
204 204 204
204 204 204
204 204 204
204 204 204
204 204 204
204 204 204
204 204 204
204 204 204
204 204 204
204 204 204
204 204 204
204 204 204
204 204 204
204 204 204
204 204 204
204 204 204
204 204 204
204 204 204
204 204 204
204 204 204
204 204 204
204 204 204
204 204 204
204 204 204
204 204 204
204 204 204
204 204 204
204 204 204
204 204 204
204 204 204
204 204 204
204 204 204
204 204 204
204 204 204
204 204 204
204 204 204
204 204 204
204 204 204
204 204 204
204 204 204
204 204 204
204 204 204
204 204 204
204 204 204
204 204 204
204 204 204
204 204 204
204 204 204
204 204 204
204 204 204
204 204 204
204 204 204
204 204 204
204 204 204
204 204 204
204 204 204
204 204 204
204 204 204
204 204 204
204 204 204
204 204 204
204 204 204
204 204 204
204 204 204
204 204 204
204 204 204
204 204 204
204 204 204
204 204 204
204 204 204
204 204 204
204 204 204
204 204 204
204 204 204
204 204 204
204 204 204
204 204 204
204 204 204
204 204 204
204 204 204
204 204 204
204 204 204
204 204 204
204 204 204
204 204 204
204 204 204
204 204 204
204 204 204
204 204 204
204 204 204
204 204 204
204 204 204
204 204 204
204 204 204
204 204 204
204 204 204
204 204 204
204 204 204
204 204 204
204 204 204
204 204 204
204 204 204
204 204 204
204 204 204
204 204 204
204 204 204
204 204 204
204 204 204
204 204 204
204 204 204
204 204 204
204 204 204
204 204 204
204 204 204
204 204 204
204 204 204
204 204 204
204 204 204
204 204 204
204 204 204
204 204 204
204 204 204
204 204 204
204 204 204
204 204 204
204 204 204
204 204 204
204 204 204
204 204 204
204 204 204
204 204 204
204 204 204
204 204 204
204 204 204
204 204 204
204 204 204
204 204 204
204 204 204
204 204 204
204 204 204
204 204 204
204 204 204
204 204 204
204 204 204
204 204 204
204 204 204
204 204 204
204 204 204
204 204 204
204 204 204
204 204 204
204 204 204
204 204 204
204 204 204
204 204 204
204 204 204
204 204 204
204 204 204
204 204 204
204 204 204
204 204 204
204 204 204
204 204 204
204 204 204
204 204 204
204 204 204
204 204 204
204 204 204
204 204 204
204 204 204
204 204 204
204 204 204
204 204 204
204 204 204
204 204 204
204 204 204
204 204 204
204 204 204
204 204 204
204 204 204
204 204 204
204 204 204
204 204 204
204 204 204
204 204 204
204 204 204
204 204 204
204 204 204
204 204 204
204 204 204
204 204 204
204 204 204
204 204 204
204 204 204
204 204 204
204 204 204
204 204 204
204 204 204
204 204 204
204 204 204
204 204 204
204 204 204
204 204 204
204 204 204
204 204 204
204 204 204
204 204 204
204 204 204
204 204 204
204 204 204
204 204 204
204 204 204
204 204 204
204 204 204
204 204 204
204 204 204
204 204 204
204 204 204
204 204 204
204 204 204
204 204 204
204 204 204
204 204 204
204 204 204
204 204 204
204 204 204
204 204 204
204 204 204
204 204 204
204 204 204
204 204 204
204 204 204
204 204 204
204 204 204
204 204 204
204 204 204
204 204 204
204 204 204
204 204 204
204 204 204
204 204 204
204 204 204
204 204 204
204 204 204
204 204 204
204 204 204
204 204 204
204 204 204
204 204 204
204 204 204
204 204 204
204 204 204
204 204 204
204 204 204
204 204 204
204 204 204
204 204 204
204 204 204
204 204 204
204 204 204
204 204 204
204 204 204
204 204 204
204 204 204
204 204 204
204 204 204
204 204 204
204 204 204
204 204 204
204 204 204
204 204 204
204 204 204
204 204 204
204 204 204
204 204 204
204 204 204
204 204 204
204 204 204
204 204 204
204 204 204
204 204 204
204 204 204
204 204 204
204 204 204
204 204 204
204 204 204
204 204 204
204 204 204
204 204 204
204 204 204
204 204 204
204 204 204
204 204 204
204 204 204
204 204 204
204 204 204
204 204 204
204 204 204
204 204 204
204 204 204
204 204 204
204 204 204
204 204 204
204 204 204
204 204 204
204 204 204
204 204 204
204 204 204
204 204 204
204 204 204
204 204 204
204 204 204
204 204 204
204 204 204
204 204 204
204 204 204
204 204 204
204 204 204
204 204 204
204 204 204
204 204 204
204 204 204
204 204 204
204 204 204
204 204 204
204 204 204
204 204 204
204 204 204
204 204 204
204 204 204
204 204 204
204 204 204
204 204 204
204 204 204
204 204 204
204 204 204
204 204 204
204 204 204
204 204 204
204 204 204
204 204 204
204 204 204
204 204 204
204 204 204
204 204 204
204 204 204
204 204 204
204 204 204
204 204 204
204 204 204
204 204 204
204 204 204
204 204 204
204 204 204
204 204 204
204 204 204
204 204 204
204 204 204
204 204 204
204 204 204
204 204 204
204 204 204
204 204 204
204 204 204
204 204 204
204 204 204
204 204 204
204 204 204
204 204 204
204 204 204
204 204 204
204 204 204
204 204 204
204 204 204
204 204 204
204 204 204
204 204 204
204 204 204
204 204 204
204 204 204
204 204 204
204 204 204
204 204 204
204 204 204
204 204 204
204 204 204
204 204 204
204 204 204
204 204 204
204 204 204
204 204 204
204 204 204
204 204 204
204 204 204
204 204 204
204 204 204
204 204 204
204 204 204
204 204 204
204 204 204
204 204 204
204 204 204
204 204 204
204 204 204
204 204 204
204 204 204
204 204 204
204 204 204
204 204 204
204 204 204
204 204 204
204 204 204
204 204 204
204 204 204
204 204 204
204 204 204
204 204 204
204 204 204
204 204 204
204 204 204
204 204 204
204 204 204
204 204 204
204 204 204
204 204 204
204 204 204
204 204 204
204 204 204
204 204 204
204 204 204
204 204 204
204 204 204
204 204 204
204 204 204
204 204 204
204 204 204
204 204 204
204 204 204
204 204 204
204 204 204
204 204 204
204 204 204
204 204 204
204 204 204
204 204 204
204 204 204
204 204 204
204 204 204
204 204 204
204 204 204
204 204 204
204 204 204
204 204 204
204 204 204
204 204 204
204 204 204
204 204 204
204 204 204
204 204 204
204 204 204
204 204 204
204 204 204
204 204 204
204 204 204
204 204 204
204 204 204
204 204 204
204 204 204
204 204 204
204 204 204
204 204 204
204 204 204
204 204 204
204 204 204
204 204 204
204 204 204
204 204 204
204 204 204
204 204 204
204 204 204
204 204 204
204 204 204
204 204 204
204 204 204
204 204 204
204 204 204
204 204 204
204 204 204
204 204 204
204 204 204
204 204 204
204 204 204
204 204 204
204 204 204
204 204 204
204 204 204
204 204 204
204 204 204
204 204 204
204 204 204
204 204 204
204 204 204
204 204 204
204 204 204
204 204 204
204 204 204
204 204 204
204 204 204
204 204 204
204 204 204
204 204 204
204 204 204
204 204 204
204 204 204
204 204 204
204 204 204
204 204 204
204 204 204
204 204 204
204 204 204
204 204 204
204 204 204
204 204 204
204 204 204
204 204 204
204 204 204
204 204 204
204 204 204
204 204 204
204 204 204
204 204 204
204 204 204
204 204 204
204 204 204
204 204 204
204 204 204
204 204 204
204 204 204
204 204 204
204 204 204
204 204 204
204 204 204
204 204 204
204 204 204
204 204 204
204 204 204
204 204 204
204 204 204
204 204 204
204 204 204
204 204 204
204 204 204
204 204 204
204 204 204
204 204 204
204 204 204
204 204 204
204 204 204
204 204 204
204 204 204
204 204 204
204 204 204
204 204 204
204 204 204
204 204 204
204 204 204
204 204 204
204 204 204
204 204 204
204 204 204
204 204 204
204 204 204
204 204 204
204 204 204
204 204 204
204 204 204
204 204 204
204 204 204
204 204 204
204 204 204
204 204 204
204 204 204
204 204 204
204 204 204
204 204 204
204 204 204
204 204 204
204 204 204
204 204 204
204 204 204
204 204 204
204 204 204
204 204 204
204 204 204
204 204 204
204 204 204
204 204 204
204 204 204
204 204 204
204 204 204
204 204 204
204 204 204
204 204 204
204 204 204
204 204 204
204 204 204
204 204 204
204 204 204
204 204 204
204 204 204
204 204 204
204 204 204
204 204 204
204 204 204
204 204 204
204 204 204
204 204 204
204 204 204
204 204 204
204 204 204
204 204 204
204 204 204
204 204 204
204 204 204
204 204 204
204 204 204
204 204 204
204 204 204
204 204 204
204 204 204
204 204 204
204 204 204
204 204 204
204 204 204
204 204 204
204 204 204
204 204 204
204 204 204
204 204 204
204 204 204
204 204 204
204 204 204
204 204 204
204 204 204
204 204 204
204 204 204
204 204 204
204 204 204
204 204 204
204 204 204
204 204 204
204 204 204
204 204 204
204 204 204
204 204 204
204 204 204
204 204 204
204 204 204
204 204 204
204 204 204
204 204 204
204 204 204
204 204 204
204 204 204
204 204 204
204 204 204
204 204 204
204 204 204
204 204 204
204 204 204
204 204 204
204 204 204
204 204 204
204 204 204
204 204 204
204 204 204
204 204 204
204 204 204
204 204 204
204 204 204
204 204 204
204 204 204
204 204 204
204 204 204
204 204 204
204 204 204
204 204 204
204 204 204
204 204 204
204 204 204
204 204 204
204 204 204
204 204 204
204 204 204
204 204 204
204 204 204
204 204 204
204 204 204
204 204 204
204 204 204
204 204 204
204 204 204
204 204 204
204 204 204
204 204 204
204 204 204
204 204 204
204 204 204
204 204 204
204 204 204
204 204 204
204 204 204
204 204 204
204 204 204
204 204 204
204 204 204
204 204 204
204 204 204
204 204 204
204 204 204
204 204 204
204 204 204
204 204 204
204 204 204
204 204 204
204 204 204
204 204 204
204 204 204
204 204 204
204 204 204
204 204 204
204 204 204
204 204 204
204 204 204
204 204 204
204 204 204
204 204 204
204 204 204
204 204 204
204 204 204
204 204 204
204 204 204
204 204 204
204 204 204
204 204 204
204 204 204
204 204 204
204 204 204
204 204 204
204 204 204
204 204 204
204 204 204
204 204 204
204 204 204
204 204 204
204 204 204
204 204 204
204 204 204
204 204 204
204 204 204
204 204 204
204 204 204
204 204 204
204 204 204
204 204 204
204 204 204
204 204 204
204 204 204
204 204 204
204 204 204
204 204 204
204 204 204
204 204 204
204 204 204
204 204 204
204 204 204
204 204 204
204 204 204
204 204 204
204 204 204
204 204 204
204 204 204
204 204 204
204 204 204
204 204 204
204 204 204
204 204 204
204 204 204
204 204 204
204 204 204
204 204 204
204 204 204
204 204 204
204 204 204
204 204 204
204 204 204
204 204 204
204 204 204
204 204 204
204 204 204
204 204 204
204 204 204
204 204 204
204 204 204
204 204 204
204 204 204
204 204 204
204 204 204
204 204 204
204 204 204
204 204 204
204 204 204
204 204 204
204 204 204
204 204 204
204 204 204
204 204 204
204 204 204
204 204 204
204 204 204
204 204 204
204 204 204
204 204 204
204 204 204
204 204 204
204 204 204
204 204 204
204 204 204
204 204 204
204 204 204
204 204 204
204 204 204
204 204 204
204 204 204
204 204 204
204 204 204
204 204 204
204 204 204
204 204 204
204 204 204
204 204 204
204 204 204
204 204 204
204 204 204
204 204 204
204 204 204
204 204 204
204 204 204
204 204 204
204 204 204
204 204 204
204 204 204
204 204 204
204 204 204
204 204 204
204 204 204
204 204 204
204 204 204
204 204 204
204 204 204
204 204 204
204 204 204
204 204 204
204 204 204
204 204 204
204 204 204
204 204 204
204 204 204
204 204 204
204 204 204
204 204 204
204 204 204
204 204 204
204 204 204
204 204 204
204 204 204
204 204 204
204 204 204
204 204 204
204 204 204
204 204 204
204 204 204
204 204 204
204 204 204
204 204 204
204 204 204
204 204 204
204 204 204
204 204 204
204 204 204
204 204 204
204 204 204
204 204 204
204 204 204
204 204 204
204 204 204
204 204 204
204 204 204
204 204 204
204 204 204
204 204 204
204 204 204
204 204 204
204 204 204
204 204 204
204 204 204
204 204 204
204 204 204
204 204 204
204 204 204
204 204 204
204 204 204
204 204 204
204 204 204
204 204 204
204 204 204
204 204 204
204 204 204
204 204 204
204 204 204
204 204 204
204 204 204
204 204 204
204 204 204
204 204 204
204 204 204
204 204 204
204 204 204
204 204 204
204 204 204
204 204 204
204 204 204
204 204 204
204 204 204
204 204 204
204 204 204
204 204 204
204 204 204
204 204 204
204 204 204
204 204 204
204 204 204
204 204 204
204 204 204
204 204 204
204 204 204
204 204 204
204 204 204
204 204 204
204 204 204
204 204 204
204 204 204
204 204 204
204 204 204
204 204 204
204 204 204
204 204 204
204 204 204
204 204 204
204 204 204
204 204 204
204 204 204
204 204 204
204 204 204
204 204 204
204 204 204
204 204 204
204 204 204
204 204 204
204 204 204
204 204 204
204 204 204
204 204 204
204 204 204
204 204 204
204 204 204
204 204 204
204 204 204
204 204 204
204 204 204
204 204 204
204 204 204
204 204 204
204 204 204
204 204 204
204 204 204
204 204 204
204 204 204
204 204 204
204 204 204
204 204 204
204 204 204
204 204 204
204 204 204
204 204 204
204 204 204
204 204 204
204 204 204
204 204 204
204 204 204
204 204 204
204 204 204
204 204 204
204 204 204
204 204 204
204 204 204
204 204 204
204 204 204
204 204 204
204 204 204
204 204 204
204 204 204
204 204 204
204 204 204
204 204 204
204 204 204
204 204 204
204 204 204
204 204 204
204 204 204
204 204 204
204 204 204
204 204 204
204 204 204
204 204 204
204 204 204
204 204 204
204 204 204
204 204 204
204 204 204
204 204 204
204 204 204
204 204 204
204 204 204
204 204 204
204 204 204
204 204 204
204 204 204
204 204 204
204 204 204
204 204 204
204 204 204
204 204 204
204 204 204
204 204 204
204 204 204
204 204 204
204 204 204
204 204 204
204 204 204
204 204 204
204 204 204
204 204 204
204 204 204
204 204 204
204 204 204
204 204 204
204 204 204
204 204 204
204 204 204
204 204 204
204 204 204
204 204 204
204 204 204
204 204 204
204 204 204
204 204 204
204 204 204
204 204 204
204 204 204
204 204 204
204 204 204
204 204 204
204 204 204
204 204 204
204 204 204
204 204 204
204 204 204
204 204 204
204 204 204
204 204 204
204 204 204
204 204 204
204 204 204
204 204 204
204 204 204
204 204 204
204 204 204
204 204 204
204 204 204
204 204 204
204 204 204
204 204 204
204 204 204
204 204 204
204 204 204
204 204 204
204 204 204
204 204 204
204 204 204
204 204 204
204 204 204
204 204 204
204 204 204
204 204 204
204 204 204
204 204 204
204 204 204
204 204 204
204 204 204
204 204 204
204 204 204
204 204 204
204 204 204
204 204 204
204 204 204
204 204 204
204 204 204
204 204 204
204 204 204
204 204 204
204 204 204
204 204 204
204 204 204
204 204 204
204 204 204
204 204 204
204 204 204
204 204 204
204 204 204
204 204 204
204 204 204
204 204 204
204 204 204
204 204 204
204 204 204
204 204 204
204 204 204
204 204 204
204 204 204
204 204 204
204 204 204
204 204 204
204 204 204
204 204 204
204 204 204
204 204 204
204 204 204
204 204 204
204 204 204
204 204 204
204 204 204
204 204 204
204 204 204
204 204 204
204 204 204
204 204 204
204 204 204
204 204 204
204 204 204
204 204 204
204 204 204
204 204 204
204 204 204
204 204 204
204 204 204
204 204 204
204 204 204
204 204 204
204 204 204
204 204 204
204 204 204
204 204 204
204 204 204
204 204 204
204 204 204
204 204 204
204 204 204
204 204 204
204 204 204
204 204 204
204 204 204
204 204 204
204 204 204
204 204 204
204 204 204
204 204 204
204 204 204
204 204 204
204 204 204
204 204 204
204 204 204
204 204 204
204 204 204
204 204 204
204 204 204
204 204 204
204 204 204
204 204 204
204 204 204
204 204 204
204 204 204
204 204 204
204 204 204
204 204 204
204 204 204
204 204 204
204 204 204
204 204 204
204 204 204
204 204 204
204 204 204
204 204 204
204 204 204
204 204 204
204 204 204
204 204 204
204 204 204
204 204 204
204 204 204
204 204 204
204 204 204
204 204 204
204 204 204
204 204 204
204 204 204
204 204 204
204 204 204
204 204 204
204 204 204
204 204 204
204 204 204
204 204 204
204 204 204
204 204 204
204 204 204
204 204 204
204 204 204
204 204 204
204 204 204
204 204 204
204 204 204
204 204 204
204 204 204
204 204 204
204 204 204
204 204 204
204 204 204
204 204 204
204 204 204
204 204 204
204 204 204
204 204 204
204 204 204
204 204 204
204 204 204
204 204 204
204 204 204
204 204 204
204 204 204
204 204 204
204 204 204
204 204 204
204 204 204
204 204 204
204 204 204
204 204 204
204 204 204
204 204 204
204 204 204
204 204 204
204 204 204
204 204 204
204 204 204
204 204 204
204 204 204
204 204 204
204 204 204
204 204 204
204 204 204
204 204 204
204 204 204
204 204 204
204 204 204
204 204 204
204 204 204
204 204 204
204 204 204
204 204 204
204 204 204
204 204 204
204 204 204
204 204 204
204 204 204
204 204 204
204 204 204
204 204 204
204 204 204
204 204 204
204 204 204
204 204 204
204 204 204
204 204 204
204 204 204
204 204 204
204 204 204
204 204 204
204 204 204
204 204 204
204 204 204
204 204 204
204 204 204
204 204 204
204 204 204
204 204 204
204 204 204
204 204 204
204 204 204
204 204 204
204 204 204
204 204 204
204 204 204
204 204 204
204 204 204
204 204 204
204 204 204
204 204 204
204 204 204
204 204 204
204 204 204
204 204 204
204 204 204
204 204 204
204 204 204
204 204 204
204 204 204
204 204 204
204 204 204
204 204 204
204 204 204
204 204 204
204 204 204
204 204 204
204 204 204
204 204 204
204 204 204
204 204 204
204 204 204
204 204 204
204 204 204
204 204 204
204 204 204
204 204 204
204 204 204
204 204 204
204 204 204
204 204 204
204 204 204
204 204 204
204 204 204
204 204 204
204 204 204
204 204 204
204 204 204
204 204 204
204 204 204
204 204 204
204 204 204
204 204 204
204 204 204
204 204 204
204 204 204
204 204 204
204 204 204
204 204 204
204 204 204
204 204 204
204 204 204
204 204 204
204 204 204
204 204 204
204 204 204
204 204 204
204 204 204
204 204 204
204 204 204
204 204 204
204 204 204
204 204 204
204 204 204
204 204 204
204 204 204
204 204 204
204 204 204
204 204 204
204 204 204
204 204 204
204 204 204
204 204 204
204 204 204
204 204 204
204 204 204
204 204 204
204 204 204
204 204 204
204 204 204
204 204 204
204 204 204
204 204 204
204 204 204
204 204 204
204 204 204
204 204 204
204 204 204
204 204 204
204 204 204
204 204 204
204 204 204
204 204 204
204 204 204
204 204 204
204 204 204
204 204 204
204 204 204
204 204 204
204 204 204
204 204 204
204 204 204
204 204 204
204 204 204
204 204 204
204 204 204
204 204 204
204 204 204
204 204 204
204 204 204
204 204 204
204 204 204
204 204 204
204 204 204
204 204 204
204 204 204
204 204 204
204 204 204
204 204 204
204 204 204
204 204 204
204 204 204
204 204 204
204 204 204
204 204 204
204 204 204
204 204 204
204 204 204
204 204 204
204 204 204
204 204 204
204 204 204
204 204 204
204 204 204
204 204 204
204 204 204
204 204 204
204 204 204
204 204 204
204 204 204
204 204 204
204 204 204
204 204 204
204 204 204
204 204 204
204 204 204
204 204 204
204 204 204
204 204 204
204 204 204
204 204 204
204 204 204
204 204 204
204 204 204
204 204 204
204 204 204
204 204 204
204 204 204
204 204 204
204 204 204
204 204 204
204 204 204
204 204 204
204 204 204
204 204 204
204 204 204
204 204 204
204 204 204
204 204 204
204 204 204
204 204 204
204 204 204
204 204 204
204 204 204
204 204 204
204 204 204
204 204 204
204 204 204
204 204 204
204 204 204
204 204 204
204 204 204
204 204 204
204 204 204
204 204 204
204 204 204
204 204 204
204 204 204
204 204 204
204 204 204
204 204 204
204 204 204
204 204 204
204 204 204
204 204 204
204 204 204
204 204 204
204 204 204
204 204 204
204 204 204
204 204 204
204 204 204
204 204 204
204 204 204
204 204 204
204 204 204
204 204 204
204 204 204
204 204 204
204 204 204
204 204 204
204 204 204
204 204 204
204 204 204
204 204 204
204 204 204
204 204 204
204 204 204
204 204 204
204 204 204
204 204 204
204 204 204
204 204 204
204 204 204
204 204 204
204 204 204
204 204 204
204 204 204
204 204 204
204 204 204
204 204 204
204 204 204
204 204 204
204 204 204
204 204 204
204 204 204
204 204 204
204 204 204
204 204 204
204 204 204
204 204 204
204 204 204
204 204 204
204 204 204
204 204 204
204 204 204
204 204 204
204 204 204
204 204 204
204 204 204
204 204 204
204 204 204
204 204 204
204 204 204
204 204 204
204 204 204
204 204 204
204 204 204
204 204 204
204 204 204
204 204 204
204 204 204
204 204 204
204 204 204
204 204 204
204 204 204
204 204 204
204 204 204
204 204 204
204 204 204
204 204 204
204 204 204
204 204 204
204 204 204
204 204 204
204 204 204
204 204 204
204 204 204
204 204 204
204 204 204
204 204 204
204 204 204
204 204 204
204 204 204
204 204 204
204 204 204
204 204 204
204 204 204
204 204 204
204 204 204
204 204 204
204 204 204
204 204 204
204 204 204
204 204 204
204 204 204
204 204 204
204 204 204
204 204 204
204 204 204
204 204 204
204 204 204
204 204 204
204 204 204
204 204 204
204 204 204
204 204 204
204 204 204
204 204 204
204 204 204
204 204 204
204 204 204
204 204 204
204 204 204
204 204 204
204 204 204
204 204 204
204 204 204
204 204 204
204 204 204
204 204 204
204 204 204
204 204 204
204 204 204
204 204 204
204 204 204
204 204 204
204 204 204
204 204 204
204 204 204
204 204 204
204 204 204
204 204 204
204 204 204
204 204 204
204 204 204
204 204 204
204 204 204
204 204 204
204 204 204
204 204 204
204 204 204
204 204 204
204 204 204
204 204 204
204 204 204
204 204 204
204 204 204
204 204 204
204 204 204
204 204 204
204 204 204
204 204 204
204 204 204
204 204 204
204 204 204
204 204 204
204 204 204
204 204 204
204 204 204
204 204 204
204 204 204
204 204 204
204 204 204
204 204 204
204 204 204
204 204 204
204 204 204
204 204 204
204 204 204
204 204 204
204 204 204
204 204 204
204 204 204
204 204 204
204 204 204
204 204 204
204 204 204
204 204 204
204 204 204
204 204 204
204 204 204
204 204 204
204 204 204
204 204 204
204 204 204
204 204 204
204 204 204
204 204 204
204 204 204
204 204 204
204 204 204
204 204 204
204 204 204
204 204 204
204 204 204
204 204 204
204 204 204
204 204 204
204 204 204
204 204 204
204 204 204
204 204 204
204 204 204
204 204 204
204 204 204
204 204 204
204 204 204
204 204 204
204 204 204
204 204 204
204 204 204
204 204 204
204 204 204
204 204 204
204 204 204
204 204 204
204 204 204
204 204 204
204 204 204
204 204 204
204 204 204
204 204 204
204 204 204
204 204 204
204 204 204
204 204 204
204 204 204
204 204 204
204 204 204
204 204 204
204 204 204
204 204 204
204 204 204
204 204 204
204 204 204
204 204 204
204 204 204
204 204 204
204 204 204
204 204 204
204 204 204
204 204 204
204 204 204
204 204 204
204 204 204
204 204 204
204 204 204
204 204 204
204 204 204
204 204 204
204 204 204
204 204 204
204 204 204
204 204 204
204 204 204
204 204 204
204 204 204
204 204 204
204 204 204
204 204 204
204 204 204
204 204 204
204 204 204
204 204 204
204 204 204
204 204 204
204 204 204
204 204 204
204 204 204
204 204 204
204 204 204
204 204 204
204 204 204
204 204 204
204 204 204
204 204 204
204 204 204
204 204 204
204 204 204
204 204 204
204 204 204
204 204 204
204 204 204
204 204 204
204 204 204
204 204 204
204 204 204
204 204 204
204 204 204
204 204 204
204 204 204
204 204 204
204 204 204
204 204 204
204 204 204
204 204 204
204 204 204
204 204 204
204 204 204
204 204 204
204 204 204
204 204 204
204 204 204
204 204 204
204 204 204
204 204 204
204 204 204
204 204 204
204 204 204
204 204 204
204 204 204
204 204 204
204 204 204
204 204 204
204 204 204
204 204 204
204 204 204
204 204 204
204 204 204
204 204 204
204 204 204
204 204 204
204 204 204
204 204 204
204 204 204
204 204 204
204 204 204
204 204 204
204 204 204
204 204 204
204 204 204
204 204 204
204 204 204
204 204 204
204 204 204
204 204 204
204 204 204
204 204 204
204 204 204
204 204 204
204 204 204
204 204 204
204 204 204
204 204 204
204 204 204
204 204 204
204 204 204
204 204 204
204 204 204
204 204 204
204 204 204
204 204 204
204 204 204
204 204 204
204 204 204
204 204 204
204 204 204
204 204 204
204 204 204
204 204 204
204 204 204
204 204 204
204 204 204
204 204 204
204 204 204
204 204 204
204 204 204
204 204 204
204 204 204
204 204 204
204 204 204
204 204 204
204 204 204
204 204 204
204 204 204
204 204 204
204 204 204
204 204 204
204 204 204
204 204 204
204 204 204
204 204 204
204 204 204
204 204 204
204 204 204
204 204 204
204 204 204
204 204 204
204 204 204
204 204 204
204 204 204
204 204 204
204 204 204
204 204 204
204 204 204
204 204 204
204 204 204
204 204 204
204 204 204
204 204 204
204 204 204
204 204 204
204 204 204
204 204 204
204 204 204
204 204 204
204 204 204
204 204 204
204 204 204
204 204 204
204 204 204
204 204 204
204 204 204
204 204 204
204 204 204
204 204 204
204 204 204
204 204 204
204 204 204
204 204 204
204 204 204
204 204 204
204 204 204
204 204 204
204 204 204
204 204 204
204 204 204
204 204 204
204 204 204
204 204 204
204 204 204
204 204 204
204 204 204
204 204 204
204 204 204
204 204 204
204 204 204
204 204 204
204 204 204
204 204 204
204 204 204
204 204 204
204 204 204
204 204 204
204 204 204
204 204 204
204 204 204
204 204 204
204 204 204
204 204 204
204 204 204
204 204 204
204 204 204
204 204 204
204 204 204
204 204 204
204 204 204
204 204 204
204 204 204
204 204 204
204 204 204
204 204 204
204 204 204
204 204 204
204 204 204
204 204 204
204 204 204
204 204 204
204 204 204
204 204 204
204 204 204
204 204 204
204 204 204
204 204 204
204 204 204
204 204 204
204 204 204
204 204 204
204 204 204
204 204 204
204 204 204
204 204 204
204 204 204
204 204 204
204 204 204
204 204 204
204 204 204
204 204 204
204 204 204
204 204 204
204 204 204
204 204 204
204 204 204
204 204 204
204 204 204
204 204 204
204 204 204
204 204 204
204 204 204
204 204 204
204 204 204
204 204 204
204 204 204
204 204 204
204 204 204
204 204 204
204 204 204
204 204 204
204 204 204
204 204 204
204 204 204
204 204 204
204 204 204
204 204 204
204 204 204
204 204 204
204 204 204
204 204 204
204 204 204
204 204 204
204 204 204
204 204 204
204 204 204
204 204 204
204 204 204
204 204 204
204 204 204
204 204 204
204 204 204
204 204 204
204 204 204
204 204 204
204 204 204
204 204 204
204 204 204
204 204 204
204 204 204
204 204 204
204 204 204
204 204 204
204 204 204
204 204 204
204 204 204
204 204 204
204 204 204
204 204 204
204 204 204
204 204 204
204 204 204
204 204 204
204 204 204
204 204 204
204 204 204
204 204 204
204 204 204
204 204 204
204 204 204
204 204 204
204 204 204
204 204 204
204 204 204
204 204 204
204 204 204
204 204 204
204 204 204
204 204 204
204 204 204
204 204 204
204 204 204
204 204 204
204 204 204
204 204 204
204 204 204
204 204 204
204 204 204
204 204 204
204 204 204
204 204 204
204 204 204
204 204 204
204 204 204
204 204 204
204 204 204
204 204 204
204 204 204
204 204 204
204 204 204
204 204 204
204 204 204
204 204 204
204 204 204
204 204 204
204 204 204
204 204 204
204 204 204
204 204 204
204 204 204
204 204 204
204 204 204
204 204 204
204 204 204
204 204 204
204 204 204
204 204 204
204 204 204
204 204 204
204 204 204
204 204 204
204 204 204
204 204 204
204 204 204
204 204 204
204 204 204
204 204 204
204 204 204
204 204 204
204 204 204
204 204 204
204 204 204
204 204 204
204 204 204
204 204 204
204 204 204
204 204 204
204 204 204
204 204 204
204 204 204
204 204 204
204 204 204
204 204 204
204 204 204
204 204 204
204 204 204
204 204 204
204 204 204
204 204 204
204 204 204
204 204 204
204 204 204
204 204 204
204 204 204
204 204 204
204 204 204
204 204 204
204 204 204
204 204 204
204 204 204
204 204 204
204 204 204
204 204 204
204 204 204
204 204 204
204 204 204
204 204 204
204 204 204
204 204 204
204 204 204
204 204 204
204 204 204
204 204 204
204 204 204
204 204 204
204 204 204
204 204 204
204 204 204
204 204 204
204 204 204
204 204 204
204 204 204
204 204 204
204 204 204
204 204 204
204 204 204
204 204 204
204 204 204
204 204 204
204 204 204
204 204 204
204 204 204
204 204 204
204 204 204
204 204 204
204 204 204
204 204 204
204 204 204
204 204 204
204 204 204
204 204 204
204 204 204
204 204 204
204 204 204
204 204 204
204 204 204
204 204 204
204 204 204
204 204 204
204 204 204
204 204 204
204 204 204
204 204 204
204 204 204
204 204 204
204 204 204
204 204 204
204 204 204
204 204 204
204 204 204
204 204 204
204 204 204
204 204 204
204 204 204
204 204 204
204 204 204
204 204 204
204 204 204
204 204 204
204 204 204
204 204 204
204 204 204
204 204 204
204 204 204
204 204 204
204 204 204
204 204 204
204 204 204
204 204 204
204 204 204
204 204 204
204 204 204
204 204 204
204 204 204
204 204 204
204 204 204
204 204 204
204 204 204
204 204 204
204 204 204
204 204 204
204 204 204
204 204 204
204 204 204
204 204 204
204 204 204
204 204 204
204 204 204
204 204 204
204 204 204
204 204 204
204 204 204
204 204 204
204 204 204
204 204 204
204 204 204
204 204 204
204 204 204
204 204 204
204 204 204
204 204 204
204 204 204
204 204 204
204 204 204
204 204 204
204 204 204
204 204 204
204 204 204
204 204 204
204 204 204
204 204 204
204 204 204
204 204 204
204 204 204
204 204 204
204 204 204
204 204 204
204 204 204
204 204 204
204 204 204
204 204 204
204 204 204
204 204 204
204 204 204
204 204 204
204 204 204
204 204 204
204 204 204
204 204 204
204 204 204
204 204 204
204 204 204
204 204 204
204 204 204
204 204 204
204 204 204
204 204 204
204 204 204
204 204 204
204 204 204
204 204 204
204 204 204
204 204 204
204 204 204
204 204 204
204 204 204
204 204 204
204 204 204
204 204 204
204 204 204
204 204 204
204 204 204
204 204 204
204 204 204
204 204 204
204 204 204
204 204 204
204 204 204
204 204 204
204 204 204
204 204 204
204 204 204
204 204 204
204 204 204
204 204 204
204 204 204
204 204 204
204 204 204
204 204 204
204 204 204
204 204 204
204 204 204
204 204 204
204 204 204
204 204 204
204 204 204
204 204 204
204 204 204
204 204 204
204 204 204
204 204 204
204 204 204
204 204 204
204 204 204
204 204 204
204 204 204
204 204 204
204 204 204
204 204 204
204 204 204
204 204 204
204 204 204
204 204 204
204 204 204
204 204 204
204 204 204
204 204 204
204 204 204
204 204 204
204 204 204
204 204 204
204 204 204
204 204 204
204 204 204
204 204 204
204 204 204
204 204 204
204 204 204
204 204 204
204 204 204
204 204 204
204 204 204
204 204 204
204 204 204
204 204 204
204 204 204
204 204 204
204 204 204
204 204 204
204 204 204
204 204 204
204 204 204
204 204 204
204 204 204
204 204 204
204 204 204
204 204 204
204 204 204
204 204 204
204 204 204
204 204 204
204 204 204
204 204 204
204 204 204
204 204 204
204 204 204
204 204 204
204 204 204
204 204 204
204 204 204
204 204 204
204 204 204
204 204 204
204 204 204
204 204 204
204 204 204
204 204 204
204 204 204
204 204 204
204 204 204
204 204 204
204 204 204
204 204 204
204 204 204
204 204 204
204 204 204
204 204 204
204 204 204
204 204 204
204 204 204
204 204 204
204 204 204
204 204 204
204 204 204
204 204 204
204 204 204
204 204 204
204 204 204
204 204 204
204 204 204
204 204 204
204 204 204
204 204 204
204 204 204
204 204 204
204 204 204
204 204 204
204 204 204
204 204 204
204 204 204
204 204 204
204 204 204
204 204 204
204 204 204
204 204 204
204 204 204
204 204 204
204 204 204
204 204 204
204 204 204
204 204 204
204 204 204
204 204 204
204 204 204
204 204 204
204 204 204
204 204 204
204 204 204
204 204 204
204 204 204
204 204 204
204 204 204
204 204 204
204 204 204
204 204 204
204 204 204
204 204 204
204 204 204
204 204 204
204 204 204
204 204 204
204 204 204
204 204 204
204 204 204
204 204 204
204 204 204
204 204 204
204 204 204
204 204 204
204 204 204
204 204 204
204 204 204
204 204 204
204 204 204
204 204 204
204 204 204
204 204 204
204 204 204
204 204 204
204 204 204
204 204 204
204 204 204
204 204 204
204 204 204
204 204 204
204 204 204
204 204 204
204 204 204
204 204 204
204 204 204
204 204 204
204 204 204
204 204 204
204 204 204
204 204 204
204 204 204
204 204 204
204 204 204
204 204 204
204 204 204
204 204 204
204 204 204
204 204 204
204 204 204
204 204 204
204 204 204
204 204 204
204 204 204
204 204 204
204 204 204
204 204 204
204 204 204
204 204 204
204 204 204
204 204 204
204 204 204
204 204 204
204 204 204
204 204 204
204 204 204
204 204 204
204 204 204
204 204 204
204 204 204
204 204 204
204 204 204
204 204 204
204 204 204
204 204 204
204 204 204
204 204 204
204 204 204
204 204 204
204 204 204
204 204 204
204 204 204
204 204 204
204 204 204
204 204 204
204 204 204
204 204 204
204 204 204
204 204 204
204 204 204
204 204 204
204 204 204
204 204 204
204 204 204
204 204 204
204 204 204
204 204 204
204 204 204
204 204 204
204 204 204
204 204 204
204 204 204
204 204 204
204 204 204
204 204 204
204 204 204
204 204 204
204 204 204
204 204 204
204 204 204
204 204 204
204 204 204
204 204 204
204 204 204
204 204 204
204 204 204
204 204 204
204 204 204
204 204 204
204 204 204
204 204 204
204 204 204
204 204 204
204 204 204
204 204 204
204 204 204
204 204 204
204 204 204
204 204 204
204 204 204
204 204 204
204 204 204
204 204 204
204 204 204
204 204 204
204 204 204
204 204 204
204 204 204
204 204 204
204 204 204
204 204 204
204 204 204
204 204 204
204 204 204
204 204 204
204 204 204
204 204 204
204 204 204
204 204 204
204 204 204
204 204 204
204 204 204
204 204 204
204 204 204
204 204 204
204 204 204
204 204 204
204 204 204
204 204 204
204 204 204
204 204 204
204 204 204
204 204 204
204 204 204
204 204 204
204 204 204
204 204 204
204 204 204
204 204 204
204 204 204
204 204 204
204 204 204
204 204 204
204 204 204
204 204 204
204 204 204
204 204 204
204 204 204
204 204 204
204 204 204
204 204 204
204 204 204
204 204 204
204 204 204
204 204 204
204 204 204
204 204 204
204 204 204
204 204 204
204 204 204
204 204 204
204 204 204
204 204 204
204 204 204
204 204 204
204 204 204
204 204 204
204 204 204
204 204 204
204 204 204
204 204 204
204 204 204
204 204 204
204 204 204
204 204 204
204 204 204
204 204 204
204 204 204
204 204 204
204 204 204
204 204 204
204 204 204
204 204 204
204 204 204
204 204 204
204 204 204
204 204 204
204 204 204
204 204 204
204 204 204
204 204 204
204 204 204
204 204 204
204 204 204
204 204 204
204 204 204
204 204 204
204 204 204
204 204 204
204 204 204
204 204 204
204 204 204
204 204 204
204 204 204
204 204 204
204 204 204
204 204 204
204 204 204
204 204 204
204 204 204
204 204 204
204 204 204
204 204 204
204 204 204
204 204 204
204 204 204
204 204 204
204 204 204
204 204 204
204 204 204
204 204 204
204 204 204
204 204 204
204 204 204
204 204 204
204 204 204
204 204 204
204 204 204
204 204 204
204 204 204
204 204 204
204 204 204
204 204 204
204 204 204
204 204 204
204 204 204
204 204 204
204 204 204
204 204 204
204 204 204
204 204 204
204 204 204
204 204 204
204 204 204
204 204 204
204 204 204
204 204 204
204 204 204
204 204 204
204 204 204
204 204 204
204 204 204
204 204 204
204 204 204
204 204 204
204 204 204
204 204 204
204 204 204
204 204 204
204 204 204
204 204 204
204 204 204
204 204 204
204 204 204
204 204 204
204 204 204
204 204 204
204 204 204
204 204 204
204 204 204
204 204 204
204 204 204
204 204 204
204 204 204
204 204 204
204 204 204
204 204 204
204 204 204
204 204 204
204 204 204
204 204 204
204 204 204
204 204 204
204 204 204
204 204 204
204 204 204
204 204 204
204 204 204
204 204 204
204 204 204
204 204 204
204 204 204
204 204 204
204 204 204
204 204 204
204 204 204
204 204 204
204 204 204
204 204 204
204 204 204
204 204 204
204 204 204
204 204 204
204 204 204
204 204 204
204 204 204
204 204 204
204 204 204
204 204 204
204 204 204
204 204 204
204 204 204
204 204 204
204 204 204
204 204 204
204 204 204
204 204 204
204 204 204
204 204 204
204 204 204
204 204 204
204 204 204
204 204 204
204 204 204
204 204 204
204 204 204
204 204 204
204 204 204
204 204 204
204 204 204
204 204 204
204 204 204
204 204 204
204 204 204
204 204 204
204 204 204
204 204 204
204 204 204
204 204 204
204 204 204
204 204 204
204 204 204
204 204 204
204 204 204
204 204 204
204 204 204
204 204 204
204 204 204
204 204 204
204 204 204
204 204 204
204 204 204
204 204 204
204 204 204
204 204 204
204 204 204
204 204 204
204 204 204
204 204 204
204 204 204
204 204 204
204 204 204
204 204 204
204 204 204
204 204 204
204 204 204
204 204 204
204 204 204
204 204 204
204 204 204
204 204 204
204 204 204
204 204 204
204 204 204
204 204 204
204 204 204
204 204 204
204 204 204
204 204 204
204 204 204
204 204 204
204 204 204
204 204 204
204 204 204
204 204 204
204 204 204
204 204 204
204 204 204
204 204 204
204 204 204
204 204 204
204 204 204
204 204 204
204 204 204
204 204 204
204 204 204
204 204 204
204 204 204
204 204 204
204 204 204
204 204 204
204 204 204
204 204 204
204 204 204
204 204 204
204 204 204
204 204 204
204 204 204
204 204 204
204 204 204
204 204 204
204 204 204
204 204 204
204 204 204
204 204 204
204 204 204
204 204 204
204 204 204
204 204 204
204 204 204
204 204 204
204 204 204
204 204 204
204 204 204
204 204 204
204 204 204
204 204 204
204 204 204
204 204 204
204 204 204
204 204 204
204 204 204
204 204 204
204 204 204
204 204 204
204 204 204
204 204 204
204 204 204
204 204 204
204 204 204
204 204 204
204 204 204
204 204 204
204 204 204
204 204 204
204 204 204
204 204 204
204 204 204
204 204 204
204 204 204
204 204 204
204 204 204
204 204 204
204 204 204
204 204 204
204 204 204
204 204 204
204 204 204
204 204 204
204 204 204
204 204 204
204 204 204
204 204 204
204 204 204
204 204 204
204 204 204
204 204 204
204 204 204
204 204 204
204 204 204
204 204 204
204 204 204
204 204 204
204 204 204
204 204 204
204 204 204
204 204 204
204 204 204
204 204 204
204 204 204
204 204 204
204 204 204
204 204 204
204 204 204
204 204 204
204 204 204
204 204 204
204 204 204
204 204 204
204 204 204
204 204 204
204 204 204
204 204 204
204 204 204
204 204 204
204 204 204
204 204 204
204 204 204
204 204 204
204 204 204
204 204 204
204 204 204
204 204 204
204 204 204
204 204 204
204 204 204
204 204 204
204 204 204
204 204 204
204 204 204
204 204 204
204 204 204
204 204 204
204 204 204
204 204 204
204 204 204
204 204 204
204 204 204
204 204 204
204 204 204
204 204 204
204 204 204
204 204 204
204 204 204
204 204 204
204 204 204
204 204 204
204 204 204
204 204 204
204 204 204
204 204 204
204 204 204
204 204 204
204 204 204
204 204 204
204 204 204
204 204 204
204 204 204
204 204 204
204 204 204
204 204 204
204 204 204
204 204 204
204 204 204
204 204 204
204 204 204
204 204 204
204 204 204
204 204 204
204 204 204
204 204 204
204 204 204
204 204 204
204 204 204
204 204 204
204 204 204
204 204 204
204 204 204
204 204 204
204 204 204
204 204 204
204 204 204
204 204 204
204 204 204
204 204 204
204 204 204
204 204 204
204 204 204
204 204 204
204 204 204
204 204 204
204 204 204
204 204 204
204 204 204
204 204 204
204 204 204
204 204 204
204 204 204
204 204 204
204 204 204
204 204 204
204 204 204
204 204 204
204 204 204
204 204 204
204 204 204
204 204 204
204 204 204
204 204 204
204 204 204
204 204 204
204 204 204
204 204 204
204 204 204
204 204 204
204 204 204
204 204 204
204 204 204
204 204 204
204 204 204
204 204 204
204 204 204
204 204 204
204 204 204
204 204 204
204 204 204
204 204 204
204 204 204
204 204 204
204 204 204
204 204 204
204 204 204
204 204 204
204 204 204
204 204 204
204 204 204
204 204 204
204 204 204
204 204 204
204 204 204
204 204 204
204 204 204
204 204 204
204 204 204
204 204 204
204 204 204
204 204 204
204 204 204
204 204 204
204 204 204
204 204 204
204 204 204
204 204 204
204 204 204
204 204 204
204 204 204
204 204 204
204 204 204
204 204 204
204 204 204
204 204 204
204 204 204
204 204 204
204 204 204
204 204 204
204 204 204
204 204 204
204 204 204
204 204 204
204 204 204
204 204 204
204 204 204
204 204 204
204 204 204
204 204 204
204 204 204
204 204 204
204 204 204
204 204 204
204 204 204
204 204 204
204 204 204
204 204 204
204 204 204
204 204 204
204 204 204
204 204 204
204 204 204
204 204 204
204 204 204
204 204 204
204 204 204
204 204 204
204 204 204
204 204 204
204 204 204
204 204 204
204 204 204
204 204 204
204 204 204
204 204 204
204 204 204
204 204 204
204 204 204
204 204 204
204 204 204
204 204 204
204 204 204
204 204 204
204 204 204
204 204 204
204 204 204
204 204 204
204 204 204
204 204 204
204 204 204
204 204 204
204 204 204
204 204 204
204 204 204
204 204 204
204 204 204
204 204 204
204 204 204
204 204 204
204 204 204
204 204 204
204 204 204
204 204 204
204 204 204
204 204 204
204 204 204
204 204 204
204 204 204
204 204 204
204 204 204
204 204 204
204 204 204
204 204 204
204 204 204
204 204 204
204 204 204
204 204 204
204 204 204
204 204 204
204 204 204
204 204 204
204 204 204
204 204 204
204 204 204
204 204 204
204 204 204
204 204 204
204 204 204
204 204 204
204 204 204
204 204 204
204 204 204
204 204 204
204 204 204
204 204 204
204 204 204
204 204 204
204 204 204
204 204 204
204 204 204
204 204 204
204 204 204
204 204 204
204 204 204
204 204 204
204 204 204
204 204 204
204 204 204
204 204 204
204 204 204
204 204 204
204 204 204
204 204 204
204 204 204
204 204 204
204 204 204
204 204 204
204 204 204
204 204 204
204 204 204
204 204 204
204 204 204
204 204 204
204 204 204
204 204 204
204 204 204
204 204 204
204 204 204
204 204 204
204 204 204
204 204 204
204 204 204
204 204 204
204 204 204
204 204 204
204 204 204
204 204 204
204 204 204
204 204 204
204 204 204
204 204 204
204 204 204
204 204 204
204 204 204
204 204 204
204 204 204
204 204 204
204 204 204
204 204 204
204 204 204
204 204 204
204 204 204
204 204 204
204 204 204
204 204 204
204 204 204
204 204 204
204 204 204
204 204 204
204 204 204
204 204 204
204 204 204
204 204 204
204 204 204
204 204 204
204 204 204
204 204 204
204 204 204
204 204 204
204 204 204
204 204 204
204 204 204
204 204 204
204 204 204
204 204 204
204 204 204
204 204 204
204 204 204
204 204 204
204 204 204
204 204 204
204 204 204
204 204 204
204 204 204
204 204 204
204 204 204
204 204 204
204 204 204
204 204 204
204 204 204
204 204 204
204 204 204
204 204 204
204 204 204
204 204 204
204 204 204
204 204 204
204 204 204
204 204 204
204 204 204
204 204 204
204 204 204
204 204 204
204 204 204
204 204 204
204 204 204
204 204 204
204 204 204
204 204 204
204 204 204
204 204 204
204 204 204
204 204 204
204 204 204
204 204 204
204 204 204
204 204 204
204 204 204
204 204 204
204 204 204
204 204 204
204 204 204
204 204 204
204 204 204
204 204 204
204 204 204
204 204 204
204 204 204
204 204 204
204 204 204
204 204 204
204 204 204
204 204 204
204 204 204
204 204 204
204 204 204
204 204 204
204 204 204
204 204 204
204 204 204
204 204 204
204 204 204
204 204 204
204 204 204
204 204 204
204 204 204
204 204 204
204 204 204
204 204 204
204 204 204
204 204 204
204 204 204
204 204 204
204 204 204
204 204 204
204 204 204
204 204 204
204 204 204
204 204 204
204 204 204
204 204 204
204 204 204
204 204 204
204 204 204
204 204 204
204 204 204
204 204 204
204 204 204
204 204 204
204 204 204
204 204 204
204 204 204
204 204 204
204 204 204
204 204 204
204 204 204
204 204 204
204 204 204
204 204 204
204 204 204
204 204 204
204 204 204
204 204 204
204 204 204
204 204 204
204 204 204
204 204 204
204 204 204
204 204 204
204 204 204
204 204 204
204 204 204
204 204 204
204 204 204
204 204 204
204 204 204
204 204 204
204 204 204
204 204 204
204 204 204
204 204 204
204 204 204
204 204 204
204 204 204
204 204 204
204 204 204
204 204 204
204 204 204
204 204 204
204 204 204
204 204 204
204 204 204
204 204 204
204 204 204
204 204 204
204 204 204
204 204 204
204 204 204
204 204 204
204 204 204
204 204 204
204 204 204
204 204 204
204 204 204
204 204 204
204 204 204
204 204 204
204 204 204
204 204 204
204 204 204
204 204 204
204 204 204
204 204 204
204 204 204
204 204 204
204 204 204
204 204 204
204 204 204
204 204 204
204 204 204
204 204 204
204 204 204
204 204 204
204 204 204
204 204 204
204 204 204
204 204 204
204 204 204
204 204 204
204 204 204
204 204 204
204 204 204
204 204 204
204 204 204
204 204 204
204 204 204
204 204 204
204 204 204
204 204 204
204 204 204
204 204 204
204 204 204
204 204 204
204 204 204
204 204 204
204 204 204
204 204 204
204 204 204
204 204 204
204 204 204
204 204 204
204 204 204
204 204 204
204 204 204
204 204 204
204 204 204
204 204 204
204 204 204
204 204 204
204 204 204
204 204 204
204 204 204
204 204 204
204 204 204
204 204 204
204 204 204
204 204 204
204 204 204
204 204 204
204 204 204
204 204 204
204 204 204
204 204 204
204 204 204
204 204 204
204 204 204
204 204 204
204 204 204
204 204 204
204 204 204
204 204 204
204 204 204
204 204 204
204 204 204
204 204 204
204 204 204
204 204 204
204 204 204
204 204 204
204 204 204
204 204 204
204 204 204
204 204 204
204 204 204
204 204 204
204 204 204
204 204 204
204 204 204
204 204 204
204 204 204
204 204 204
204 204 204
204 204 204
204 204 204
204 204 204
204 204 204
204 204 204
204 204 204
204 204 204
204 204 204
204 204 204
204 204 204
204 204 204
204 204 204
204 204 204
204 204 204
204 204 204
204 204 204
204 204 204
204 204 204
204 204 204
204 204 204
204 204 204
204 204 204
204 204 204
204 204 204
204 204 204
204 204 204
204 204 204
204 204 204
204 204 204
204 204 204
204 204 204
204 204 204
204 204 204
204 204 204
204 204 204
204 204 204
204 204 204
204 204 204
204 204 204
204 204 204
204 204 204
204 204 204
204 204 204
204 204 204
204 204 204
204 204 204
204 204 204
204 204 204
204 204 204
204 204 204
204 204 204
204 204 204
204 204 204
204 204 204
204 204 204
204 204 204
204 204 204
204 204 204
204 204 204
204 204 204
204 204 204
204 204 204
204 204 204
204 204 204
204 204 204
204 204 204
204 204 204
204 204 204
204 204 204
204 204 204
204 204 204
204 204 204
204 204 204
204 204 204
204 204 204
204 204 204
204 204 204
204 204 204
204 204 204
204 204 204
204 204 204
204 204 204
204 204 204
204 204 204
204 204 204
204 204 204
204 204 204
204 204 204
204 204 204
204 204 204
204 204 204
204 204 204
204 204 204
204 204 204
204 204 204
204 204 204
204 204 204
204 204 204
204 204 204
204 204 204
204 204 204
204 204 204
204 204 204
204 204 204
204 204 204
204 204 204
204 204 204
204 204 204
204 204 204
204 204 204
204 204 204
204 204 204
204 204 204
204 204 204
204 204 204
204 204 204
204 204 204
204 204 204
204 204 204
204 204 204
204 204 204
204 204 204
204 204 204
204 204 204
204 204 204
204 204 204
204 204 204
204 204 204
204 204 204
204 204 204
204 204 204
204 204 204
204 204 204
204 204 204
204 204 204
204 204 204
204 204 204
204 204 204
204 204 204
204 204 204
204 204 204
204 204 204
204 204 204
204 204 204
204 204 204
204 204 204
204 204 204
204 204 204
204 204 204
204 204 204
204 204 204
204 204 204
204 204 204
204 204 204
204 204 204
204 204 204
204 204 204
204 204 204
204 204 204
204 204 204
204 204 204
204 204 204
204 204 204
204 204 204
204 204 204
204 204 204
204 204 204
204 204 204
204 204 204
204 204 204
204 204 204
204 204 204
204 204 204
204 204 204
204 204 204
204 204 204
204 204 204
204 204 204
204 204 204
204 204 204
204 204 204
204 204 204
204 204 204
204 204 204
204 204 204
204 204 204
204 204 204
204 204 204
204 204 204
204 204 204
204 204 204
204 204 204
204 204 204
204 204 204
204 204 204
204 204 204
204 204 204
204 204 204
204 204 204
204 204 204
204 204 204
204 204 204
204 204 204
204 204 204
204 204 204
204 204 204
204 204 204
204 204 204
204 204 204
204 204 204
204 204 204
204 204 204
204 204 204
204 204 204
204 204 204
204 204 204
204 204 204
204 204 204
204 204 204
204 204 204
204 204 204
204 204 204
204 204 204
204 204 204
204 204 204
204 204 204
204 204 204
204 204 204
204 204 204
204 204 204
204 204 204
204 204 204
204 204 204
204 204 204
204 204 204
204 204 204
204 204 204
204 204 204
204 204 204
204 204 204
204 204 204
204 204 204
204 204 204
204 204 204
204 204 204
204 204 204
204 204 204
204 204 204
204 204 204
204 204 204
204 204 204
204 204 204
204 204 204
204 204 204
204 204 204
204 204 204
204 204 204
204 204 204
204 204 204
204 204 204
204 204 204
204 204 204
204 204 204
204 204 204
204 204 204
204 204 204
204 204 204
204 204 204
204 204 204
204 204 204
204 204 204
204 204 204
204 204 204
204 204 204
204 204 204
204 204 204
204 204 204
204 204 204
204 204 204
204 204 204
204 204 204
204 204 204
204 204 204
204 204 204
204 204 204
204 204 204
204 204 204
204 204 204
204 204 204
204 204 204
204 204 204
204 204 204
204 204 204
204 204 204
204 204 204
204 204 204
204 204 204
204 204 204
204 204 204
204 204 204
204 204 204
204 204 204
204 204 204
204 204 204
204 204 204
204 204 204
204 204 204
204 204 204
204 204 204
204 204 204
204 204 204
204 204 204
204 204 204
204 204 204
204 204 204
204 204 204
204 204 204
204 204 204
204 204 204
204 204 204
204 204 204
204 204 204
204 204 204
204 204 204
204 204 204
204 204 204
204 204 204
204 204 204
204 204 204
204 204 204
204 204 204
204 204 204
204 204 204
204 204 204
204 204 204
204 204 204
204 204 204
204 204 204
204 204 204
204 204 204
204 204 204
204 204 204
204 204 204
204 204 204
204 204 204
204 204 204
204 204 204
204 204 204
204 204 204
204 204 204
204 204 204
204 204 204
204 204 204
204 204 204
204 204 204
204 204 204
204 204 204
204 204 204
204 204 204
204 204 204
204 204 204
204 204 204
204 204 204
204 204 204
204 204 204
204 204 204
204 204 204
204 204 204
204 204 204
204 204 204
204 204 204
204 204 204
204 204 204
204 204 204
204 204 204
204 204 204
204 204 204
204 204 204
204 204 204
204 204 204
204 204 204
204 204 204
204 204 204
204 204 204
204 204 204
204 204 204
204 204 204
204 204 204
204 204 204
204 204 204
204 204 204
204 204 204
204 204 204
204 204 204
204 204 204
204 204 204
204 204 204
204 204 204
204 204 204
204 204 204
204 204 204
204 204 204
204 204 204
204 204 204
204 204 204
204 204 204
204 204 204
204 204 204
204 204 204
204 204 204
204 204 204
204 204 204
204 204 204
204 204 204
204 204 204
204 204 204
204 204 204
204 204 204
204 204 204
204 204 204
204 204 204
204 204 204
204 204 204
204 204 204
204 204 204
204 204 204
204 204 204
204 204 204
204 204 204
204 204 204
204 204 204
204 204 204
204 204 204
204 204 204
204 204 204
204 204 204
204 204 204
204 204 204
204 204 204
204 204 204
204 204 204
204 204 204
204 204 204
204 204 204
204 204 204
204 204 204
204 204 204
204 204 204
204 204 204
204 204 204
204 204 204
204 204 204
204 204 204
204 204 204
204 204 204
204 204 204
204 204 204
204 204 204
204 204 204
204 204 204
204 204 204
204 204 204
204 204 204
204 204 204
204 204 204
204 204 204
204 204 204
204 204 204
204 204 204
204 204 204
204 204 204
204 204 204
204 204 204
204 204 204
204 204 204
204 204 204
204 204 204
204 204 204
204 204 204
204 204 204
204 204 204
204 204 204
204 204 204
204 204 204
204 204 204
204 204 204
204 204 204
204 204 204
204 204 204
204 204 204
204 204 204
204 204 204
204 204 204
204 204 204
204 204 204
204 204 204
204 204 204
204 204 204
204 204 204
204 204 204
204 204 204
204 204 204
204 204 204
204 204 204
204 204 204
204 204 204
204 204 204
204 204 204
204 204 204
204 204 204
204 204 204
204 204 204
204 204 204
204 204 204
204 204 204
204 204 204
204 204 204
204 204 204
204 204 204
204 204 204
204 204 204
204 204 204
204 204 204
204 204 204
204 204 204
204 204 204
204 204 204
204 204 204
204 204 204
204 204 204
204 204 204
204 204 204
204 204 204
204 204 204
204 204 204
204 204 204
204 204 204
204 204 204
204 204 204
204 204 204
204 204 204
204 204 204
204 204 204
204 204 204
204 204 204
204 204 204
204 204 204
204 204 204
204 204 204
204 204 204
204 204 204
204 204 204
204 204 204
204 204 204
204 204 204
204 204 204
204 204 204
204 204 204
204 204 204
204 204 204
204 204 204
204 204 204
204 204 204
204 204 204
204 204 204
204 204 204
204 204 204
204 204 204
204 204 204
204 204 204
204 204 204
204 204 204
204 204 204
204 204 204
204 204 204
204 204 204
204 204 204
204 204 204
204 204 204
204 204 204
204 204 204
204 204 204
204 204 204
204 204 204
204 204 204
204 204 204
204 204 204
204 204 204
204 204 204
204 204 204
204 204 204
204 204 204
204 204 204
204 204 204
204 204 204
204 204 204
204 204 204
204 204 204
204 204 204
204 204 204
204 204 204
204 204 204
204 204 204
204 204 204
204 204 204
204 204 204
204 204 204
204 204 204
204 204 204
204 204 204
204 204 204
204 204 204
204 204 204
204 204 204
204 204 204
204 204 204
204 204 204
204 204 204
204 204 204
204 204 204
204 204 204
204 204 204
204 204 204
204 204 204
204 204 204
204 204 204
204 204 204
204 204 204
204 204 204
204 204 204
204 204 204
204 204 204
204 204 204
204 204 204
204 204 204
204 204 204
204 204 204
204 204 204
204 204 204
204 204 204
204 204 204
204 204 204
204 204 204
204 204 204
204 204 204
204 204 204
204 204 204
204 204 204
204 204 204
204 204 204
204 204 204
204 204 204
204 204 204
204 204 204
204 204 204
204 204 204
204 204 204
204 204 204
204 204 204
204 204 204
204 204 204
204 204 204
204 204 204
204 204 204
204 204 204
204 204 204
204 204 204
204 204 204
204 204 204
204 204 204
204 204 204
204 204 204
204 204 204
204 204 204
204 204 204
204 204 204
204 204 204
204 204 204
204 204 204
204 204 204
204 204 204
204 204 204
204 204 204
204 204 204
204 204 204
204 204 204
204 204 204
204 204 204
204 204 204
204 204 204
204 204 204
204 204 204
204 204 204
204 204 204
204 204 204
204 204 204
204 204 204
204 204 204
204 204 204
204 204 204
204 204 204
204 204 204
204 204 204
204 204 204
204 204 204
204 204 204
204 204 204
204 204 204
204 204 204
204 204 204
204 204 204
204 204 204
204 204 204
204 204 204
204 204 204
204 204 204
204 204 204
204 204 204
204 204 204
204 204 204
204 204 204
204 204 204
204 204 204
204 204 204
204 204 204
204 204 204
204 204 204
204 204 204
204 204 204
204 204 204
204 204 204
204 204 204
204 204 204
204 204 204
204 204 204
204 204 204
204 204 204
204 204 204
204 204 204
204 204 204
204 204 204
204 204 204
204 204 204
204 204 204
204 204 204
204 204 204
204 204 204
204 204 204
204 204 204
204 204 204
204 204 204
204 204 204
204 204 204
204 204 204
204 204 204
204 204 204
204 204 204
204 204 204
204 204 204
204 204 204
204 204 204
204 204 204
204 204 204
204 204 204
204 204 204
204 204 204
204 204 204
204 204 204
204 204 204
204 204 204
204 204 204
204 204 204
204 204 204
204 204 204
204 204 204
204 204 204
204 204 204
204 204 204
204 204 204
204 204 204
204 204 204
204 204 204
204 204 204
204 204 204
204 204 204
204 204 204
204 204 204
204 204 204
204 204 204
204 204 204
204 204 204
204 204 204
204 204 204
204 204 204
204 204 204
204 204 204
204 204 204
204 204 204
204 204 204
204 204 204
204 204 204
204 204 204
204 204 204
204 204 204
204 204 204
204 204 204
204 204 204
204 204 204
204 204 204
204 204 204
204 204 204
204 204 204
204 204 204
204 204 204
204 204 204
204 204 204
204 204 204
204 204 204
204 204 204
204 204 204
204 204 204
204 204 204
204 204 204
204 204 204
204 204 204
204 204 204
204 204 204
204 204 204
204 204 204
204 204 204
204 204 204
204 204 204
204 204 204
204 204 204
204 204 204
204 204 204
204 204 204
204 204 204
204 204 204
204 204 204
204 204 204
204 204 204
204 204 204
204 204 204
204 204 204
204 204 204
204 204 204
204 204 204
204 204 204
204 204 204
204 204 204
204 204 204
204 204 204
204 204 204
204 204 204
204 204 204
204 204 204
204 204 204
204 204 204
204 204 204
204 204 204
204 204 204
204 204 204
204 204 204
204 204 204
204 204 204
204 204 204
204 204 204
204 204 204
204 204 204
204 204 204
204 204 204
204 204 204
204 204 204
204 204 204
204 204 204
204 204 204
204 204 204
204 204 204
204 204 204
204 204 204
204 204 204
204 204 204
204 204 204
204 204 204
204 204 204
204 204 204
204 204 204
204 204 204
204 204 204
204 204 204
204 204 204
204 204 204
204 204 204
204 204 204
204 204 204
204 204 204
204 204 204
204 204 204
204 204 204
204 204 204
204 204 204
204 204 204
204 204 204
204 204 204
204 204 204
204 204 204
204 204 204
204 204 204
204 204 204
204 204 204
204 204 204
204 204 204
204 204 204
204 204 204
204 204 204
204 204 204
204 204 204
204 204 204
204 204 204
204 204 204
204 204 204
204 204 204
204 204 204
204 204 204
204 204 204
204 204 204
204 204 204
204 204 204
204 204 204
204 204 204
204 204 204
204 204 204
204 204 204
204 204 204
204 204 204
204 204 204
204 204 204
204 204 204
204 204 204
204 204 204
204 204 204
204 204 204
204 204 204
204 204 204
204 204 204
204 204 204
204 204 204
204 204 204
204 204 204
204 204 204
204 204 204
204 204 204
204 204 204
204 204 204
204 204 204
204 204 204
204 204 204
204 204 204
204 204 204
204 204 204
204 204 204
204 204 204
204 204 204
204 204 204
204 204 204
204 204 204
204 204 204
204 204 204
204 204 204
204 204 204
204 204 204
204 204 204
204 204 204
204 204 204
204 204 204
204 204 204
204 204 204
204 204 204
204 204 204
204 204 204
204 204 204
204 204 204
204 204 204
204 204 204
204 204 204
204 204 204
204 204 204
204 204 204
204 204 204
204 204 204
204 204 204
204 204 204
204 204 204
204 204 204
204 204 204
204 204 204
204 204 204
204 204 204
204 204 204
204 204 204
204 204 204
204 204 204
204 204 204
204 204 204
204 204 204
204 204 204
204 204 204
204 204 204
204 204 204
204 204 204
204 204 204
204 204 204
204 204 204
204 204 204
204 204 204
204 204 204
204 204 204
204 204 204
204 204 204
204 204 204
204 204 204
204 204 204
204 204 204
204 204 204
204 204 204
204 204 204
204 204 204
204 204 204
204 204 204
204 204 204
204 204 204
204 204 204
204 204 204
204 204 204
204 204 204
204 204 204
204 204 204
204 204 204
204 204 204
204 204 204
204 204 204
204 204 204
204 204 204
204 204 204
204 204 204
204 204 204
204 204 204
204 204 204
204 204 204
204 204 204
204 204 204
204 204 204
204 204 204
204 204 204
204 204 204
204 204 204
204 204 204
204 204 204
204 204 204
204 204 204
204 204 204
204 204 204
204 204 204
204 204 204
204 204 204
204 204 204
204 204 204
204 204 204
204 204 204
204 204 204
204 204 204
204 204 204
204 204 204
204 204 204
204 204 204
204 204 204
204 204 204
204 204 204
204 204 204
204 204 204
204 204 204
204 204 204
204 204 204
204 204 204
204 204 204
204 204 204
204 204 204
204 204 204
204 204 204
204 204 204
204 204 204
204 204 204
204 204 204
204 204 204
204 204 204
204 204 204
204 204 204
204 204 204
204 204 204
204 204 204
204 204 204
204 204 204
204 204 204
204 204 204
204 204 204
204 204 204
204 204 204
204 204 204
204 204 204
204 204 204
204 204 204
204 204 204
204 204 204
204 204 204
204 204 204
204 204 204
204 204 204
204 204 204
204 204 204
204 204 204
204 204 204
204 204 204
204 204 204
204 204 204
204 204 204
204 204 204
204 204 204
204 204 204
204 204 204
204 204 204
204 204 204
204 204 204
204 204 204
204 204 204
204 204 204
204 204 204
204 204 204
204 204 204
204 204 204
204 204 204
204 204 204
204 204 204
204 204 204
204 204 204
204 204 204
204 204 204
204 204 204
204 204 204
204 204 204
204 204 204
204 204 204
204 204 204
204 204 204
204 204 204
204 204 204
204 204 204
204 204 204
204 204 204
204 204 204
204 204 204
204 204 204
204 204 204
204 204 204
204 204 204
204 204 204
204 204 204
204 204 204
204 204 204
204 204 204
204 204 204
204 204 204
204 204 204
204 204 204
204 204 204
204 204 204
204 204 204
204 204 204
204 204 204
204 204 204
204 204 204
204 204 204
204 204 204
204 204 204
204 204 204
204 204 204
204 204 204
204 204 204
204 204 204
204 204 204
204 204 204
204 204 204
204 204 204
204 204 204
204 204 204
204 204 204
204 204 204
204 204 204
204 204 204
204 204 204
204 204 204
204 204 204
204 204 204
204 204 204
204 204 204
204 204 204
204 204 204
204 204 204
204 204 204
204 204 204
204 204 204
204 204 204
204 204 204
204 204 204
204 204 204
204 204 204
204 204 204
204 204 204
204 204 204
204 204 204
204 204 204
204 204 204
204 204 204
204 204 204
204 204 204
204 204 204
204 204 204
204 204 204
204 204 204
204 204 204
204 204 204
204 204 204
204 204 204
204 204 204
204 204 204
204 204 204
204 204 204
204 204 204
204 204 204
204 204 204
204 204 204
204 204 204
204 204 204
204 204 204
204 204 204
204 204 204
204 204 204
204 204 204
204 204 204
204 204 204
204 204 204
204 204 204
204 204 204
204 204 204
204 204 204
204 204 204
204 204 204
204 204 204
204 204 204
204 204 204
204 204 204
204 204 204
204 204 204
204 204 204
204 204 204
204 204 204
204 204 204
204 204 204
204 204 204
204 204 204
204 204 204
204 204 204
204 204 204
204 204 204
204 204 204
204 204 204
204 204 204
204 204 204
204 204 204
204 204 204
204 204 204
204 204 204
204 204 204
204 204 204
204 204 204
204 204 204
204 204 204
204 204 204
204 204 204
204 204 204
204 204 204
204 204 204
204 204 204
204 204 204
204 204 204
204 204 204
204 204 204
204 204 204
204 204 204
204 204 204
204 204 204
204 204 204
204 204 204
204 204 204
204 204 204
204 204 204
204 204 204
204 204 204
204 204 204
204 204 204
204 204 204
204 204 204
204 204 204
204 204 204
204 204 204
204 204 204
204 204 204
204 204 204
204 204 204
204 204 204
204 204 204
204 204 204
204 204 204
204 204 204
204 204 204
204 204 204
204 204 204
204 204 204
204 204 204
204 204 204
204 204 204
204 204 204
204 204 204
204 204 204
204 204 204
204 204 204
204 204 204
204 204 204
204 204 204
204 204 204
204 204 204
204 204 204
204 204 204
204 204 204
204 204 204
204 204 204
204 204 204
204 204 204
204 204 204
204 204 204
204 204 204
204 204 204
204 204 204
204 204 204
204 204 204
204 204 204
204 204 204
204 204 204
204 204 204
204 204 204
204 204 204
204 204 204
204 204 204
204 204 204
204 204 204
204 204 204
204 204 204
204 204 204
204 204 204
204 204 204
204 204 204
204 204 204
204 204 204
204 204 204
204 204 204
204 204 204
204 204 204
204 204 204
204 204 204
204 204 204
204 204 204
204 204 204
204 204 204
204 204 204
204 204 204
204 204 204
204 204 204
204 204 204
204 204 204
204 204 204
204 204 204
204 204 204
204 204 204
204 204 204
204 204 204
204 204 204
204 204 204
204 204 204
204 204 204
204 204 204
204 204 204
204 204 204
204 204 204
204 204 204
204 204 204
204 204 204
204 204 204
204 204 204
204 204 204
204 204 204
204 204 204
204 204 204
204 204 204
204 204 204
204 204 204
204 204 204
204 204 204
204 204 204
204 204 204
204 204 204
204 204 204
204 204 204
204 204 204
204 204 204
204 204 204
204 204 204
204 204 204
204 204 204
204 204 204
204 204 204
204 204 204
204 204 204
204 204 204
204 204 204
204 204 204
204 204 204
204 204 204
204 204 204
204 204 204
204 204 204
204 204 204
204 204 204
204 204 204
204 204 204
204 204 204
204 204 204
204 204 204
204 204 204
204 204 204
204 204 204
204 204 204
204 204 204
204 204 204
204 204 204
204 204 204
204 204 204
204 204 204
204 204 204
204 204 204
204 204 204
204 204 204
204 204 204
204 204 204
204 204 204
204 204 204
204 204 204
204 204 204
204 204 204
204 204 204
204 204 204
204 204 204
204 204 204
204 204 204
204 204 204
204 204 204
204 204 204
204 204 204
204 204 204
204 204 204
204 204 204
204 204 204
204 204 204
204 204 204
204 204 204
204 204 204
204 204 204
204 204 204
204 204 204
204 204 204
204 204 204
204 204 204
204 204 204
204 204 204
204 204 204
204 204 204
204 204 204
204 204 204
204 204 204
204 204 204
204 204 204
204 204 204
204 204 204
204 204 204
204 204 204
204 204 204
204 204 204
204 204 204
204 204 204
204 204 204
204 204 204
204 204 204
204 204 204
204 204 204
204 204 204
204 204 204
204 204 204
204 204 204
204 204 204
204 204 204
204 204 204
204 204 204
204 204 204
204 204 204
204 204 204
204 204 204
204 204 204
204 204 204
204 204 204
204 204 204
204 204 204
204 204 204
204 204 204
204 204 204
204 204 204
204 204 204
204 204 204
204 204 204
204 204 204
204 204 204
204 204 204
204 204 204
204 204 204
204 204 204
204 204 204
204 204 204
204 204 204
204 204 204
204 204 204
204 204 204
204 204 204
204 204 204
204 204 204
204 204 204
204 204 204
204 204 204
204 204 204
204 204 204
204 204 204
204 204 204
204 204 204
204 204 204
204 204 204
204 204 204
204 204 204
204 204 204
204 204 204
204 204 204
204 204 204
204 204 204
204 204 204
204 204 204
204 204 204
204 204 204
204 204 204
204 204 204
204 204 204
204 204 204
204 204 204
204 204 204
204 204 204
204 204 204
204 204 204
204 204 204
204 204 204
204 204 204
204 204 204
204 204 204
204 204 204
204 204 204
204 204 204
204 204 204
204 204 204
204 204 204
204 204 204
204 204 204
204 204 204
204 204 204
204 204 204
204 204 204
204 204 204
204 204 204
204 204 204
204 204 204
204 204 204
204 204 204
204 204 204
204 204 204
204 204 204
204 204 204
204 204 204
204 204 204
204 204 204
204 204 204
204 204 204
204 204 204
204 204 204
204 204 204
204 204 204
204 204 204
204 204 204
204 204 204
204 204 204
204 204 204
204 204 204
204 204 204
204 204 204
204 204 204
204 204 204
204 204 204
204 204 204
204 204 204
204 204 204
204 204 204
204 204 204
204 204 204
204 204 204
204 204 204
204 204 204
204 204 204
204 204 204
204 204 204
204 204 204
204 204 204
204 204 204
204 204 204
204 204 204
204 204 204
204 204 204
204 204 204
204 204 204
204 204 204
204 204 204
204 204 204
204 204 204
204 204 204
204 204 204
204 204 204
204 204 204
204 204 204
204 204 204
204 204 204
204 204 204
204 204 204
204 204 204
204 204 204
204 204 204
204 204 204
204 204 204
204 204 204
204 204 204
204 204 204
204 204 204
204 204 204
204 204 204
204 204 204
204 204 204
204 204 204
204 204 204
204 204 204
204 204 204
204 204 204
204 204 204
204 204 204
204 204 204
204 204 204
204 204 204
204 204 204
204 204 204
204 204 204
204 204 204
204 204 204
204 204 204
204 204 204
204 204 204
204 204 204
204 204 204
204 204 204
204 204 204
204 204 204
204 204 204
204 204 204
204 204 204
204 204 204
204 204 204
204 204 204
204 204 204
204 204 204
204 204 204
204 204 204
204 204 204
204 204 204
204 204 204
204 204 204
204 204 204
204 204 204
204 204 204
204 204 204
204 204 204
204 204 204
204 204 204
204 204 204
204 204 204
204 204 204
204 204 204
204 204 204
204 204 204
204 204 204
204 204 204
204 204 204
204 204 204
204 204 204
204 204 204
204 204 204
204 204 204
204 204 204
204 204 204
204 204 204
204 204 204
204 204 204
204 204 204
204 204 204
204 204 204
204 204 204
204 204 204
204 204 204
204 204 204
204 204 204
204 204 204
204 204 204
204 204 204
204 204 204
204 204 204
204 204 204
204 204 204
204 204 204
204 204 204
204 204 204
204 204 204
204 204 204
204 204 204
204 204 204
204 204 204
204 204 204
204 204 204
204 204 204
204 204 204
204 204 204
204 204 204
204 204 204
204 204 204
204 204 204
204 204 204
204 204 204
204 204 204
204 204 204
204 204 204
204 204 204
204 204 204
204 204 204
204 204 204
204 204 204
204 204 204
204 204 204
204 204 204
204 204 204
204 204 204
204 204 204
204 204 204
204 204 204
204 204 204
204 204 204
204 204 204
204 204 204
204 204 204
204 204 204
204 204 204
204 204 204
204 204 204
204 204 204
204 204 204
204 204 204
204 204 204
204 204 204
204 204 204
204 204 204
204 204 204
204 204 204
204 204 204
204 204 204
204 204 204
204 204 204
204 204 204
204 204 204
204 204 204
204 204 204
204 204 204
204 204 204
204 204 204
204 204 204
204 204 204
204 204 204
204 204 204
204 204 204
204 204 204
204 204 204
204 204 204
204 204 204
204 204 204
204 204 204
204 204 204
204 204 204
204 204 204
204 204 204
204 204 204
204 204 204
204 204 204
204 204 204
204 204 204
204 204 204
204 204 204
204 204 204
204 204 204
204 204 204
204 204 204
204 204 204
204 204 204
204 204 204
204 204 204
204 204 204
204 204 204
204 204 204
204 204 204
204 204 204
204 204 204
204 204 204
204 204 204
204 204 204
204 204 204
204 204 204
204 204 204
204 204 204
204 204 204
204 204 204
204 204 204
204 204 204
204 204 204
204 204 204
204 204 204
204 204 204
204 204 204
204 204 204
204 204 204
204 204 204
204 204 204
204 204 204
204 204 204
204 204 204
204 204 204
204 204 204
204 204 204
204 204 204
204 204 204
204 204 204
204 204 204
204 204 204
204 204 204
204 204 204
204 204 204
204 204 204
204 204 204
204 204 204
204 204 204
204 204 204
204 204 204
204 204 204
204 204 204
204 204 204
204 204 204
204 204 204
204 204 204
204 204 204
204 204 204
204 204 204
204 204 204
204 204 204
204 204 204
204 204 204
204 204 204
204 204 204
204 204 204
204 204 204
204 204 204
204 204 204
204 204 204
204 204 204
204 204 204
204 204 204
204 204 204
204 204 204
204 204 204
204 204 204
204 204 204
204 204 204
204 204 204
204 204 204
204 204 204
204 204 204
204 204 204
204 204 204
204 204 204
204 204 204
204 204 204
204 204 204
204 204 204
204 204 204
204 204 204
204 204 204
204 204 204
204 204 204
204 204 204
204 204 204
204 204 204
204 204 204
204 204 204
204 204 204
204 204 204
204 204 204
204 204 204
204 204 204
204 204 204
204 204 204
204 204 204
204 204 204
204 204 204
204 204 204
204 204 204
204 204 204
204 204 204
204 204 204
204 204 204
204 204 204
204 204 204
204 204 204
204 204 204
204 204 204
204 204 204
204 204 204
204 204 204
204 204 204
204 204 204
204 204 204
204 204 204
204 204 204
204 204 204
204 204 204
204 204 204
204 204 204
204 204 204
204 204 204
204 204 204
204 204 204
204 204 204
204 204 204
204 204 204
204 204 204
204 204 204
204 204 204
204 204 204
204 204 204
204 204 204
204 204 204
204 204 204
204 204 204
204 204 204
204 204 204
204 204 204
204 204 204
204 204 204
204 204 204
204 204 204
204 204 204
204 204 204
204 204 204
204 204 204
204 204 204
204 204 204
204 204 204
204 204 204
204 204 204
204 204 204
204 204 204
204 204 204
204 204 204
204 204 204
204 204 204
204 204 204
204 204 204
204 204 204
204 204 204
204 204 204
204 204 204
204 204 204
204 204 204
204 204 204
204 204 204
204 204 204
204 204 204
204 204 204
204 204 204
204 204 204
204 204 204
204 204 204
204 204 204
204 204 204
204 204 204
204 204 204
204 204 204
204 204 204
204 204 204
204 204 204
204 204 204
204 204 204
204 204 204
204 204 204
204 204 204
204 204 204
204 204 204
204 204 204
204 204 204
204 204 204
204 204 204
204 204 204
204 204 204
204 204 204
204 204 204
204 204 204
204 204 204
204 204 204
204 204 204
204 204 204
204 204 204
204 204 204
204 204 204
204 204 204
204 204 204
204 204 204
204 204 204
204 204 204
204 204 204
204 204 204
204 204 204
204 204 204
204 204 204
204 204 204
204 204 204
204 204 204
204 204 204
204 204 204
204 204 204
204 204 204
204 204 204
204 204 204
204 204 204
204 204 204
204 204 204
204 204 204
204 204 204
204 204 204
204 204 204
204 204 204
204 204 204
204 204 204
204 204 204
204 204 204
204 204 204
204 204 204
204 204 204
204 204 204
204 204 204
204 204 204
204 204 204
204 204 204
204 204 204
204 204 204
204 204 204
204 204 204
204 204 204
204 204 204
204 204 204
204 204 204
204 204 204
204 204 204
204 204 204
204 204 204
204 204 204
204 204 204
204 204 204
204 204 204
204 204 204
204 204 204
204 204 204
204 204 204
204 204 204
204 204 204
204 204 204
204 204 204
204 204 204
204 204 204
204 204 204
204 204 204
204 204 204
204 204 204
204 204 204
204 204 204
204 204 204
204 204 204
204 204 204
204 204 204
204 204 204
204 204 204
204 204 204
204 204 204
204 204 204
204 204 204
204 204 204
204 204 204
204 204 204
204 204 204
204 204 204
204 204 204
204 204 204
204 204 204
204 204 204
204 204 204
204 204 204
204 204 204
204 204 204
204 204 204
204 204 204
204 204 204
204 204 204
204 204 204
204 204 204
204 204 204
204 204 204
204 204 204
204 204 204
204 204 204
204 204 204
204 204 204
204 204 204
204 204 204
204 204 204
204 204 204
204 204 204
204 204 204
204 204 204
204 204 204
204 204 204
204 204 204
204 204 204
204 204 204
204 204 204
204 204 204
204 204 204
204 204 204
204 204 204
204 204 204
204 204 204
204 204 204
204 204 204
204 204 204
204 204 204
204 204 204
204 204 204
204 204 204
204 204 204
204 204 204
204 204 204
204 204 204
204 204 204
204 204 204
204 204 204
204 204 204
204 204 204
204 204 204
204 204 204
204 204 204
204 204 204
204 204 204
204 204 204
204 204 204
204 204 204
204 204 204
204 204 204
204 204 204
204 204 204
204 204 204
204 204 204
204 204 204
204 204 204
204 204 204
204 204 204
204 204 204
204 204 204
204 204 204
204 204 204
204 204 204
204 204 204
204 204 204
204 204 204
204 204 204
204 204 204
204 204 204
204 204 204
204 204 204
204 204 204
204 204 204
204 204 204
204 204 204
204 204 204
204 204 204
204 204 204
204 204 204
204 204 204
204 204 204
204 204 204
204 204 204
204 204 204
204 204 204
204 204 204
204 204 204
204 204 204
204 204 204
204 204 204
204 204 204
204 204 204
204 204 204
204 204 204
204 204 204
204 204 204
204 204 204
204 204 204
204 204 204
204 204 204
204 204 204
204 204 204
204 204 204
204 204 204
204 204 204
204 204 204
204 204 204
204 204 204
204 204 204
204 204 204
204 204 204
204 204 204
204 204 204
204 204 204
204 204 204
204 204 204
204 204 204
204 204 204
204 204 204
204 204 204
204 204 204
204 204 204
204 204 204
204 204 204
204 204 204
204 204 204
204 204 204
204 204 204
204 204 204
204 204 204
204 204 204
204 204 204
204 204 204
204 204 204
204 204 204
204 204 204
204 204 204
204 204 204
204 204 204
204 204 204
204 204 204
204 204 204
204 204 204
204 204 204
204 204 204
204 204 204
204 204 204
204 204 204
204 204 204
204 204 204
204 204 204
204 204 204
204 204 204
204 204 204
204 204 204
204 204 204
204 204 204
204 204 204
204 204 204
204 204 204
204 204 204
204 204 204
204 204 204
204 204 204
204 204 204
204 204 204
204 204 204
204 204 204
204 204 204
204 204 204
204 204 204
204 204 204
204 204 204
204 204 204
204 204 204
204 204 204
204 204 204
204 204 204
204 204 204
204 204 204
204 204 204
204 204 204
204 204 204
204 204 204
204 204 204
204 204 204
204 204 204
204 204 204
204 204 204
204 204 204
204 204 204
204 204 204
204 204 204
204 204 204
204 204 204
204 204 204
204 204 204
204 204 204
204 204 204
204 204 204
204 204 204
204 204 204
204 204 204
204 204 204
204 204 204
204 204 204
204 204 204
204 204 204
204 204 204
204 204 204
204 204 204
204 204 204
204 204 204
204 204 204
204 204 204
204 204 204
204 204 204
204 204 204
204 204 204
204 204 204
204 204 204
204 204 204
204 204 204
204 204 204
204 204 204
204 204 204
204 204 204
204 204 204
204 204 204
204 204 204
204 204 204
204 204 204
204 204 204
204 204 204
204 204 204
204 204 204
204 204 204
204 204 204
204 204 204
204 204 204
204 204 204
204 204 204
204 204 204
204 204 204
204 204 204
204 204 204
204 204 204
204 204 204
204 204 204
204 204 204
204 204 204
204 204 204
204 204 204
204 204 204
204 204 204
204 204 204
204 204 204
204 204 204
204 204 204
204 204 204
204 204 204
204 204 204
204 204 204
204 204 204
204 204 204
204 204 204
204 204 204
204 204 204
204 204 204
204 204 204
204 204 204
204 204 204
204 204 204
204 204 204
204 204 204
204 204 204
204 204 204
204 204 204
204 204 204
204 204 204
204 204 204
204 204 204
204 204 204
204 204 204
204 204 204
204 204 204
204 204 204
204 204 204
204 204 204
204 204 204
204 204 204
204 204 204
204 204 204
204 204 204
204 204 204
204 204 204
204 204 204
204 204 204
204 204 204
204 204 204
204 204 204
204 204 204
204 204 204
204 204 204
204 204 204
204 204 204
204 204 204
204 204 204
204 204 204
204 204 204
204 204 204
204 204 204
204 204 204
204 204 204
204 204 204
204 204 204
204 204 204
204 204 204
204 204 204
204 204 204
204 204 204
204 204 204
204 204 204
204 204 204
204 204 204
204 204 204
204 204 204
204 204 204
204 204 204
204 204 204
204 204 204
204 204 204
204 204 204
204 204 204
204 204 204
204 204 204
204 204 204
204 204 204
204 204 204
204 204 204
204 204 204
204 204 204
204 204 204
204 204 204
204 204 204
204 204 204
204 204 204
204 204 204
204 204 204
204 204 204
204 204 204
204 204 204
204 204 204
204 204 204
204 204 204
204 204 204
204 204 204
204 204 204
204 204 204
204 204 204
204 204 204
204 204 204
204 204 204
204 204 204
204 204 204
204 204 204
204 204 204
204 204 204
204 204 204
204 204 204
204 204 204
204 204 204
204 204 204
204 204 204
204 204 204
204 204 204
204 204 204
204 204 204
204 204 204
204 204 204
204 204 204
204 204 204
204 204 204
204 204 204
204 204 204
204 204 204
204 204 204
204 204 204
204 204 204
204 204 204
204 204 204
204 204 204
204 204 204
204 204 204
204 204 204
204 204 204
204 204 204
204 204 204
204 204 204
204 204 204
204 204 204
204 204 204
204 204 204
204 204 204
204 204 204
204 204 204
204 204 204
204 204 204
204 204 204
204 204 204
204 204 204
204 204 204
204 204 204
204 204 204
204 204 204
204 204 204
204 204 204
204 204 204
204 204 204
204 204 204
204 204 204
204 204 204
204 204 204
204 204 204
204 204 204
204 204 204
204 204 204
204 204 204
204 204 204
204 204 204
204 204 204
204 204 204
204 204 204
204 204 204
204 204 204
204 204 204
204 204 204
204 204 204
204 204 204
204 204 204
204 204 204
204 204 204
204 204 204
204 204 204
204 204 204
204 204 204
204 204 204
204 204 204
204 204 204
204 204 204
204 204 204
204 204 204
204 204 204
204 204 204
204 204 204
204 204 204
204 204 204
204 204 204
204 204 204
204 204 204
204 204 204
204 204 204
204 204 204
204 204 204
204 204 204
204 204 204
204 204 204
204 204 204
204 204 204
204 204 204
204 204 204
204 204 204
204 204 204
204 204 204
204 204 204
204 204 204
